(Generated by PartKam Version 0.05)

G20 G90 G40

(profile 3)
G0 Z0.25
T0 M6
G17
M3
G0 X0.0973 Y-0.3389
G1 Z-0.15 F30
G1 X14.7223 Y-0.3389 F20
G3 X14.8473 Y-0.2139 I0 J0.125
G1 X14.8473 Y7.6611
G3 X14.7223 Y7.7861 I-0.125 J0
G1 X0.0973 Y7.7861
G3 X-0.0277 Y7.6611 I0 J-0.125
G1 X-0.0277 Y-0.2139
G3 X0.0973 Y-0.3389 I0.125 J0
G1 Z-0.3 F30
G1 X14.7223 Y-0.3389 F20
G3 X14.8473 Y-0.2139 I0 J0.125
G1 X14.8473 Y7.6611
G3 X14.7223 Y7.7861 I-0.125 J0
G1 X0.0973 Y7.7861
G3 X-0.0277 Y7.6611 I0 J-0.125
G1 X-0.0277 Y-0.2139
G3 X0.0973 Y-0.3389 I0.125 J0
G1 Z-0.45 F30
G1 X14.7223 Y-0.3389 F20
G3 X14.8473 Y-0.2139 I0 J0.125
G1 X14.8473 Y7.6611
G3 X14.7223 Y7.7861 I-0.125 J0
G1 X0.0973 Y7.7861
G3 X-0.0277 Y7.6611 I0 J-0.125
G1 X-0.0277 Y-0.2139
G3 X0.0973 Y-0.3389 I0.125 J0
G1 Z-0.6 F30
G1 X14.7223 Y-0.3389 F20
G3 X14.8473 Y-0.2139 I0 J0.125
G1 X14.8473 Y7.6611
G3 X14.7223 Y7.7861 I-0.125 J0
G1 X0.0973 Y7.7861
G3 X-0.0277 Y7.6611 I0 J-0.125
G1 X-0.0277 Y-0.2139
G3 X0.0973 Y-0.3389 I0.125 J0
G1 Z-0.75 F30
G1 X14.7223 Y-0.3389 F20
G3 X14.8473 Y-0.2139 I0 J0.125
G1 X14.8473 Y7.6611
G3 X14.7223 Y7.7861 I-0.125 J0
G1 X0.0973 Y7.7861
G3 X-0.0277 Y7.6611 I0 J-0.125
G1 X-0.0277 Y-0.2139
G3 X0.0973 Y-0.3389 I0.125 J0
G1 Z-0.85 F30
G1 X14.7223 Y-0.3389 F20
G3 X14.8473 Y-0.2139 I0 J0.125
G1 X14.8473 Y7.6611
G3 X14.7223 Y7.7861 I-0.125 J0
G1 X0.0973 Y7.7861
G3 X-0.0277 Y7.6611 I0 J-0.125
G1 X-0.0277 Y-0.2139
G3 X0.0973 Y-0.3389 I0.125 J0
G0 Z0.25
M5
M30
