(Generated by PartKam Version 0.05)

G20 G90 G40

(pocket 1)
G0 Z0.25
T1 M6
G17
M3
G0 X5.1315 Y4.3529
G1 Z-0.05 F30
G1 X5.0905 Y4.4853 F10
G3 X4.9714 Y4.4862 I-0.0597 J-0.0185
G1 X4.9281 Y4.3529
G1 X4.788 Y4.3529
G3 X4.7255 Y4.2904 I0 J-0.0625
G3 X4.7513 Y4.2399 I0.0625 J0
G1 X4.8646 Y4.1575
G1 X4.8213 Y4.0242
G3 X4.8182 Y4.0049 I0.0594 J-0.0193
G3 X4.9175 Y3.9543 I0.0625 J0
G1 X5.0309 Y4.0367
G1 X5.1443 Y3.9543
G3 X5.2435 Y4.0049 I0.0367 J0.0506
G3 X5.2405 Y4.0242 I-0.0625 J0
G1 X5.1971 Y4.1575
G1 X5.3105 Y4.2399
G3 X5.3363 Y4.2904 I-0.0367 J0.0506
G3 X5.2738 Y4.3529 I-0.0625 J0
G1 X5.1315 Y4.3529
G0 Z0.25
G0 X5.1315 Y5.9701
G1 Z-0.05 F30
G1 X5.0905 Y6.1025 F10
G3 X4.9714 Y6.1034 I-0.0597 J-0.0185
G1 X4.9281 Y5.9701
G1 X4.788 Y5.9701
G3 X4.7255 Y5.9076 I0 J-0.0625
G3 X4.7513 Y5.857 I0.0625 J0
G1 X4.8646 Y5.7747
G1 X4.8213 Y5.6414
G3 X4.8182 Y5.6221 I0.0594 J-0.0193
G3 X4.9175 Y5.5715 I0.0625 J0
G1 X5.0309 Y5.6539
G1 X5.1443 Y5.5715
G3 X5.2435 Y5.6221 I0.0367 J0.0506
G3 X5.2405 Y5.6414 I-0.0625 J0
G1 X5.1971 Y5.7747
G1 X5.3105 Y5.857
G3 X5.3363 Y5.9076 I-0.0367 J0.0506
G3 X5.2738 Y5.9701 I-0.0625 J0
G1 X5.1315 Y5.9701
G0 Z0.25
G0 X4.6569 Y4.7572
G1 Z-0.05 F30
G1 X4.616 Y4.8896 F10
G3 X4.4968 Y4.8904 I-0.0597 J-0.0185
G1 X4.4535 Y4.7572
G1 X4.3134 Y4.7572
G3 X4.2509 Y4.6947 I0 J-0.0625
G3 X4.2767 Y4.6441 I0.0625 J0
G1 X4.3901 Y4.5618
G1 X4.3467 Y4.4285
G3 X4.3437 Y4.4092 I0.0594 J-0.0193
G3 X4.4429 Y4.3586 I0.0625 J0
G1 X4.5563 Y4.441
G1 X4.6696 Y4.3586
G3 X4.7689 Y4.4092 I0.0367 J0.0506
G3 X4.7658 Y4.4285 I-0.0625 J0
G1 X4.7225 Y4.5617
G1 X4.8359 Y4.6441
G3 X4.8617 Y4.6947 I-0.0367 J0.0506
G3 X4.7992 Y4.7572 I-0.0625 J0
G1 X4.6569 Y4.7572
G0 Z0.25
G0 X3.2331 Y6.7787
G1 Z-0.05 F30
G1 X3.1921 Y6.9112 F10
G3 X3.073 Y6.912 I-0.0597 J-0.0185
G1 X3.0297 Y6.7787
G1 X2.8896 Y6.7787
G3 X2.8271 Y6.7162 I0 J-0.0625
G3 X2.8529 Y6.6657 I0.0625 J0
G1 X2.9662 Y6.5833
G1 X2.9229 Y6.4501
G3 X2.9198 Y6.4307 I0.0594 J-0.0193
G3 X3.019 Y6.3802 I0.0625 J0
G1 X3.1324 Y6.4625
G1 X3.2459 Y6.3802
G3 X3.3451 Y6.4307 I0.0367 J0.0506
G3 X3.342 Y6.4501 I-0.0625 J0
G1 X3.2987 Y6.5833
G1 X3.4121 Y6.6657
G3 X3.4378 Y6.7162 I-0.0367 J0.0506
G3 X3.3753 Y6.7787 I-0.0625 J0
G1 X3.2331 Y6.7787
G0 Z0.25
G0 X4.1823 Y4.3529
G1 Z-0.05 F30
G1 X4.1414 Y4.4853 F10
G3 X4.0222 Y4.4862 I-0.0597 J-0.0185
G1 X3.979 Y4.3529
G1 X3.8388 Y4.3529
G3 X3.7763 Y4.2904 I0 J-0.0625
G3 X3.802 Y4.2399 I0.0625 J0
G1 X3.9154 Y4.1575
G1 X3.8721 Y4.0242
G3 X3.8691 Y4.0049 I0.0594 J-0.0193
G3 X3.9683 Y3.9543 I0.0625 J0
G1 X4.0817 Y4.0367
G1 X4.195 Y3.9543
G3 X4.2943 Y4.0049 I0.0367 J0.0506
G3 X4.2912 Y4.0242 I-0.0625 J0
G1 X4.248 Y4.1575
G1 X4.3613 Y4.2399
G3 X4.3871 Y4.2904 I-0.0367 J0.0506
G3 X4.3246 Y4.3529 I-0.0625 J0
G1 X4.1823 Y4.3529
G0 Z0.25
G0 X3.2331 Y5.1616
G1 Z-0.05 F30
G1 X3.1921 Y5.294 F10
G3 X3.073 Y5.2948 I-0.0597 J-0.0185
G1 X3.0297 Y5.1616
G1 X2.8896 Y5.1616
G3 X2.8271 Y5.0991 I0 J-0.0625
G3 X2.8529 Y5.0485 I0.0625 J0
G1 X2.9662 Y4.9661
G1 X2.9229 Y4.8329
G3 X2.9198 Y4.8135 I0.0594 J-0.0193
G3 X3.019 Y4.763 I0.0625 J0
G1 X3.1324 Y4.8454
G1 X3.2459 Y4.763
G3 X3.3451 Y4.8135 I0.0367 J0.0506
G3 X3.342 Y4.8329 I-0.0625 J0
G1 X3.2987 Y4.9661
G1 X3.4121 Y5.0485
G3 X3.4378 Y5.0991 I-0.0367 J0.0506
G3 X3.3753 Y5.1616 I-0.0625 J0
G1 X3.2331 Y5.1616
G0 Z0.25
G0 X2.7585 Y6.3744
G1 Z-0.05 F30
G1 X2.7175 Y6.5068 F10
G3 X2.5984 Y6.5076 I-0.0597 J-0.0185
G1 X2.5551 Y6.3744
G1 X2.415 Y6.3744
G3 X2.3525 Y6.3119 I0 J-0.0625
G3 X2.3783 Y6.2613 I0.0625 J0
G1 X2.4916 Y6.1789
G1 X2.4483 Y6.0457
G3 X2.4452 Y6.0264 I0.0594 J-0.0193
G3 X2.5445 Y5.9758 I0.0625 J0
G1 X2.6578 Y6.0582
G1 X2.7712 Y5.9758
G3 X2.8704 Y6.0264 I0.0367 J0.0506
G3 X2.8674 Y6.0457 I-0.0625 J0
G1 X2.8241 Y6.1789
G1 X2.9375 Y6.2613
G3 X2.9632 Y6.3119 I-0.0367 J0.0506
G3 X2.9007 Y6.3744 I-0.0625 J0
G1 X2.7585 Y6.3744
G0 Z0.25
G0 X4.1823 Y6.7787
G1 Z-0.05 F30
G1 X4.1414 Y6.9112 F10
G3 X4.0222 Y6.912 I-0.0597 J-0.0185
G1 X3.979 Y6.7787
G1 X3.8388 Y6.7787
G3 X3.7763 Y6.7162 I0 J-0.0625
G3 X3.802 Y6.6657 I0.0625 J0
G1 X3.9154 Y6.5833
G1 X3.8721 Y6.45
G3 X3.8691 Y6.4307 I0.0594 J-0.0193
G3 X3.9683 Y6.3802 I0.0625 J0
G1 X4.0817 Y6.4625
G1 X4.195 Y6.3802
G3 X4.2943 Y6.4307 I0.0367 J0.0506
G3 X4.2912 Y6.45 I-0.0625 J0
G1 X4.248 Y6.5833
G1 X4.3613 Y6.6657
G3 X4.3871 Y6.7162 I-0.0367 J0.0506
G3 X4.3246 Y6.7787 I-0.0625 J0
G1 X4.1823 Y6.7787
G0 Z0.25
G0 X2.2839 Y5.9701
G1 Z-0.05 F30
G1 X2.2429 Y6.1025 F10
G3 X2.1238 Y6.1034 I-0.0597 J-0.0185
G1 X2.0805 Y5.9701
G1 X1.9403 Y5.9701
G3 X1.8778 Y5.9076 I0 J-0.0625
G3 X1.9036 Y5.857 I0.0625 J0
G1 X2.017 Y5.7747
G1 X1.9737 Y5.6414
G3 X1.9706 Y5.6221 I0.0594 J-0.0193
G3 X2.0699 Y5.5715 I0.0625 J0
G1 X2.1832 Y5.6539
G1 X2.2966 Y5.5715
G3 X2.3958 Y5.6221 I0.0367 J0.0506
G3 X2.3928 Y5.6414 I-0.0625 J0
G1 X2.3495 Y5.7747
G1 X2.4629 Y5.857
G3 X2.4887 Y5.9076 I-0.0367 J0.0506
G3 X2.4262 Y5.9701 I-0.0625 J0
G1 X2.2839 Y5.9701
G0 Z0.25
G0 X2.2839 Y5.1616
G1 Z-0.05 F30
G1 X2.2429 Y5.294 F10
G3 X2.1238 Y5.2948 I-0.0597 J-0.0185
G1 X2.0805 Y5.1616
G1 X1.9403 Y5.1616
G3 X1.8778 Y5.0991 I0 J-0.0625
G3 X1.9036 Y5.0485 I0.0625 J0
G1 X2.017 Y4.9661
G1 X1.9737 Y4.8328
G3 X1.9706 Y4.8135 I0.0594 J-0.0193
G3 X2.0699 Y4.763 I0.0625 J0
G1 X2.1832 Y4.8453
G1 X2.2966 Y4.763
G3 X2.3958 Y4.8135 I0.0367 J0.0506
G3 X2.3928 Y4.8328 I-0.0625 J0
G1 X2.3495 Y4.9661
G1 X2.4629 Y5.0485
G3 X2.4887 Y5.0991 I-0.0367 J0.0506
G3 X2.4262 Y5.1616 I-0.0625 J0
G1 X2.2839 Y5.1616
G0 Z0.25
G0 X4.6569 Y6.3744
G1 Z-0.05 F30
G1 X4.616 Y6.5068 F10
G3 X4.4968 Y6.5076 I-0.0597 J-0.0185
G1 X4.4535 Y6.3744
G1 X4.3134 Y6.3744
G3 X4.2509 Y6.3119 I0 J-0.0625
G3 X4.2767 Y6.2613 I0.0625 J0
G1 X4.3901 Y6.1789
G1 X4.3467 Y6.0457
G3 X4.3437 Y6.0264 I0.0594 J-0.0193
G3 X4.4429 Y5.9758 I0.0625 J0
G1 X4.5563 Y6.0582
G1 X4.6696 Y5.9758
G3 X4.7689 Y6.0264 I0.0367 J0.0506
G3 X4.7658 Y6.0457 I-0.0625 J0
G1 X4.7225 Y6.1789
G1 X4.8359 Y6.2613
G3 X4.8617 Y6.3119 I-0.0367 J0.0506
G3 X4.7992 Y6.3744 I-0.0625 J0
G1 X4.6569 Y6.3744
G0 Z0.25
G0 X2.2839 Y4.3529
G1 Z-0.05 F30
G1 X2.2429 Y4.4853 F10
G3 X2.1238 Y4.4862 I-0.0597 J-0.0185
G1 X2.0805 Y4.3529
G1 X1.9403 Y4.3529
G3 X1.8778 Y4.2904 I0 J-0.0625
G3 X1.9036 Y4.2399 I0.0625 J0
G1 X2.017 Y4.1575
G1 X1.9737 Y4.0242
G3 X1.9706 Y4.0049 I0.0594 J-0.0193
G3 X2.0699 Y3.9543 I0.0625 J0
G1 X2.1832 Y4.0367
G1 X2.2966 Y3.9543
G3 X2.3958 Y4.0049 I0.0367 J0.0506
G3 X2.3928 Y4.0242 I-0.0625 J0
G1 X2.3495 Y4.1575
G1 X2.4629 Y4.2399
G3 X2.4887 Y4.2904 I-0.0367 J0.0506
G3 X2.4262 Y4.3529 I-0.0625 J0
G1 X2.2839 Y4.3529
G0 Z0.25
G0 X2.7585 Y4.7572
G1 Z-0.05 F30
G1 X2.7175 Y4.8896 F10
G3 X2.5984 Y4.8904 I-0.0597 J-0.0185
G1 X2.5551 Y4.7572
G1 X2.415 Y4.7572
G3 X2.3525 Y4.6947 I0 J-0.0625
G3 X2.3783 Y4.6441 I0.0625 J0
G1 X2.4916 Y4.5618
G1 X2.4483 Y4.4285
G3 X2.4452 Y4.4092 I0.0594 J-0.0193
G3 X2.5445 Y4.3586 I0.0625 J0
G1 X2.6578 Y4.441
G1 X2.7712 Y4.3586
G3 X2.8704 Y4.4092 I0.0367 J0.0506
G3 X2.8674 Y4.4285 I-0.0625 J0
G1 X2.8241 Y4.5617
G1 X2.9375 Y4.6441
G3 X2.9632 Y4.6947 I-0.0367 J0.0506
G3 X2.9007 Y4.7572 I-0.0625 J0
G1 X2.7585 Y4.7572
G0 Z0.25
G0 X1.3346 Y5.1616
G1 Z-0.05 F30
G1 X1.2937 Y5.294 F10
G3 X1.1745 Y5.2948 I-0.0597 J-0.0185
G1 X1.1313 Y5.1616
G1 X0.9912 Y5.1616
G3 X0.9287 Y5.0991 I0 J-0.0625
G3 X0.9544 Y5.0485 I0.0625 J0
G1 X1.0678 Y4.9661
G1 X1.0244 Y4.8329
G3 X1.0214 Y4.8135 I0.0594 J-0.0193
G3 X1.1206 Y4.763 I0.0625 J0
G1 X1.234 Y4.8454
G1 X1.3475 Y4.763
G3 X1.4467 Y4.8135 I0.0367 J0.0506
G3 X1.4436 Y4.8329 I-0.0625 J0
G1 X1.4003 Y4.9661
G1 X1.5136 Y5.0485
G3 X1.5394 Y5.0991 I-0.0367 J0.0506
G3 X1.4769 Y5.1616 I-0.0625 J0
G1 X1.3346 Y5.1616
G0 Z0.25
G0 X0.8601 Y6.3744
G1 Z-0.05 F30
G1 X0.8191 Y6.5068 F10
G3 X0.6999 Y6.5076 I-0.0597 J-0.0185
G1 X0.6567 Y6.3744
G1 X0.5166 Y6.3744
G3 X0.4541 Y6.3119 I0 J-0.0625
G3 X0.4798 Y6.2613 I0.0625 J0
G1 X0.5932 Y6.1789
G1 X0.5498 Y6.0457
G3 X0.5468 Y6.0264 I0.0594 J-0.0193
G3 X0.646 Y5.9758 I0.0625 J0
G1 X0.7594 Y6.0582
G1 X0.8727 Y5.9758
G3 X0.972 Y6.0264 I0.0367 J0.0506
G3 X0.9689 Y6.0457 I-0.0625 J0
G1 X0.9257 Y6.1789
G1 X1.039 Y6.2613
G3 X1.0648 Y6.3119 I-0.0367 J0.0506
G3 X1.0023 Y6.3744 I-0.0625 J0
G1 X0.8601 Y6.3744
G0 Z0.25
G0 X3.2331 Y4.3529
G1 Z-0.05 F30
G1 X3.1921 Y4.4853 F10
G3 X3.073 Y4.4862 I-0.0597 J-0.0185
G1 X3.0297 Y4.3529
G1 X2.8896 Y4.3529
G3 X2.8271 Y4.2904 I0 J-0.0625
G3 X2.8529 Y4.2399 I0.0625 J0
G1 X2.9662 Y4.1575
G1 X2.9229 Y4.0242
G3 X2.9198 Y4.0049 I0.0594 J-0.0193
G3 X3.019 Y3.9543 I0.0625 J0
G1 X3.1324 Y4.0367
G1 X3.2459 Y3.9543
G3 X3.3451 Y4.0049 I0.0367 J0.0506
G3 X3.342 Y4.0242 I-0.0625 J0
G1 X3.2987 Y4.1575
G1 X3.4121 Y4.2399
G3 X3.4378 Y4.2904 I-0.0367 J0.0506
G3 X3.3753 Y4.3529 I-0.0625 J0
G1 X3.2331 Y4.3529
G0 Z0.25
G0 X1.3346 Y6.7787
G1 Z-0.05 F30
G1 X1.2937 Y6.9112 F10
G3 X1.1745 Y6.912 I-0.0597 J-0.0185
G1 X1.1313 Y6.7787
G1 X0.9912 Y6.7787
G3 X0.9287 Y6.7162 I0 J-0.0625
G3 X0.9544 Y6.6657 I0.0625 J0
G1 X1.0678 Y6.5833
G1 X1.0244 Y6.4501
G3 X1.0214 Y6.4307 I0.0594 J-0.0193
G3 X1.1206 Y6.3802 I0.0625 J0
G1 X1.234 Y6.4625
G1 X1.3475 Y6.3802
G3 X1.4467 Y6.4307 I0.0367 J0.0506
G3 X1.4436 Y6.4501 I-0.0625 J0
G1 X1.4003 Y6.5833
G1 X1.5136 Y6.6657
G3 X1.5394 Y6.7162 I-0.0367 J0.0506
G3 X1.4769 Y6.7787 I-0.0625 J0
G1 X1.3346 Y6.7787
G0 Z0.25
G0 X0.8601 Y4.7572
G1 Z-0.05 F30
G1 X0.8191 Y4.8896 F10
G3 X0.6999 Y4.8904 I-0.0597 J-0.0185
G1 X0.6567 Y4.7572
G1 X0.5166 Y4.7572
G3 X0.4541 Y4.6947 I0 J-0.0625
G3 X0.4798 Y4.6441 I0.0625 J0
G1 X0.5932 Y4.5618
G1 X0.5498 Y4.4285
G3 X0.5468 Y4.4092 I0.0594 J-0.0193
G3 X0.646 Y4.3586 I0.0625 J0
G1 X0.7594 Y4.441
G1 X0.8727 Y4.3586
G3 X0.972 Y4.4092 I0.0367 J0.0506
G3 X0.9689 Y4.4285 I-0.0625 J0
G1 X0.9257 Y4.5617
G1 X1.039 Y4.6441
G3 X1.0648 Y4.6947 I-0.0367 J0.0506
G3 X1.0023 Y4.7572 I-0.0625 J0
G1 X0.8601 Y4.7572
G0 Z0.25
G0 X2.2839 Y6.7787
G1 Z-0.05 F30
G1 X2.2429 Y6.9112 F10
G3 X2.1238 Y6.912 I-0.0597 J-0.0185
G1 X2.0805 Y6.7787
G1 X1.9403 Y6.7787
G3 X1.8778 Y6.7162 I0 J-0.0625
G3 X1.9036 Y6.6657 I0.0625 J0
G1 X2.017 Y6.5833
G1 X1.9737 Y6.45
G3 X1.9706 Y6.4307 I0.0594 J-0.0193
G3 X2.0699 Y6.3802 I0.0625 J0
G1 X2.1832 Y6.4625
G1 X2.2966 Y6.3802
G3 X2.3958 Y6.4307 I0.0367 J0.0506
G3 X2.3928 Y6.45 I-0.0625 J0
G1 X2.3495 Y6.5833
G1 X2.4629 Y6.6657
G3 X2.4887 Y6.7162 I-0.0367 J0.0506
G3 X2.4262 Y6.7787 I-0.0625 J0
G1 X2.2839 Y6.7787
G0 Z0.25
G0 X5.1315 Y5.1616
G1 Z-0.05 F30
G1 X5.0905 Y5.294 F10
G3 X4.9714 Y5.2948 I-0.0597 J-0.0185
G1 X4.9281 Y5.1616
G1 X4.788 Y5.1616
G3 X4.7255 Y5.0991 I0 J-0.0625
G3 X4.7513 Y5.0485 I0.0625 J0
G1 X4.8646 Y4.9661
G1 X4.8213 Y4.8329
G3 X4.8182 Y4.8135 I0.0594 J-0.0193
G3 X4.9175 Y4.763 I0.0625 J0
G1 X5.0309 Y4.8454
G1 X5.1443 Y4.763
G3 X5.2435 Y4.8135 I0.0367 J0.0506
G3 X5.2405 Y4.8329 I-0.0625 J0
G1 X5.1971 Y4.9661
G1 X5.3105 Y5.0485
G3 X5.3363 Y5.0991 I-0.0367 J0.0506
G3 X5.2738 Y5.1616 I-0.0625 J0
G1 X5.1315 Y5.1616
G0 Z0.25
G0 X3.2331 Y5.9701
G1 Z-0.05 F30
G1 X3.1921 Y6.1025 F10
G3 X3.073 Y6.1034 I-0.0597 J-0.0185
G1 X3.0297 Y5.9701
G1 X2.8896 Y5.9701
G3 X2.8271 Y5.9076 I0 J-0.0625
G3 X2.8529 Y5.857 I0.0625 J0
G1 X2.9662 Y5.7747
G1 X2.9229 Y5.6414
G3 X2.9198 Y5.6221 I0.0594 J-0.0193
G3 X3.019 Y5.5715 I0.0625 J0
G1 X3.1324 Y5.6539
G1 X3.2459 Y5.5715
G3 X3.3451 Y5.6221 I0.0367 J0.0506
G3 X3.342 Y5.6414 I-0.0625 J0
G1 X3.2987 Y5.7747
G1 X3.4121 Y5.857
G3 X3.4378 Y5.9076 I-0.0367 J0.0506
G3 X3.3753 Y5.9701 I-0.0625 J0
G1 X3.2331 Y5.9701
G0 Z0.25
G0 X4.1823 Y5.9701
G1 Z-0.05 F30
G1 X4.1414 Y6.1025 F10
G3 X4.0222 Y6.1034 I-0.0597 J-0.0185
G1 X3.979 Y5.9701
G1 X3.8388 Y5.9701
G3 X3.7763 Y5.9076 I0 J-0.0625
G3 X3.802 Y5.857 I0.0625 J0
G1 X3.9154 Y5.7747
G1 X3.8721 Y5.6414
G3 X3.8691 Y5.6221 I0.0594 J-0.0193
G3 X3.9683 Y5.5715 I0.0625 J0
G1 X4.0817 Y5.6539
G1 X4.195 Y5.5715
G3 X4.2943 Y5.6221 I0.0367 J0.0506
G3 X4.2912 Y5.6414 I-0.0625 J0
G1 X4.248 Y5.7747
G1 X4.3613 Y5.857
G3 X4.3871 Y5.9076 I-0.0367 J0.0506
G3 X4.3246 Y5.9701 I-0.0625 J0
G1 X4.1823 Y5.9701
G0 Z0.25
G0 X4.1823 Y5.1616
G1 Z-0.05 F30
G1 X4.1414 Y5.294 F10
G3 X4.0222 Y5.2948 I-0.0597 J-0.0185
G1 X3.979 Y5.1616
G1 X3.8388 Y5.1616
G3 X3.7763 Y5.0991 I0 J-0.0625
G3 X3.802 Y5.0485 I0.0625 J0
G1 X3.9154 Y4.9661
G1 X3.8721 Y4.8328
G3 X3.8691 Y4.8135 I0.0594 J-0.0193
G3 X3.9683 Y4.763 I0.0625 J0
G1 X4.0817 Y4.8453
G1 X4.195 Y4.763
G3 X4.2943 Y4.8135 I0.0367 J0.0506
G3 X4.2912 Y4.8328 I-0.0625 J0
G1 X4.248 Y4.9661
G1 X4.3613 Y5.0485
G3 X4.3871 Y5.0991 I-0.0367 J0.0506
G3 X4.3246 Y5.1616 I-0.0625 J0
G1 X4.1823 Y5.1616
G0 Z0.25
G0 X5.1315 Y6.7787
G1 Z-0.05 F30
G1 X5.0905 Y6.9112 F10
G3 X4.9714 Y6.912 I-0.0597 J-0.0185
G1 X4.9281 Y6.7787
G1 X4.788 Y6.7787
G3 X4.7255 Y6.7162 I0 J-0.0625
G3 X4.7513 Y6.6657 I0.0625 J0
G1 X4.8646 Y6.5833
G1 X4.8213 Y6.4501
G3 X4.8182 Y6.4307 I0.0594 J-0.0193
G3 X4.9175 Y6.3802 I0.0625 J0
G1 X5.0309 Y6.4625
G1 X5.1443 Y6.3802
G3 X5.2435 Y6.4307 I0.0367 J0.0506
G3 X5.2405 Y6.4501 I-0.0625 J0
G1 X5.1971 Y6.5833
G1 X5.3105 Y6.6657
G3 X5.3363 Y6.7162 I-0.0367 J0.0506
G3 X5.2738 Y6.7787 I-0.0625 J0
G1 X5.1315 Y6.7787
G0 Z0.25
G0 X2.7585 Y5.5667
G1 Z-0.05 F30
G1 X2.7175 Y5.6992 F10
G3 X2.5984 Y5.7 I-0.0597 J-0.0185
G1 X2.5551 Y5.5667
G1 X2.415 Y5.5667
G3 X2.3525 Y5.5042 I0 J-0.0625
G3 X2.3783 Y5.4536 I0.0625 J0
G1 X2.4916 Y5.3712
G1 X2.4483 Y5.238
G3 X2.4452 Y5.2186 I0.0594 J-0.0193
G3 X2.5445 Y5.1681 I0.0625 J0
G1 X2.6578 Y5.2505
G1 X2.7712 Y5.1681
G3 X2.8704 Y5.2186 I0.0367 J0.0506
G3 X2.8674 Y5.2379 I-0.0625 J0
G1 X2.8241 Y5.3712
G1 X2.9375 Y5.4536
G3 X2.9632 Y5.5042 I-0.0367 J0.0506
G3 X2.9007 Y5.5667 I-0.0625 J0
G1 X2.7585 Y5.5667
G0 Z0.25
G0 X4.6569 Y5.5667
G1 Z-0.05 F30
G1 X4.616 Y5.6992 F10
G3 X4.4968 Y5.7 I-0.0597 J-0.0185
G1 X4.4535 Y5.5667
G1 X4.3134 Y5.5667
G3 X4.2509 Y5.5042 I0 J-0.0625
G3 X4.2767 Y5.4536 I0.0625 J0
G1 X4.3901 Y5.3712
G1 X4.3467 Y5.238
G3 X4.3437 Y5.2186 I0.0594 J-0.0193
G3 X4.4429 Y5.1681 I0.0625 J0
G1 X4.5563 Y5.2505
G1 X4.6696 Y5.1681
G3 X4.7689 Y5.2186 I0.0367 J0.0506
G3 X4.7658 Y5.2379 I-0.0625 J0
G1 X4.7225 Y5.3712
G1 X4.8359 Y5.4536
G3 X4.8617 Y5.5042 I-0.0367 J0.0506
G3 X4.7992 Y5.5667 I-0.0625 J0
G1 X4.6569 Y5.5667
G0 Z0.25
G0 X0.8601 Y5.5667
G1 Z-0.05 F30
G1 X0.8191 Y5.6992 F10
G3 X0.6999 Y5.7 I-0.0597 J-0.0185
G1 X0.6567 Y5.5667
G1 X0.5166 Y5.5667
G3 X0.4541 Y5.5042 I0 J-0.0625
G3 X0.4798 Y5.4536 I0.0625 J0
G1 X0.5932 Y5.3712
G1 X0.5498 Y5.238
G3 X0.5468 Y5.2186 I0.0594 J-0.0193
G3 X0.646 Y5.1681 I0.0625 J0
G1 X0.7594 Y5.2505
G1 X0.8727 Y5.1681
G3 X0.972 Y5.2186 I0.0367 J0.0506
G3 X0.9689 Y5.2379 I-0.0625 J0
G1 X0.9257 Y5.3712
G1 X1.039 Y5.4536
G3 X1.0648 Y5.5042 I-0.0367 J0.0506
G3 X1.0023 Y5.5667 I-0.0625 J0
G1 X0.8601 Y5.5667
G0 Z0.25
G0 X5.6061 Y4.7572
G1 Z-0.05 F30
G1 X5.5652 Y4.8896 F10
G3 X5.4461 Y4.8905 I-0.0597 J-0.0184
G1 X5.4027 Y4.7572
G1 X5.2626 Y4.7572
G3 X5.2001 Y4.6947 I0 J-0.0625
G3 X5.2259 Y4.6441 I0.0625 J0
G1 X5.3393 Y4.5617
G1 X5.296 Y4.4285
G3 X5.2929 Y4.4092 I0.0594 J-0.0193
G3 X5.3922 Y4.3586 I0.0625 J0
G1 X5.5055 Y4.441
G1 X5.6189 Y4.3586
G3 X5.7181 Y4.4092 I0.0367 J0.0506
G3 X5.7151 Y4.4285 I-0.0625 J0
G1 X5.6717 Y4.5618
G1 X5.7851 Y4.6441
G3 X5.8108 Y4.6947 I-0.0367 J0.0506
G3 X5.7483 Y4.7572 I-0.0625 J0
G1 X5.6061 Y4.7572
G0 Z0.25
G0 X1.3347 Y5.9701
G1 Z-0.05 F30
G1 X1.2938 Y6.1025 F10
G3 X1.1746 Y6.1034 I-0.0597 J-0.0184
G1 X1.1313 Y5.9701
G1 X0.9912 Y5.9701
G3 X0.9287 Y5.9076 I0 J-0.0625
G3 X0.9544 Y5.857 I0.0625 J0
G1 X1.0678 Y5.7747
G1 X1.0244 Y5.6414
G3 X1.0214 Y5.6221 I0.0594 J-0.0193
G3 X1.1206 Y5.5715 I0.0625 J0
G1 X1.2341 Y5.6539
G1 X1.3474 Y5.5715
G3 X1.4467 Y5.6221 I0.0367 J0.0506
G3 X1.4436 Y5.6414 I-0.0625 J0
G1 X1.4003 Y5.7747
G1 X1.5136 Y5.857
G3 X1.5394 Y5.9076 I-0.0367 J0.0506
G3 X1.4769 Y5.9701 I-0.0625 J0
G1 X1.3347 Y5.9701
G0 Z0.25
G0 X3.7077 Y4.7572
G1 Z-0.05 F30
G1 X3.6668 Y4.8896 F10
G3 X3.5477 Y4.8905 I-0.0597 J-0.0184
G1 X3.5043 Y4.7572
G1 X3.3642 Y4.7572
G3 X3.3017 Y4.6947 I0 J-0.0625
G3 X3.3274 Y4.6441 I0.0625 J0
G1 X3.4408 Y4.5617
G1 X3.3975 Y4.4285
G3 X3.3945 Y4.4092 I0.0594 J-0.0193
G3 X3.4937 Y4.3586 I0.0625 J0
G1 X3.6071 Y4.441
G1 X3.7205 Y4.3586
G3 X3.8197 Y4.4092 I0.0367 J0.0506
G3 X3.8166 Y4.4285 I-0.0625 J0
G1 X3.7733 Y4.5618
G1 X3.8866 Y4.6441
G3 X3.9124 Y4.6947 I-0.0367 J0.0506
G3 X3.8499 Y4.7572 I-0.0625 J0
G1 X3.7077 Y4.7572
G0 Z0.25
G0 X1.3347 Y4.3529
G1 Z-0.05 F30
G1 X1.2938 Y4.4853 F10
G3 X1.1746 Y4.4862 I-0.0597 J-0.0184
G1 X1.1313 Y4.3529
G1 X0.9912 Y4.3529
G3 X0.9287 Y4.2904 I0 J-0.0625
G3 X0.9544 Y4.2399 I0.0625 J0
G1 X1.0678 Y4.1575
G1 X1.0244 Y4.0242
G3 X1.0214 Y4.0049 I0.0594 J-0.0193
G3 X1.1206 Y3.9543 I0.0625 J0
G1 X1.2341 Y4.0367
G1 X1.3474 Y3.9543
G3 X1.4467 Y4.0049 I0.0367 J0.0506
G3 X1.4436 Y4.0242 I-0.0625 J0
G1 X1.4003 Y4.1575
G1 X1.5136 Y4.2399
G3 X1.5394 Y4.2904 I-0.0367 J0.0506
G3 X1.4769 Y4.3529 I-0.0625 J0
G1 X1.3347 Y4.3529
G0 Z0.25
G0 X3.7077 Y6.3744
G1 Z-0.05 F30
G1 X3.6668 Y6.5068 F10
G3 X3.5477 Y6.5077 I-0.0597 J-0.0184
G1 X3.5043 Y6.3744
G1 X3.3642 Y6.3744
G3 X3.3017 Y6.3119 I0 J-0.0625
G3 X3.3274 Y6.2613 I0.0625 J0
G1 X3.4408 Y6.1789
G1 X3.3975 Y6.0457
G3 X3.3945 Y6.0264 I0.0594 J-0.0193
G3 X3.4937 Y5.9758 I0.0625 J0
G1 X3.6071 Y6.0582
G1 X3.7205 Y5.9758
G3 X3.8197 Y6.0264 I0.0367 J0.0506
G3 X3.8166 Y6.0457 I-0.0625 J0
G1 X3.7733 Y6.1789
G1 X3.8866 Y6.2613
G3 X3.9124 Y6.3119 I-0.0367 J0.0506
G3 X3.8499 Y6.3744 I-0.0625 J0
G1 X3.7077 Y6.3744
G0 Z0.25
G0 X1.8092 Y4.7572
G1 Z-0.05 F30
G1 X1.7684 Y4.8896 F10
G3 X1.6492 Y4.8905 I-0.0597 J-0.0184
G1 X1.6059 Y4.7572
G1 X1.4657 Y4.7572
G3 X1.4032 Y4.6947 I0 J-0.0625
G3 X1.429 Y4.6441 I0.0625 J0
G1 X1.5424 Y4.5617
G1 X1.4991 Y4.4285
G3 X1.496 Y4.4092 I0.0594 J-0.0193
G3 X1.5953 Y4.3586 I0.0625 J0
G1 X1.7087 Y4.441
G1 X1.822 Y4.3586
G3 X1.9213 Y4.4092 I0.0367 J0.0506
G3 X1.9182 Y4.4285 I-0.0625 J0
G1 X1.8748 Y4.5618
G1 X1.9882 Y4.6441
G3 X2.014 Y4.6947 I-0.0367 J0.0506
G3 X1.9515 Y4.7572 I-0.0625 J0
G1 X1.8092 Y4.7572
G0 Z0.25
G0 X1.8092 Y6.3744
G1 Z-0.05 F30
G1 X1.7684 Y6.5068 F10
G3 X1.6492 Y6.5077 I-0.0597 J-0.0184
G1 X1.6059 Y6.3744
G1 X1.4657 Y6.3744
G3 X1.4032 Y6.3119 I0 J-0.0625
G3 X1.429 Y6.2613 I0.0625 J0
G1 X1.5424 Y6.1789
G1 X1.4991 Y6.0457
G3 X1.496 Y6.0264 I0.0594 J-0.0193
G3 X1.5953 Y5.9758 I0.0625 J0
G1 X1.7087 Y6.0582
G1 X1.822 Y5.9758
G3 X1.9213 Y6.0264 I0.0367 J0.0506
G3 X1.9182 Y6.0457 I-0.0625 J0
G1 X1.8748 Y6.1789
G1 X1.9882 Y6.2613
G3 X2.014 Y6.3119 I-0.0367 J0.0506
G3 X1.9515 Y6.3744 I-0.0625 J0
G1 X1.8092 Y6.3744
G0 Z0.25
G0 X5.6061 Y6.3744
G1 Z-0.05 F30
G1 X5.5652 Y6.5068 F10
G3 X5.4461 Y6.5077 I-0.0597 J-0.0184
G1 X5.4027 Y6.3744
G1 X5.2626 Y6.3744
G3 X5.2001 Y6.3119 I0 J-0.0625
G3 X5.2259 Y6.2613 I0.0625 J0
G1 X5.3393 Y6.1789
G1 X5.296 Y6.0457
G3 X5.2929 Y6.0264 I0.0594 J-0.0193
G3 X5.3922 Y5.9758 I0.0625 J0
G1 X5.5055 Y6.0582
G1 X5.6189 Y5.9758
G3 X5.7181 Y6.0264 I0.0367 J0.0506
G3 X5.7151 Y6.0457 I-0.0625 J0
G1 X5.6717 Y6.1789
G1 X5.7851 Y6.2613
G3 X5.8108 Y6.3119 I-0.0367 J0.0506
G3 X5.7483 Y6.3744 I-0.0625 J0
G1 X5.6061 Y6.3744
G0 Z0.25
G0 X1.8093 Y5.5667
G1 Z-0.05 F30
G1 X1.7684 Y5.6992 F10
G3 X1.6492 Y5.7001 I-0.0597 J-0.0184
G1 X1.6059 Y5.5667
G1 X1.4657 Y5.5667
G3 X1.4032 Y5.5042 I0 J-0.0625
G3 X1.429 Y5.4536 I0.0625 J0
G1 X1.5424 Y5.3712
G1 X1.4991 Y5.2379
G3 X1.496 Y5.2186 I0.0594 J-0.0193
G3 X1.5953 Y5.1681 I0.0625 J0
G1 X1.7087 Y5.2505
G1 X1.822 Y5.1681
G3 X1.9213 Y5.2186 I0.0367 J0.0506
G3 X1.9182 Y5.238 I-0.0625 J0
G1 X1.8748 Y5.3712
G1 X1.9882 Y5.4536
G3 X2.014 Y5.5042 I-0.0367 J0.0506
G3 X1.9515 Y5.5667 I-0.0625 J0
G1 X1.8093 Y5.5667
G0 Z0.25
G0 X3.7077 Y5.5667
G1 Z-0.05 F30
G1 X3.6668 Y5.6992 F10
G3 X3.5477 Y5.7001 I-0.0597 J-0.0184
G1 X3.5043 Y5.5667
G1 X3.3642 Y5.5667
G3 X3.3017 Y5.5042 I0 J-0.0625
G3 X3.3274 Y5.4536 I0.0625 J0
G1 X3.4408 Y5.3712
G1 X3.3975 Y5.2379
G3 X3.3945 Y5.2186 I0.0594 J-0.0193
G3 X3.4937 Y5.1681 I0.0625 J0
G1 X3.6071 Y5.2505
G1 X3.7205 Y5.1681
G3 X3.8197 Y5.2186 I0.0367 J0.0506
G3 X3.8166 Y5.238 I-0.0625 J0
G1 X3.7733 Y5.3712
G1 X3.8866 Y5.4536
G3 X3.9124 Y5.5042 I-0.0367 J0.0506
G3 X3.8499 Y5.5667 I-0.0625 J0
G1 X3.7077 Y5.5667
G0 Z0.25
G0 X5.6061 Y5.5667
G1 Z-0.05 F30
G1 X5.5652 Y5.6992 F10
G3 X5.4461 Y5.7001 I-0.0597 J-0.0184
G1 X5.4027 Y5.5667
G1 X5.2626 Y5.5667
G3 X5.2001 Y5.5042 I0 J-0.0625
G3 X5.2259 Y5.4536 I0.0625 J0
G1 X5.3393 Y5.3712
G1 X5.296 Y5.2379
G3 X5.2929 Y5.2186 I0.0594 J-0.0193
G3 X5.3922 Y5.1681 I0.0625 J0
G1 X5.5055 Y5.2505
G1 X5.6189 Y5.1681
G3 X5.7181 Y5.2186 I0.0367 J0.0506
G3 X5.7151 Y5.238 I-0.0625 J0
G1 X5.6717 Y5.3712
G1 X5.7851 Y5.4536
G3 X5.8108 Y5.5042 I-0.0367 J0.0506
G3 X5.7483 Y5.5667 I-0.0625 J0
G1 X5.6061 Y5.5667
G0 Z0.25
G0 X3.1567 Y7.1674
G1 Z-0.05 F30
G1 X3.1082 Y7.1674 F10
G2 X3.1132 Y7.1214 I-0.2075 J-0.046
G2 X3.1125 Y7.1043 I-0.2125 J0
G2 X3.1524 Y7.1043 I0.0199 J-0.2116
G2 X3.1517 Y7.1214 I0.2118 J0.0171
G2 X3.1567 Y7.1674 I0.2125 J0
G1 X3.2017 Y7.1214 F10
G2 X3.2331 Y7.2174 I0.1625 J0 F10
G1 X3.0318 Y7.2174
G2 X3.0632 Y7.1214 I-0.1311 J-0.096
G2 X2.9963 Y6.9899 I-0.1625 J0
G1 X2.9416 Y6.9502
G1 X2.9609 Y6.8908
G1 X2.9778 Y6.9429
G2 X3.2876 Y6.9407 I0.1546 J-0.0502
G1 X3.3035 Y6.8894
G1 X3.3233 Y6.9502
G1 X3.2687 Y6.9899
G2 X3.2017 Y7.1214 I0.0955 J0.1315
G1 X3.2517 Y7.1214 F10
G2 X3.3642 Y7.2339 I0.1125 J0 F10
G1 X3.468 Y7.2339
G1 X3.4789 Y7.2674
G1 X2.785 Y7.2674
G1 X2.7954 Y7.2339
G1 X2.9007 Y7.2339
G2 X3.0132 Y7.1214 I0 J-0.1125
G2 X2.9669 Y7.0303 I-0.1125 J0
G1 X2.8829 Y6.9693
G1 X2.9149 Y6.8706
G2 X2.9204 Y6.8358 I-0.107 J-0.0347
G2 X2.9202 Y6.8287 I-0.1125 J0
G1 X2.9934 Y6.8287
G1 X3.0254 Y6.9274
G2 X3.2399 Y6.926 I0.107 J-0.0347
G1 X3.2699 Y6.8287
G1 X3.3447 Y6.8287
G2 X3.3445 Y6.8358 I0.1123 J0.0071
G2 X3.35 Y6.8706 I0.1125 J0
G1 X3.382 Y6.9693
G1 X3.298 Y7.0303
G2 X3.2517 Y7.1214 I0.0661 J0.091
G0 Z0.25
G0 X5.0552 Y7.1674
G1 Z-0.05 F30
G1 X5.0066 Y7.1674 F10
G2 X5.0117 Y7.1214 I-0.2075 J-0.046
G2 X5.011 Y7.1043 I-0.2125 J0
G2 X5.0508 Y7.1043 I0.0199 J-0.2116
G2 X5.0501 Y7.1214 I0.2118 J0.0171
G2 X5.0552 Y7.1674 I0.2125 J0
G1 X5.1001 Y7.1214 F10
G2 X5.1315 Y7.2174 I0.1625 J0 F10
G1 X4.9303 Y7.2174
G2 X4.9617 Y7.1214 I-0.1311 J-0.096
G2 X4.8947 Y6.9899 I-0.1625 J0
G1 X4.8401 Y6.9502
G1 X4.8594 Y6.8908
G1 X4.8763 Y6.9429
G2 X5.1861 Y6.9407 I0.1546 J-0.0502
G1 X5.202 Y6.8894
G1 X5.2217 Y6.9502
G1 X5.1671 Y6.9899
G2 X5.1001 Y7.1214 I0.0955 J0.1315
G1 X5.1501 Y7.1214 F10
G2 X5.2626 Y7.2339 I0.1125 J0 F10
G1 X5.3664 Y7.2339
G1 X5.3773 Y7.2674
G1 X4.6834 Y7.2674
G1 X4.6938 Y7.2339
G1 X4.7992 Y7.2339
G2 X4.9117 Y7.1214 I0 J-0.1125
G2 X4.8653 Y7.0303 I-0.1125 J0
G1 X4.7813 Y6.9693
G1 X4.8134 Y6.8706
G2 X4.8189 Y6.8358 I-0.107 J-0.0347
G2 X4.8186 Y6.8287 I-0.1125 J0
G1 X4.8918 Y6.8287
G1 X4.9238 Y6.9274
G2 X5.1383 Y6.926 I0.107 J-0.0347
G1 X5.1684 Y6.8287
G1 X5.2431 Y6.8287
G2 X5.2429 Y6.8358 I0.1123 J0.0071
G2 X5.2484 Y6.8706 I0.1125 J0
G1 X5.2805 Y6.9693
G1 X5.1965 Y7.0303
G2 X5.1501 Y7.1214 I0.0661 J0.091
G0 Z0.25
G0 X1.2583 Y7.1674
G1 Z-0.05 F30
G1 X1.2098 Y7.1674 F10
G2 X1.2148 Y7.1214 I-0.2075 J-0.046
G2 X1.2141 Y7.1043 I-0.2125 J0
G2 X1.2539 Y7.1043 I0.0199 J-0.2116
G2 X1.2532 Y7.1214 I0.2118 J0.0171
G2 X1.2583 Y7.1674 I0.2125 J0
G1 X1.3032 Y7.1214 F10
G2 X1.3347 Y7.2174 I0.1625 J0 F10
G1 X1.1334 Y7.2174
G2 X1.1648 Y7.1214 I-0.1311 J-0.096
G2 X1.0978 Y6.9899 I-0.1625 J0
G1 X1.0432 Y6.9502
G1 X1.0625 Y6.8908
G1 X1.0794 Y6.9429
G2 X1.3892 Y6.9407 I0.1546 J-0.0502
G1 X1.4051 Y6.8894
G1 X1.4248 Y6.9502
G1 X1.3702 Y6.9899
G2 X1.3032 Y7.1214 I0.0955 J0.1315
G1 X1.3532 Y7.1214 F10
G2 X1.4657 Y7.2339 I0.1125 J0 F10
G1 X1.5695 Y7.2339
G1 X1.5804 Y7.2674
G1 X0.8866 Y7.2674
G1 X0.8969 Y7.2339
G1 X1.0023 Y7.2339
G2 X1.1148 Y7.1214 I0 J-0.1125
G2 X1.0684 Y7.0303 I-0.1125 J0
G1 X0.9844 Y6.9693
G1 X1.0165 Y6.8706
G2 X1.022 Y6.8358 I-0.107 J-0.0347
G2 X1.0218 Y6.8287 I-0.1125 J0
G1 X1.0949 Y6.8287
G1 X1.127 Y6.9274
G2 X1.3414 Y6.926 I0.107 J-0.0347
G1 X1.3715 Y6.8287
G1 X1.4463 Y6.8287
G2 X1.446 Y6.8358 I0.1123 J0.0071
G2 X1.4515 Y6.8706 I0.1125 J0
G1 X1.4836 Y6.9693
G1 X1.3996 Y7.0303
G2 X1.3532 Y7.1214 I0.0661 J0.091
G0 Z0.25
G0 X2.2076 Y7.1674
G1 Z-0.05 F30
G1 X2.1589 Y7.1674 F10
G2 X2.164 Y7.1214 I-0.2075 J-0.046
G2 X2.1633 Y7.1043 I-0.2125 J0
G2 X2.2032 Y7.1043 I0.02 J-0.2116
G2 X2.2025 Y7.1214 I0.2118 J0.0171
G2 X2.2076 Y7.1674 I0.2125 J0
G1 X2.2525 Y7.1214 F10
G2 X2.2839 Y7.2174 I0.1625 J0 F10
G1 X2.0825 Y7.2174
G2 X2.114 Y7.1214 I-0.1311 J-0.096
G2 X2.047 Y6.9899 I-0.1625 J0
G1 X1.9924 Y6.9502
G1 X2.0118 Y6.8908
G1 X2.0287 Y6.9429
G2 X2.3385 Y6.9407 I0.1546 J-0.0502
G1 X2.3543 Y6.8896
G1 X2.3741 Y6.9502
G1 X2.3195 Y6.9899
G2 X2.2525 Y7.1214 I0.0955 J0.1315
G1 X2.3025 Y7.1214 F10
G2 X2.415 Y7.2339 I0.1125 J0 F10
G1 X2.5188 Y7.2339
G1 X2.5296 Y7.2674
G1 X1.8358 Y7.2674
G1 X1.8462 Y7.2339
G1 X1.9515 Y7.2339
G2 X2.064 Y7.1214 I0 J-0.1125
G2 X2.0176 Y7.0303 I-0.1125 J0
G1 X1.9336 Y6.9693
G1 X1.9657 Y6.8706
G2 X1.9713 Y6.8358 I-0.107 J-0.0348
G2 X1.971 Y6.8287 I-0.1125 J0
G1 X2.0442 Y6.8287
G1 X2.0762 Y6.9274
G2 X2.2907 Y6.926 I0.107 J-0.0347
G1 X2.3208 Y6.8287
G1 X2.3954 Y6.8287
G2 X2.3952 Y6.8358 I0.1123 J0.0071
G2 X2.4007 Y6.8706 I0.1125 J0
G1 X2.4328 Y6.9693
G1 X2.3489 Y7.0303
G2 X2.3025 Y7.1214 I0.0661 J0.091
G0 Z0.25
G0 X4.106 Y7.1674
G1 Z-0.05 F30
G1 X4.0574 Y7.1674 F10
G2 X4.0624 Y7.1214 I-0.2075 J-0.046
G2 X4.0617 Y7.1043 I-0.2125 J0
G2 X4.1016 Y7.1043 I0.02 J-0.2116
G2 X4.1009 Y7.1214 I0.2118 J0.0171
G2 X4.106 Y7.1674 I0.2125 J0
G1 X4.1509 Y7.1214 F10
G2 X4.1824 Y7.2174 I0.1625 J0 F10
G1 X3.981 Y7.2174
G2 X4.0124 Y7.1214 I-0.1311 J-0.096
G2 X3.9454 Y6.9899 I-0.1625 J0
G1 X3.8909 Y6.9502
G1 X3.9102 Y6.8908
G1 X3.9271 Y6.9429
G2 X4.2369 Y6.9407 I0.1546 J-0.0502
G1 X4.2527 Y6.8896
G1 X4.2725 Y6.9502
G1 X4.2179 Y6.9899
G2 X4.1509 Y7.1214 I0.0955 J0.1315
G1 X4.2009 Y7.1214 F10
G2 X4.3134 Y7.2339 I0.1125 J0 F10
G1 X4.4172 Y7.2339
G1 X4.4281 Y7.2674
G1 X3.7342 Y7.2674
G1 X3.7446 Y7.2339
G1 X3.8499 Y7.2339
G2 X3.9624 Y7.1214 I0 J-0.1125
G2 X3.916 Y7.0303 I-0.1125 J0
G1 X3.8321 Y6.9693
G1 X3.8642 Y6.8706
G2 X3.8697 Y6.8358 I-0.107 J-0.0348
G2 X3.8695 Y6.8287 I-0.1125 J0
G1 X3.9426 Y6.8287
G1 X3.9747 Y6.9274
G2 X4.1891 Y6.926 I0.107 J-0.0347
G1 X4.2192 Y6.8287
G1 X4.2939 Y6.8287
G2 X4.2937 Y6.8358 I0.1123 J0.0071
G2 X4.2992 Y6.8706 I0.1125 J0
G1 X4.3313 Y6.9693
G1 X4.2473 Y7.0303
G2 X4.2009 Y7.1214 I0.0661 J0.091
G0 Z0.25
G0 X0.6048 Y6.5385
G1 Z-0.05 F30
G2 X0.9146 Y6.5364 I0.1546 J-0.0502 F10
G1 X0.9306 Y6.4848
G1 X0.9502 Y6.5451
G1 X0.8956 Y6.5848
G2 X0.8302 Y6.694 I0.0955 J0.1315
G2 X0.814 Y6.7044 I0.0793 J0.1418
G1 X0.7594 Y6.744
G1 X0.7048 Y6.7044
G2 X0.541 Y6.6884 I-0.0955 J0.1315
G1 X0.541 Y6.4744
G1 X0.584 Y6.4744
G1 X0.6048 Y6.5385
G1 X0.6524 Y6.5231 F10
G2 X0.8669 Y6.5216 I0.107 J-0.0347 F10
G1 X0.8969 Y6.4244
G1 X0.9715 Y6.4244
G2 X0.9714 Y6.4307 I0.1123 J0.0064
G2 X0.9769 Y6.4655 I0.1125 J0
G1 X1.009 Y6.5642
G1 X0.925 Y6.6252
G2 X0.8787 Y6.7162 I0.0661 J0.091
G2 X0.8792 Y6.7275 I0.1125 J0
G2 X0.8434 Y6.7448 I0.0303 J0.1084
G1 X0.7594 Y6.8058
G1 X0.6754 Y6.7448
G2 X0.4968 Y6.8358 I-0.0661 J0.091
G2 X0.5023 Y6.8706 I0.1125 J0
G1 X0.5344 Y6.9693
G1 X0.491 Y7.0008
G1 X0.491 Y6.4214
G2 X0.5166 Y6.4244 I0.0255 J-0.1096
G1 X0.6203 Y6.4244
G1 X0.6524 Y6.5231
G0 Z0.25
G0 X0.6048 Y4.9213
G1 Z-0.05 F30
G2 X0.9146 Y4.9192 I0.1546 J-0.0502 F10
G1 X0.9306 Y4.8676
G1 X0.9502 Y4.928
G1 X0.8956 Y4.9676
G2 X0.8302 Y5.0768 I0.0955 J0.1315
G2 X0.814 Y5.0872 I0.0793 J0.1418
G1 X0.7594 Y5.1268
G1 X0.7048 Y5.0872
G2 X0.541 Y5.0712 I-0.0955 J0.1315
G1 X0.541 Y4.8572
G1 X0.584 Y4.8572
G1 X0.6048 Y4.9213
G1 X0.6524 Y4.9059 F10
G2 X0.8669 Y4.9044 I0.107 J-0.0347 F10
G1 X0.8969 Y4.8072
G1 X0.9715 Y4.8072
G2 X0.9714 Y4.8135 I0.1123 J0.0064
G2 X0.9769 Y4.8483 I0.1125 J0
G1 X1.009 Y4.947
G1 X0.925 Y5.008
G2 X0.8787 Y5.0991 I0.0661 J0.091
G2 X0.8792 Y5.1103 I0.1125 J0
G2 X0.8434 Y5.1276 I0.0303 J0.1084
G1 X0.7594 Y5.1886
G1 X0.6754 Y5.1276
G2 X0.4968 Y5.2186 I-0.0661 J0.091
G2 X0.5023 Y5.2534 I0.1125 J0
G1 X0.5344 Y5.3521
G1 X0.491 Y5.3836
G1 X0.491 Y4.8043
G2 X0.5166 Y4.8072 I0.0255 J-0.1096
G1 X0.6203 Y4.8072
G1 X0.6524 Y4.9059
G0 Z0.25
G0 X5.351 Y4.9214
G1 Z-0.05 F30
G2 X5.6608 Y4.9191 I0.1545 J-0.0503 F10
G1 X5.6799 Y4.8572
G1 X5.7239 Y4.8572
G1 X5.7239 Y5.0712
G2 X5.5601 Y5.0872 I-0.0682 J0.1475
G1 X5.5055 Y5.1268
G1 X5.4509 Y5.0872
G2 X5.4347 Y5.0768 I-0.0955 J0.1315
G2 X5.3693 Y4.9676 I-0.161 J0.0223
G1 X5.3147 Y4.928
G1 X5.3339 Y4.8689
G1 X5.351 Y4.9214
G1 X5.3985 Y4.9059 F10
G2 X5.613 Y4.9043 I0.107 J-0.0348 F10
G1 X5.643 Y4.8072
G1 X5.7483 Y4.8072
G2 X5.7739 Y4.8043 I0 J-0.1125
G1 X5.7739 Y5.3836
G1 X5.7305 Y5.3521
G1 X5.7626 Y5.2534
G2 X5.7681 Y5.2186 I-0.107 J-0.0348
G2 X5.5895 Y5.1276 I-0.1125 J0
G1 X5.5055 Y5.1886
G1 X5.4216 Y5.1276
G2 X5.3857 Y5.1103 I-0.0661 J0.091
G2 X5.3863 Y5.0991 I-0.1119 J-0.0112
G2 X5.3399 Y5.008 I-0.1125 J0
G1 X5.2559 Y4.947
G1 X5.288 Y4.8483
G2 X5.2935 Y4.8135 I-0.107 J-0.0348
G2 X5.2934 Y4.8072 I-0.1125 J0
G1 X5.3664 Y4.8072
G1 X5.3985 Y4.9059
G0 Z0.25
G0 X5.351 Y6.5386
G1 Z-0.05 F30
G2 X5.6608 Y6.5363 I0.1545 J-0.0503 F10
G1 X5.6799 Y6.4744
G1 X5.7239 Y6.4744
G1 X5.7239 Y6.6884
G2 X5.5601 Y6.7044 I-0.0682 J0.1475
G1 X5.5055 Y6.744
G1 X5.4509 Y6.7044
G2 X5.4347 Y6.694 I-0.0955 J0.1315
G2 X5.3693 Y6.5848 I-0.161 J0.0223
G1 X5.3147 Y6.5451
G1 X5.3339 Y6.4861
G1 X5.351 Y6.5386
G1 X5.3985 Y6.5231 F10
G2 X5.613 Y6.5215 I0.107 J-0.0348 F10
G1 X5.643 Y6.4244
G1 X5.7483 Y6.4244
G2 X5.7739 Y6.4214 I0 J-0.1125
G1 X5.7739 Y7.0008
G1 X5.7305 Y6.9693
G1 X5.7626 Y6.8706
G2 X5.7681 Y6.8358 I-0.107 J-0.0348
G2 X5.5895 Y6.7448 I-0.1125 J0
G1 X5.5055 Y6.8058
G1 X5.4216 Y6.7448
G2 X5.3857 Y6.7275 I-0.0661 J0.091
G2 X5.3863 Y6.7162 I-0.1119 J-0.0112
G2 X5.3399 Y6.6252 I-0.1125 J0
G1 X5.2559 Y6.5642
G1 X5.288 Y6.4655
G2 X5.2935 Y6.4307 I-0.107 J-0.0348
G2 X5.2934 Y6.4244 I-0.1125 J0
G1 X5.3664 Y6.4244
G1 X5.3985 Y6.5231
G0 Z0.25
G0 X0.6048 Y4.1128
G1 Z-0.05 F30
G2 X0.8742 Y4.1776 I0.1546 J-0.0502 F10
G2 X0.8763 Y4.1755 I-0.1148 J-0.115
G2 X0.8742 Y4.1776 I0.1148 J0.115
G2 X0.8303 Y4.2673 I0.1169 J0.1129
G2 X0.814 Y4.2777 I0.0792 J0.1419
G1 X0.7594 Y4.3174
G1 X0.7048 Y4.2777
G2 X0.541 Y4.2617 I-0.0955 J0.1315
G1 X0.541 Y4.0486
G1 X0.584 Y4.0486
G1 X0.6048 Y4.1128
G1 X0.6524 Y4.0973 F10
G2 X0.8669 Y4.0958 I0.107 J-0.0347 F10
G1 X0.8969 Y3.9986
G1 X0.9715 Y3.9986
G2 X0.9714 Y4.0049 I0.1123 J0.0062
G2 X0.9769 Y4.0397 I0.1125 J0
G1 X1.009 Y4.1384
G1 X0.925 Y4.1994
G2 X0.8787 Y4.2904 I0.0661 J0.091
G2 X0.8791 Y4.3008 I0.1125 J0
G2 X0.8434 Y4.3182 I0.0303 J0.1083
G1 X0.7594 Y4.3792
G1 X0.6754 Y4.3182
G2 X0.4968 Y4.4092 I-0.0661 J0.091
G2 X0.5023 Y4.444 I0.1125 J0
G1 X0.5344 Y4.5427
G1 X0.491 Y4.5742
G1 X0.491 Y3.9957
G2 X0.5166 Y3.9986 I0.0255 J-0.1096
G1 X0.6203 Y3.9986
G1 X0.6524 Y4.0973
G0 Z0.25
G0 X5.3907 Y4.1776
G1 Z-0.05 F30
G2 X5.6608 Y4.1105 I0.1148 J-0.115 F10
G1 X5.6799 Y4.0486
G1 X5.7239 Y4.0486
G1 X5.7239 Y4.2617
G2 X5.5601 Y4.2777 I-0.0682 J0.1475
G1 X5.5055 Y4.3174
G1 X5.4509 Y4.2777
G2 X5.4346 Y4.2673 I-0.0955 J0.1315
G2 X5.3907 Y4.1776 I-0.1608 J0.0232
G2 X5.3886 Y4.1755 I-0.1169 J0.1129
G2 X5.3907 Y4.1776 I0.1169 J-0.1129
G1 X5.3399 Y4.1994 F10
G1 X5.2559 Y4.1384 F10
G1 X5.288 Y4.0397
G2 X5.2935 Y4.0049 I-0.107 J-0.0348
G2 X5.2934 Y3.9986 I-0.1125 J0
G1 X5.3664 Y3.9986
G1 X5.3985 Y4.0974
G2 X5.613 Y4.0958 I0.107 J-0.0348
G1 X5.643 Y3.9986
G1 X5.7483 Y3.9986
G2 X5.7739 Y3.9957 I0 J-0.1125
G1 X5.7739 Y4.5742
G1 X5.7305 Y4.5427
G1 X5.7626 Y4.444
G2 X5.7681 Y4.4092 I-0.107 J-0.0348
G2 X5.5895 Y4.3182 I-0.1125 J0
G1 X5.5055 Y4.3792
G1 X5.4216 Y4.3182
G2 X5.3858 Y4.3008 I-0.0661 J0.091
G2 X5.3863 Y4.2904 I-0.112 J-0.0104
G2 X5.3399 Y4.1994 I-0.1125 J0
G0 Z0.25
G0 X5.3969 Y5.8016
G1 Z-0.05 F30
G2 X5.6608 Y5.7286 I0.1086 J-0.1209 F10
G1 X5.6799 Y5.6667
G1 X5.7239 Y5.6667
G1 X5.7239 Y5.8789
G2 X5.5601 Y5.8949 I-0.0682 J0.1475
G1 X5.5055 Y5.9346
G1 X5.4509 Y5.8949
G2 X5.4346 Y5.8844 I-0.0955 J0.1315
G2 X5.3969 Y5.8016 I-0.1608 J0.0232
G2 X5.3823 Y5.7867 I-0.1232 J0.106
G2 X5.3969 Y5.8016 I0.1232 J-0.106
G1 X5.3399 Y5.8166 F10
G1 X5.2559 Y5.7556 F10
G1 X5.288 Y5.6569
G2 X5.2935 Y5.6221 I-0.107 J-0.0348
G2 X5.2934 Y5.6167 I-0.1125 J0
G1 X5.3664 Y5.6167
G1 X5.3985 Y5.7155
G2 X5.613 Y5.7139 I0.107 J-0.0348
G1 X5.643 Y5.6167
G1 X5.7483 Y5.6167
G2 X5.7739 Y5.6137 I0 J-0.1125
G1 X5.7739 Y6.1914
G1 X5.7305 Y6.1599
G1 X5.7626 Y6.0612
G2 X5.7681 Y6.0264 I-0.107 J-0.0348
G2 X5.5895 Y5.9353 I-0.1125 J0
G1 X5.5055 Y5.9964
G1 X5.4216 Y5.9353
G2 X5.3858 Y5.918 I-0.0661 J0.091
G2 X5.3863 Y5.9076 I-0.112 J-0.0104
G2 X5.3399 Y5.8166 I-0.1125 J0
G0 Z0.25
G0 X0.6048 Y5.7309
G1 Z-0.05 F30
G2 X0.868 Y5.8016 I0.1546 J-0.0502 F10
G2 X0.8826 Y5.7867 I-0.1086 J-0.1209
G2 X0.868 Y5.8016 I0.1086 J0.1209
G2 X0.8303 Y5.8844 I0.1232 J0.106
G2 X0.814 Y5.8949 I0.0792 J0.1419
G1 X0.7594 Y5.9346
G1 X0.7048 Y5.8949
G2 X0.541 Y5.8789 I-0.0955 J0.1315
G1 X0.541 Y5.6667
G1 X0.584 Y5.6667
G1 X0.6048 Y5.7309
G1 X0.6524 Y5.7155 F10
G2 X0.8669 Y5.714 I0.107 J-0.0347 F10
G1 X0.8969 Y5.6167
G1 X0.9715 Y5.6167
G2 X0.9714 Y5.6221 I0.1124 J0.0054
G2 X0.9769 Y5.6569 I0.1125 J0
G1 X1.009 Y5.7556
G1 X0.925 Y5.8166
G2 X0.8787 Y5.9076 I0.0661 J0.091
G2 X0.8791 Y5.918 I0.1125 J0
G2 X0.8434 Y5.9353 I0.0303 J0.1083
G1 X0.7594 Y5.9964
G1 X0.6754 Y5.9353
G2 X0.4968 Y6.0264 I-0.0661 J0.091
G2 X0.5023 Y6.0612 I0.1125 J0
G1 X0.5344 Y6.1599
G1 X0.491 Y6.1914
G1 X0.491 Y5.6137
G2 X0.5166 Y5.6167 I0.0255 J-0.1096
G1 X0.6203 Y5.6167
G1 X0.6524 Y5.7155
G0 Z0.25
G0 X3.0628 Y3.7486
G1 Z-0.05 F30
G1 X3.2022 Y3.7486 F10
G2 X3.1586 Y3.8323 I0.162 J0.1375
G2 X3.1578 Y3.8329 I0.124 J0.1726
G1 X3.1324 Y3.8513
G1 X3.1072 Y3.833
G2 X3.1063 Y3.8323 I-0.1249 J0.1719
G2 X3.0628 Y3.7486 I-0.2056 J0.0538
G1 X2.9963 Y3.7547 F10
G1 X2.9416 Y3.715 F10
G1 X2.9469 Y3.6986
G1 X3.318 Y3.6986
G1 X3.3233 Y3.715
G1 X3.2687 Y3.7547
G2 X3.2033 Y3.8631 I0.0955 J0.1315
G2 X3.1871 Y3.8734 I0.0793 J0.1418
G1 X3.1324 Y3.9131
G1 X3.0778 Y3.8734
G2 X3.0616 Y3.8631 I-0.0955 J0.1315
G2 X2.9963 Y3.7547 I-0.1609 J0.0231
G1 X2.9669 Y3.7951 F10
G1 X2.8829 Y3.7341 F10
G1 X2.9106 Y3.6486
G1 X3.3543 Y3.6486
G1 X3.382 Y3.7341
G1 X3.298 Y3.7951
G2 X3.2517 Y3.8861 I0.0661 J0.091
G2 X3.2522 Y3.8966 I0.1125 J0
G2 X3.2165 Y3.9139 I0.0305 J0.1083
G1 X3.1324 Y3.9749
G1 X3.0484 Y3.9139
G2 X3.0127 Y3.8966 I-0.0661 J0.091
G2 X3.0132 Y3.8861 I-0.112 J-0.0104
G2 X2.9669 Y3.7951 I-0.1125 J0
G0 Z0.25
G0 X4.9612 Y3.7486
G1 Z-0.05 F30
G1 X5.1006 Y3.7486 F10
G2 X5.057 Y3.8323 I0.162 J0.1375
G2 X5.0562 Y3.8329 I0.124 J0.1726
G1 X5.0309 Y3.8513
G1 X5.0056 Y3.833
G2 X5.0047 Y3.8323 I-0.1249 J0.1719
G2 X4.9612 Y3.7486 I-0.2056 J0.0538
G1 X4.8947 Y3.7547 F10
G1 X4.8401 Y3.715 F10
G1 X4.8454 Y3.6986
G1 X5.2164 Y3.6986
G1 X5.2217 Y3.715
G1 X5.1671 Y3.7547
G2 X5.1018 Y3.8631 I0.0955 J0.1315
G2 X5.0856 Y3.8734 I0.0793 J0.1418
G1 X5.0309 Y3.9131
G1 X4.9763 Y3.8734
G2 X4.96 Y3.8631 I-0.0955 J0.1315
G2 X4.8947 Y3.7547 I-0.1609 J0.0231
G1 X4.8653 Y3.7951 F10
G1 X4.7813 Y3.7341 F10
G1 X4.8091 Y3.6486
G1 X5.2527 Y3.6486
G1 X5.2805 Y3.7341
G1 X5.1965 Y3.7951
G2 X5.1501 Y3.8861 I0.0661 J0.091
G2 X5.1506 Y3.8966 I0.1125 J0
G2 X5.115 Y3.9139 I0.0305 J0.1083
G1 X5.0309 Y3.9749
G1 X4.9469 Y3.9139
G2 X4.9112 Y3.8966 I-0.0661 J0.091
G2 X4.9117 Y3.8861 I-0.112 J-0.0104
G2 X4.8653 Y3.7951 I-0.1125 J0
G0 Z0.25
G0 X1.1643 Y3.7486
G1 Z-0.05 F30
G1 X1.3037 Y3.7486 F10
G2 X1.2602 Y3.8323 I0.162 J0.1375
G2 X1.2593 Y3.833 I0.124 J0.1726
G1 X1.234 Y3.8513
G1 X1.2087 Y3.8329
G2 X1.2079 Y3.8323 I-0.1249 J0.172
G2 X1.1643 Y3.7486 I-0.2056 J0.0538
G1 X1.0978 Y3.7547 F10
G1 X1.0432 Y3.715 F10
G1 X1.0485 Y3.6986
G1 X1.4195 Y3.6986
G1 X1.4248 Y3.715
G1 X1.3702 Y3.7547
G2 X1.3049 Y3.8631 I0.0955 J0.1315
G2 X1.2887 Y3.8734 I0.0793 J0.1418
G1 X1.234 Y3.9131
G1 X1.1793 Y3.8734
G2 X1.1631 Y3.8631 I-0.0955 J0.1315
G2 X1.0978 Y3.7547 I-0.1609 J0.0231
G1 X1.0684 Y3.7951 F10
G1 X0.9844 Y3.7341 F10
G1 X1.0122 Y3.6486
G1 X1.4559 Y3.6486
G1 X1.4836 Y3.7341
G1 X1.3996 Y3.7951
G2 X1.3532 Y3.8861 I0.0661 J0.091
G2 X1.3537 Y3.8966 I0.1125 J0
G2 X1.318 Y3.9139 I0.0305 J0.1083
G1 X1.234 Y3.9749
G1 X1.15 Y3.9139
G2 X1.1143 Y3.8966 I-0.0661 J0.091
G2 X1.1148 Y3.8861 I-0.112 J-0.0104
G2 X1.0684 Y3.7951 I-0.1125 J0
G0 Z0.25
G0 X4.0119 Y3.7486
G1 Z-0.05 F30
G1 X4.1514 Y3.7486 F10
G2 X4.1079 Y3.8322 I0.162 J0.1375
G2 X4.1069 Y3.833 I0.1239 J0.1727
G1 X4.0817 Y3.8513
G1 X4.0565 Y3.833
G2 X4.0555 Y3.8322 I-0.1249 J0.1719
G2 X4.0119 Y3.7486 I-0.2055 J0.0539
G1 X3.9454 Y3.7547 F10
G1 X3.8909 Y3.715 F10
G1 X3.8962 Y3.6986
G1 X4.2672 Y3.6986
G1 X4.2725 Y3.715
G1 X4.2179 Y3.7547
G2 X4.1526 Y3.863 I0.0955 J0.1315
G2 X4.1363 Y3.8734 I0.0792 J0.1419
G1 X4.0817 Y3.9131
G1 X4.0271 Y3.8734
G2 X4.0107 Y3.863 I-0.0955 J0.1315
G2 X3.9454 Y3.7547 I-0.1608 J0.0232
G1 X3.916 Y3.7951 F10
G1 X3.8321 Y3.7341 F10
G1 X3.8599 Y3.6486
G1 X4.3035 Y3.6486
G1 X4.3313 Y3.7341
G1 X4.2473 Y3.7951
G2 X4.2009 Y3.8861 I0.0661 J0.091
G2 X4.2014 Y3.8966 I0.1125 J0
G2 X4.1656 Y3.9139 I0.0303 J0.1083
G1 X4.0817 Y3.9749
G1 X3.9977 Y3.9139
G2 X3.9619 Y3.8966 I-0.0661 J0.091
G2 X3.9624 Y3.8861 I-0.112 J-0.0104
G2 X3.916 Y3.7951 I-0.1125 J0
G0 Z0.25
G0 X2.1135 Y3.7486
G1 Z-0.05 F30
G1 X2.253 Y3.7486 F10
G2 X2.2095 Y3.8322 I0.162 J0.1375
G2 X2.2084 Y3.833 I0.1239 J0.1727
G1 X2.1832 Y3.8513
G1 X2.158 Y3.833
G2 X2.157 Y3.8322 I-0.1249 J0.1719
G2 X2.1135 Y3.7486 I-0.2055 J0.0539
G1 X2.047 Y3.7547 F10
G1 X1.9924 Y3.715 F10
G1 X1.9978 Y3.6986
G1 X2.3687 Y3.6986
G1 X2.3741 Y3.715
G1 X2.3195 Y3.7547
G2 X2.2542 Y3.863 I0.0955 J0.1315
G2 X2.2378 Y3.8734 I0.0792 J0.1419
G1 X2.1832 Y3.9131
G1 X2.1286 Y3.8734
G2 X2.1123 Y3.863 I-0.0955 J0.1315
G2 X2.047 Y3.7547 I-0.1608 J0.0232
G1 X2.0176 Y3.7951 F10
G1 X1.9336 Y3.7341 F10
G1 X1.9614 Y3.6486
G1 X2.405 Y3.6486
G1 X2.4328 Y3.7341
G1 X2.3489 Y3.7951
G2 X2.3025 Y3.8861 I0.0661 J0.091
G2 X2.303 Y3.8966 I0.1125 J0
G2 X2.2672 Y3.9139 I0.0303 J0.1083
G1 X2.1832 Y3.9749
G1 X2.0993 Y3.9139
G2 X2.0635 Y3.8966 I-0.0661 J0.091
G2 X2.064 Y3.8861 I-0.112 J-0.0104
G2 X2.0176 Y3.7951 I-0.1125 J0
G0 Z0.25
G0 X1.6001 Y5.8016
G1 Z-0.05 F30
G2 X1.8168 Y5.802 I0.1086 J-0.1209 F10
G2 X1.7795 Y5.8845 I0.1235 J0.1056
G2 X1.7632 Y5.8949 I0.0793 J0.1418
G1 X1.7087 Y5.9346
G1 X1.6541 Y5.8949
G2 X1.6377 Y5.8844 I-0.0955 J0.1315
G2 X1.6001 Y5.8016 I-0.1608 J0.0232
G2 X1.5855 Y5.7867 I-0.1232 J0.106
G2 X1.6001 Y5.8016 I0.1232 J-0.106
G0 Z0.25
G0 X1.8994 Y5.7365
G1 Z-0.05 F30
G1 X1.8448 Y5.7761 F10
G2 X1.8322 Y5.7863 I0.0955 J0.1315
G2 X1.8639 Y5.7286 I-0.1235 J-0.1056
G1 X1.88 Y5.6766
G1 X1.8994 Y5.7365
G0 Z0.25
G0 X1.9582 Y5.7556
G1 Z-0.05 F30
G1 X1.8742 Y5.8166 F10
G2 X1.8278 Y5.9076 I0.0661 J0.091
G2 X1.8283 Y5.9181 I0.1125 J0
G2 X1.7926 Y5.9353 I0.0305 J0.1083
G1 X1.7087 Y5.9964
G1 X1.6247 Y5.9353
G2 X1.5889 Y5.918 I-0.0661 J0.091
G2 X1.5894 Y5.9076 I-0.112 J-0.0104
G2 X1.543 Y5.8166 I-0.1125 J0
G1 X1.4591 Y5.7556
G1 X1.4912 Y5.6569
G2 X1.4967 Y5.6221 I-0.107 J-0.0348
G2 X1.4965 Y5.6167 I-0.1125 J0
G1 X1.5695 Y5.6167
G1 X1.6017 Y5.7155
G2 X1.8162 Y5.7139 I0.107 J-0.0348
G1 X1.8462 Y5.6167
G1 X1.9208 Y5.6167
G2 X1.9206 Y5.6221 I0.1124 J0.0054
G2 X1.9261 Y5.6568 I0.1125 J0
G1 X1.9582 Y5.7556
G0 Z0.25
G0 X3.4985 Y5.8016
G1 Z-0.05 F30
G2 X3.7152 Y5.802 I0.1086 J-0.1209 F10
G2 X3.6779 Y5.8845 I0.1235 J0.1056
G2 X3.6617 Y5.8949 I0.0793 J0.1418
G1 X3.6071 Y5.9346
G1 X3.5525 Y5.8949
G2 X3.5362 Y5.8844 I-0.0955 J0.1315
G2 X3.4985 Y5.8016 I-0.1608 J0.0232
G2 X3.4839 Y5.7867 I-0.1232 J0.106
G2 X3.4985 Y5.8016 I0.1232 J-0.106
G0 Z0.25
G0 X3.7979 Y5.7365
G1 Z-0.05 F30
G1 X3.7432 Y5.7761 F10
G2 X3.7306 Y5.7863 I0.0955 J0.1315
G2 X3.7624 Y5.7286 I-0.1235 J-0.1056
G1 X3.7784 Y5.6766
G1 X3.7979 Y5.7365
G0 Z0.25
G0 X3.8566 Y5.7556
G1 Z-0.05 F30
G1 X3.7726 Y5.8166 F10
G2 X3.7263 Y5.9076 I0.0661 J0.091
G2 X3.7267 Y5.9181 I0.1125 J0
G2 X3.6911 Y5.9353 I0.0305 J0.1083
G1 X3.6071 Y5.9964
G1 X3.5231 Y5.9353
G2 X3.4873 Y5.918 I-0.0661 J0.091
G2 X3.4878 Y5.9076 I-0.112 J-0.0104
G2 X3.4414 Y5.8166 I-0.1125 J0
G1 X3.3575 Y5.7556
G1 X3.3896 Y5.6569
G2 X3.3951 Y5.6221 I-0.107 J-0.0348
G2 X3.395 Y5.6167 I-0.1125 J0
G1 X3.468 Y5.6167
G1 X3.5001 Y5.7155
G2 X3.7146 Y5.7139 I0.107 J-0.0348
G1 X3.7446 Y5.6167
G1 X3.8192 Y5.6167
G2 X3.8191 Y5.6221 I0.1124 J0.0054
G2 X3.8246 Y5.6568 I0.1125 J0
G1 X3.8566 Y5.7556
G0 Z0.25
G0 X4.4481 Y5.802
G1 Z-0.05 F30
G2 X4.6648 Y5.8016 I0.1081 J-0.1213 F10
G2 X4.6272 Y5.8844 I0.1232 J0.106
G2 X4.6108 Y5.8949 I0.0792 J0.1419
G1 X4.5563 Y5.9346
G1 X4.5017 Y5.8949
G2 X4.4854 Y5.8845 I-0.0955 J0.1315
G2 X4.4481 Y5.802 I-0.1609 J0.0231
G2 X4.4327 Y5.7863 I-0.1235 J0.1056
G2 X4.4481 Y5.802 I0.1235 J-0.1056
G0 Z0.25
G0 X4.7471 Y5.7365
G1 Z-0.05 F30
G1 X4.6925 Y5.7761 F10
G2 X4.6794 Y5.7867 I0.0955 J0.1315
G2 X4.7115 Y5.7287 I-0.1232 J-0.106
G1 X4.7276 Y5.6767
G1 X4.7471 Y5.7365
G0 Z0.25
G0 X4.8059 Y5.7556
G1 Z-0.05 F30
G1 X4.7219 Y5.8166 F10
G2 X4.6755 Y5.9076 I0.0661 J0.091
G2 X4.676 Y5.918 I0.1125 J0
G2 X4.6402 Y5.9353 I0.0303 J0.1083
G1 X4.5563 Y5.9964
G1 X4.4723 Y5.9353
G2 X4.4366 Y5.9181 I-0.0661 J0.091
G2 X4.4371 Y5.9076 I-0.112 J-0.0104
G2 X4.3907 Y5.8166 I-0.1125 J0
G1 X4.3067 Y5.7556
G1 X4.3388 Y5.6568
G2 X4.3443 Y5.6221 I-0.107 J-0.0347
G2 X4.3441 Y5.6167 I-0.1125 J0
G1 X4.4172 Y5.6167
G1 X4.4492 Y5.7155
G2 X4.6637 Y5.714 I0.107 J-0.0347
G1 X4.6938 Y5.6167
G1 X4.7684 Y5.6167
G2 X4.7682 Y5.6221 I0.1124 J0.0054
G2 X4.7738 Y5.6569 I0.1125 J0
G1 X4.8059 Y5.7556
G0 Z0.25
G0 X2.5497 Y5.802
G1 Z-0.05 F30
G2 X2.7664 Y5.8016 I0.1081 J-0.1213 F10
G2 X2.7287 Y5.8844 I0.1232 J0.106
G2 X2.7124 Y5.8949 I0.0792 J0.1419
G1 X2.6578 Y5.9346
G1 X2.6032 Y5.8949
G2 X2.587 Y5.8845 I-0.0955 J0.1315
G2 X2.5497 Y5.802 I-0.1609 J0.0231
G2 X2.5343 Y5.7863 I-0.1235 J0.1056
G2 X2.5497 Y5.802 I0.1235 J-0.1056
G0 Z0.25
G0 X2.8486 Y5.7365
G1 Z-0.05 F30
G1 X2.7941 Y5.7761 F10
G2 X2.781 Y5.7867 I0.0955 J0.1315
G2 X2.8131 Y5.7287 I-0.1232 J-0.106
G1 X2.8292 Y5.6767
G1 X2.8486 Y5.7365
G0 Z0.25
G0 X2.9074 Y5.7556
G1 Z-0.05 F30
G1 X2.8235 Y5.8166 F10
G2 X2.7771 Y5.9076 I0.0661 J0.091
G2 X2.7776 Y5.918 I0.1125 J0
G2 X2.7418 Y5.9353 I0.0303 J0.1083
G1 X2.6578 Y5.9964
G1 X2.5738 Y5.9353
G2 X2.5382 Y5.9181 I-0.0661 J0.091
G2 X2.5387 Y5.9076 I-0.112 J-0.0104
G2 X2.4923 Y5.8166 I-0.1125 J0
G1 X2.4083 Y5.7556
G1 X2.4403 Y5.6568
G2 X2.4458 Y5.6221 I-0.107 J-0.0347
G2 X2.4457 Y5.6167 I-0.1125 J0
G1 X2.5188 Y5.6167
G1 X2.5508 Y5.7155
G2 X2.7653 Y5.714 I0.107 J-0.0347
G1 X2.7954 Y5.6167
G1 X2.8699 Y5.6167
G2 X2.8698 Y5.6221 I0.1124 J0.0054
G2 X2.8753 Y5.6569 I0.1125 J0
G1 X2.9074 Y5.7556
G0 Z0.25
G0 X1.1192 Y6.199
G1 Z-0.05 F30
G2 X1.3473 Y6.2007 I0.1148 J-0.115 F10
G2 X1.3049 Y6.2889 I0.1185 J0.1112
G2 X1.2887 Y6.2992 I0.0793 J0.1418
G1 X1.234 Y6.339
G1 X1.1794 Y6.2993
G2 X1.1632 Y6.2889 I-0.0955 J0.1315
G2 X1.1192 Y6.199 I-0.1609 J0.023
G2 X1.1171 Y6.1969 I-0.1169 J0.1129
G2 X1.1192 Y6.199 I0.1169 J-0.1129
G0 Z0.25
G0 X1.3525 Y6.1953
G1 Z-0.05 F30
G2 X1.3893 Y6.132 I-0.1185 J-0.1112 F10
G1 X1.4053 Y6.0804
G1 X1.4248 Y6.1407
G1 X1.3702 Y6.1804
G2 X1.3525 Y6.1953 I0.0955 J0.1315
G0 Z0.25
G0 X1.3996 Y6.2209
G1 Z-0.05 F30
G2 X1.3532 Y6.3119 I0.0661 J0.091 F10
G2 X1.3537 Y6.3224 I0.1125 J0
G2 X1.3181 Y6.3397 I0.0304 J0.1083
G1 X1.234 Y6.4007
G1 X1.15 Y6.3397
G2 X1.1143 Y6.3224 I-0.0661 J0.091
G2 X1.1148 Y6.3119 I-0.112 J-0.0106
G2 X1.0684 Y6.2209 I-0.1125 J0
G1 X0.9844 Y6.1598
G1 X1.0165 Y6.0611
G2 X1.022 Y6.0264 I-0.107 J-0.0347
G2 X1.0218 Y6.0201 I-0.1125 J0
G1 X1.095 Y6.0201
G1 X1.1271 Y6.1189
G2 X1.3416 Y6.1172 I0.107 J-0.0348
G1 X1.3716 Y6.0201
G1 X1.4462 Y6.0201
G2 X1.446 Y6.0264 I0.1123 J0.0062
G2 X1.4515 Y6.0611 I0.1125 J0
G1 X1.4836 Y6.1598
G1 X1.3996 Y6.2209
G0 Z0.25
G0 X1.5938 Y4.1776
G1 Z-0.05 F30
G2 X1.8218 Y4.1792 I0.1148 J-0.115 F10
G2 X1.7795 Y4.2673 I0.1185 J0.1112
G2 X1.7632 Y4.2777 I0.0793 J0.1418
G1 X1.7087 Y4.3174
G1 X1.6541 Y4.2777
G2 X1.6377 Y4.2673 I-0.0955 J0.1315
G2 X1.5938 Y4.1776 I-0.1608 J0.0232
G2 X1.5917 Y4.1755 I-0.1169 J0.1129
G2 X1.5938 Y4.1776 I0.1169 J-0.1129
G0 Z0.25
G0 X1.8271 Y4.1738
G1 Z-0.05 F30
G2 X1.8639 Y4.1105 I-0.1185 J-0.1112 F10
G1 X1.8798 Y4.059
G1 X1.8994 Y4.1193
G1 X1.8448 Y4.159
G2 X1.8271 Y4.1738 I0.0955 J0.1315
G0 Z0.25
G0 X1.8742 Y4.1994
G1 Z-0.05 F30
G2 X1.8278 Y4.2904 I0.0661 J0.091 F10
G2 X1.8283 Y4.3009 I0.1125 J0
G2 X1.7926 Y4.3182 I0.0305 J0.1083
G1 X1.7087 Y4.3792
G1 X1.6247 Y4.3182
G2 X1.5889 Y4.3008 I-0.0661 J0.091
G2 X1.5894 Y4.2904 I-0.112 J-0.0104
G2 X1.543 Y4.1994 I-0.1125 J0
G1 X1.4591 Y4.1384
G1 X1.4912 Y4.0397
G2 X1.4967 Y4.0049 I-0.107 J-0.0348
G2 X1.4965 Y3.9986 I-0.1125 J0
G1 X1.5695 Y3.9986
G1 X1.6017 Y4.0974
G2 X1.8161 Y4.0958 I0.107 J-0.0348
G1 X1.8461 Y3.9986
G1 X1.9208 Y3.9986
G2 X1.9206 Y4.0049 I0.1123 J0.0062
G2 X1.9261 Y4.0396 I0.1125 J0
G1 X1.9582 Y4.1384
G1 X1.8742 Y4.1994
G0 Z0.25
G0 X3.4526 Y4.9214
G1 Z-0.05 F30
G2 X3.7218 Y4.9862 I0.1545 J-0.0503 F10
G2 X3.6778 Y5.0769 I0.1169 J0.1129
G2 X3.6617 Y5.0872 I0.0794 J0.1418
G1 X3.6071 Y5.1268
G1 X3.5525 Y5.0872
G2 X3.5363 Y5.0768 I-0.0955 J0.1315
G2 X3.4708 Y4.9676 I-0.161 J0.0223
G1 X3.4163 Y4.928
G1 X3.4355 Y4.8689
G1 X3.4526 Y4.9214
G0 Z0.25
G0 X3.724 Y4.984
G1 Z-0.05 F30
G2 X3.7624 Y4.9191 I-0.1169 J-0.1129 F10
G1 X3.7783 Y4.8676
G1 X3.7979 Y4.9279
G1 X3.7432 Y4.9676
G2 X3.724 Y4.984 I0.0955 J0.1315
G0 Z0.25
G0 X3.7726 Y5.008
G1 Z-0.05 F30
G2 X3.7263 Y5.0991 I0.0661 J0.091 F10
G2 X3.7268 Y5.1103 I0.1125 J0
G2 X3.6911 Y5.1276 I0.0304 J0.1083
G1 X3.6071 Y5.1886
G1 X3.5231 Y5.1276
G2 X3.4873 Y5.1103 I-0.0661 J0.091
G2 X3.4878 Y5.0991 I-0.1119 J-0.0112
G2 X3.4414 Y5.008 I-0.1125 J0
G1 X3.3575 Y4.947
G1 X3.3896 Y4.8483
G2 X3.3951 Y4.8135 I-0.107 J-0.0348
G2 X3.3949 Y4.8072 I-0.1125 J0
G1 X3.468 Y4.8072
G1 X3.5001 Y4.9059
G2 X3.7146 Y4.9043 I0.107 J-0.0348
G1 X3.7446 Y4.8072
G1 X3.8192 Y4.8072
G2 X3.8191 Y4.8135 I0.1123 J0.0064
G2 X3.8246 Y4.8483 I0.1125 J0
G1 X3.8566 Y4.947
G1 X3.7726 Y5.008
G0 Z0.25
G0 X1.1192 Y4.5818
G1 Z-0.05 F30
G2 X1.3473 Y4.5835 I0.1148 J-0.115 F10
G2 X1.3049 Y4.6717 I0.1185 J0.1112
G2 X1.2887 Y4.682 I0.0793 J0.1418
G1 X1.234 Y4.7218
G1 X1.1794 Y4.6821
G2 X1.1632 Y4.6717 I-0.0955 J0.1315
G2 X1.1192 Y4.5818 I-0.1609 J0.023
G2 X1.1171 Y4.5797 I-0.1169 J0.1129
G2 X1.1192 Y4.5818 I0.1169 J-0.1129
G0 Z0.25
G0 X1.3525 Y4.5781
G1 Z-0.05 F30
G2 X1.3893 Y4.5148 I-0.1185 J-0.1112 F10
G1 X1.4053 Y4.4632
G1 X1.4248 Y4.5235
G1 X1.3702 Y4.5632
G2 X1.3525 Y4.5781 I0.0955 J0.1315
G0 Z0.25
G0 X1.3996 Y4.6037
G1 Z-0.05 F30
G2 X1.3532 Y4.6947 I0.0661 J0.091 F10
G2 X1.3537 Y4.7052 I0.1125 J0
G2 X1.3181 Y4.7225 I0.0304 J0.1083
G1 X1.234 Y4.7836
G1 X1.15 Y4.7225
G2 X1.1143 Y4.7052 I-0.0661 J0.091
G2 X1.1148 Y4.6947 I-0.112 J-0.0106
G2 X1.0684 Y4.6037 I-0.1125 J0
G1 X0.9844 Y4.5426
G1 X1.0165 Y4.4439
G2 X1.022 Y4.4092 I-0.107 J-0.0347
G2 X1.0218 Y4.4029 I-0.1125 J0
G1 X1.095 Y4.4029
G1 X1.1271 Y4.5017
G2 X1.3416 Y4.5001 I0.107 J-0.0348
G1 X1.3716 Y4.4029
G1 X1.4462 Y4.4029
G2 X1.446 Y4.4092 I0.1123 J0.0062
G2 X1.4515 Y4.4439 I0.1125 J0
G1 X1.4836 Y4.5426
G1 X1.3996 Y4.6037
G0 Z0.25
G0 X1.5541 Y6.5386
G1 Z-0.05 F30
G2 X1.8234 Y6.6034 I0.1545 J-0.0503 F10
G2 X1.7793 Y6.6941 I0.1169 J0.1129
G2 X1.7632 Y6.7044 I0.0794 J0.1418
G1 X1.7087 Y6.744
G1 X1.6541 Y6.7044
G2 X1.6379 Y6.694 I-0.0955 J0.1315
G2 X1.5724 Y6.5848 I-0.161 J0.0223
G1 X1.5178 Y6.5451
G1 X1.537 Y6.4861
G1 X1.5541 Y6.5386
G0 Z0.25
G0 X1.8256 Y6.6012
G1 Z-0.05 F30
G2 X1.8639 Y6.5363 I-0.1169 J-0.1129 F10
G1 X1.8798 Y6.4848
G1 X1.8994 Y6.5451
G1 X1.8448 Y6.5848
G2 X1.8256 Y6.6012 I0.0955 J0.1315
G0 Z0.25
G0 X1.8742 Y6.6252
G1 Z-0.05 F30
G2 X1.8278 Y6.7162 I0.0661 J0.091 F10
G2 X1.8284 Y6.7275 I0.1125 J0
G2 X1.7926 Y6.7448 I0.0304 J0.1083
G1 X1.7087 Y6.8058
G1 X1.6247 Y6.7448
G2 X1.5888 Y6.7275 I-0.0661 J0.091
G2 X1.5894 Y6.7162 I-0.1119 J-0.0112
G2 X1.543 Y6.6252 I-0.1125 J0
G1 X1.4591 Y6.5642
G1 X1.4912 Y6.4655
G2 X1.4967 Y6.4307 I-0.107 J-0.0348
G2 X1.4965 Y6.4244 I-0.1125 J0
G1 X1.5695 Y6.4244
G1 X1.6017 Y6.5231
G2 X1.8161 Y6.5215 I0.107 J-0.0348
G1 X1.8461 Y6.4244
G1 X1.9208 Y6.4244
G2 X1.9206 Y6.4307 I0.1123 J0.0064
G2 X1.9261 Y6.4655 I0.1125 J0
G1 X1.9582 Y6.5642
G1 X1.8742 Y6.6252
G0 Z0.25
G0 X1.5541 Y4.9214
G1 Z-0.05 F30
G2 X1.8234 Y4.9862 I0.1545 J-0.0503 F10
G2 X1.7793 Y5.0769 I0.1169 J0.1129
G2 X1.7632 Y5.0872 I0.0794 J0.1418
G1 X1.7087 Y5.1268
G1 X1.6541 Y5.0872
G2 X1.6379 Y5.0768 I-0.0955 J0.1315
G2 X1.5724 Y4.9676 I-0.161 J0.0223
G1 X1.5178 Y4.928
G1 X1.537 Y4.8689
G1 X1.5541 Y4.9214
G0 Z0.25
G0 X1.8256 Y4.984
G1 Z-0.05 F30
G2 X1.8639 Y4.9191 I-0.1169 J-0.1129 F10
G1 X1.8798 Y4.8676
G1 X1.8994 Y4.9279
G1 X1.8448 Y4.9676
G2 X1.8256 Y4.984 I0.0955 J0.1315
G0 Z0.25
G0 X1.8742 Y5.008
G1 Z-0.05 F30
G2 X1.8278 Y5.0991 I0.0661 J0.091 F10
G2 X1.8284 Y5.1103 I0.1125 J0
G2 X1.7926 Y5.1276 I0.0304 J0.1083
G1 X1.7087 Y5.1886
G1 X1.6247 Y5.1276
G2 X1.5888 Y5.1103 I-0.0661 J0.091
G2 X1.5894 Y5.0991 I-0.1119 J-0.0112
G2 X1.543 Y5.008 I-0.1125 J0
G1 X1.4591 Y4.947
G1 X1.4912 Y4.8483
G2 X1.4967 Y4.8135 I-0.107 J-0.0348
G2 X1.4965 Y4.8072 I-0.1125 J0
G1 X1.5695 Y4.8072
G1 X1.6017 Y4.9059
G2 X1.8161 Y4.9043 I0.107 J-0.0348
G1 X1.8461 Y4.8072
G1 X1.9208 Y4.8072
G2 X1.9206 Y4.8135 I0.1123 J0.0064
G2 X1.9261 Y4.8483 I0.1125 J0
G1 X1.9582 Y4.947
G1 X1.8742 Y5.008
G0 Z0.25
G0 X3.4526 Y6.5386
G1 Z-0.05 F30
G2 X3.7218 Y6.6034 I0.1545 J-0.0503 F10
G2 X3.6778 Y6.6941 I0.1169 J0.1129
G2 X3.6617 Y6.7044 I0.0794 J0.1418
G1 X3.6071 Y6.744
G1 X3.5525 Y6.7044
G2 X3.5363 Y6.694 I-0.0955 J0.1315
G2 X3.4708 Y6.5848 I-0.161 J0.0223
G1 X3.4163 Y6.5451
G1 X3.4355 Y6.4861
G1 X3.4526 Y6.5386
G0 Z0.25
G0 X3.724 Y6.6012
G1 Z-0.05 F30
G2 X3.7624 Y6.5363 I-0.1169 J-0.1129 F10
G1 X3.7783 Y6.4848
G1 X3.7979 Y6.5451
G1 X3.7432 Y6.5848
G2 X3.724 Y6.6012 I0.0955 J0.1315
G0 Z0.25
G0 X3.7726 Y6.6252
G1 Z-0.05 F30
G2 X3.7263 Y6.7162 I0.0661 J0.091 F10
G2 X3.7268 Y6.7275 I0.1125 J0
G2 X3.6911 Y6.7448 I0.0304 J0.1083
G1 X3.6071 Y6.8058
G1 X3.5231 Y6.7448
G2 X3.4873 Y6.7275 I-0.0661 J0.091
G2 X3.4878 Y6.7162 I-0.1119 J-0.0112
G2 X3.4414 Y6.6252 I-0.1125 J0
G1 X3.3575 Y6.5642
G1 X3.3896 Y6.4655
G2 X3.3951 Y6.4307 I-0.107 J-0.0348
G2 X3.3949 Y6.4244 I-0.1125 J0
G1 X3.468 Y6.4244
G1 X3.5001 Y6.5231
G2 X3.7146 Y6.5215 I0.107 J-0.0348
G1 X3.7446 Y6.4244
G1 X3.8192 Y6.4244
G2 X3.8191 Y6.4307 I0.1123 J0.0064
G2 X3.8246 Y6.4655 I0.1125 J0
G1 X3.8566 Y6.5642
G1 X3.7726 Y6.6252
G0 Z0.25
G0 X3.4922 Y4.1776
G1 Z-0.05 F30
G2 X3.7203 Y4.1792 I0.1148 J-0.115 F10
G2 X3.6779 Y4.2673 I0.1185 J0.1112
G2 X3.6617 Y4.2777 I0.0793 J0.1418
G1 X3.6071 Y4.3174
G1 X3.5525 Y4.2777
G2 X3.5362 Y4.2673 I-0.0955 J0.1315
G2 X3.4922 Y4.1776 I-0.1608 J0.0232
G2 X3.4902 Y4.1755 I-0.1169 J0.1129
G2 X3.4922 Y4.1776 I0.1169 J-0.1129
G0 Z0.25
G0 X3.7256 Y4.1738
G1 Z-0.05 F30
G2 X3.7624 Y4.1105 I-0.1185 J-0.1112 F10
G1 X3.7783 Y4.059
G1 X3.7979 Y4.1193
G1 X3.7432 Y4.159
G2 X3.7256 Y4.1738 I0.0955 J0.1315
G0 Z0.25
G0 X3.7726 Y4.1994
G1 Z-0.05 F30
G2 X3.7263 Y4.2904 I0.0661 J0.091 F10
G2 X3.7267 Y4.3009 I0.1125 J0
G2 X3.6911 Y4.3182 I0.0305 J0.1083
G1 X3.6071 Y4.3792
G1 X3.5231 Y4.3182
G2 X3.4873 Y4.3008 I-0.0661 J0.091
G2 X3.4878 Y4.2904 I-0.112 J-0.0104
G2 X3.4414 Y4.1994 I-0.1125 J0
G1 X3.3575 Y4.1384
G1 X3.3896 Y4.0397
G2 X3.3951 Y4.0049 I-0.107 J-0.0348
G2 X3.3949 Y3.9986 I-0.1125 J0
G1 X3.468 Y3.9986
G1 X3.5001 Y4.0974
G2 X3.7146 Y4.0958 I0.107 J-0.0348
G1 X3.7446 Y3.9986
G1 X3.8192 Y3.9986
G2 X3.8191 Y4.0049 I0.1123 J0.0062
G2 X3.8246 Y4.0396 I0.1125 J0
G1 X3.8566 Y4.1384
G1 X3.7726 Y4.1994
G0 Z0.25
G0 X4.9177 Y4.5835
G1 Z-0.05 F30
G2 X5.1457 Y4.5818 I0.1132 J-0.1166 F10
G2 X5.1017 Y4.6717 I0.1169 J0.1129
G2 X5.0856 Y4.682 I0.0793 J0.1418
G1 X5.0309 Y4.7218
G1 X4.9763 Y4.6821
G2 X4.96 Y4.6717 I-0.0955 J0.1315
G2 X4.9177 Y4.5835 I-0.1609 J0.023
G2 X4.9124 Y4.5781 I-0.1185 J0.1112
G2 X4.9177 Y4.5835 I0.1185 J-0.1112
G0 Z0.25
G0 X5.1478 Y4.5797
G1 Z-0.05 F30
G2 X5.1861 Y4.5149 I-0.1169 J-0.1129 F10
G1 X5.2021 Y4.4631
G1 X5.2217 Y4.5235
G1 X5.1671 Y4.5632
G2 X5.1478 Y4.5797 I0.0955 J0.1315
G0 Z0.25
G0 X5.1965 Y4.6037
G1 Z-0.05 F30
G2 X5.1501 Y4.6947 I0.0661 J0.091 F10
G2 X5.1506 Y4.7052 I0.1125 J0
G2 X5.115 Y4.7225 I0.0304 J0.1083
G1 X5.0309 Y4.7836
G1 X4.9469 Y4.7225
G2 X4.9112 Y4.7052 I-0.0661 J0.091
G2 X4.9117 Y4.6947 I-0.112 J-0.0106
G2 X4.8653 Y4.6037 I-0.1125 J0
G1 X4.7813 Y4.5426
G1 X4.8134 Y4.4439
G2 X4.8189 Y4.4092 I-0.107 J-0.0347
G2 X4.8187 Y4.4029 I-0.1125 J0
G1 X4.8918 Y4.4029
G1 X4.9238 Y4.5016
G2 X5.1383 Y4.5001 I0.107 J-0.0347
G1 X5.1684 Y4.4029
G1 X5.2431 Y4.4029
G2 X5.2429 Y4.4092 I0.1123 J0.0062
G2 X5.2484 Y4.4439 I0.1125 J0
G1 X5.2805 Y4.5426
G1 X5.1965 Y4.6037
G0 Z0.25
G0 X4.9177 Y6.2007
G1 Z-0.05 F30
G2 X5.1457 Y6.199 I0.1132 J-0.1166 F10
G2 X5.1017 Y6.2889 I0.1169 J0.1129
G2 X5.0856 Y6.2992 I0.0793 J0.1418
G1 X5.0309 Y6.339
G1 X4.9763 Y6.2993
G2 X4.96 Y6.2889 I-0.0955 J0.1315
G2 X4.9177 Y6.2007 I-0.1609 J0.023
G2 X4.9124 Y6.1953 I-0.1185 J0.1112
G2 X4.9177 Y6.2007 I0.1185 J-0.1112
G0 Z0.25
G0 X5.1478 Y6.1969
G1 Z-0.05 F30
G2 X5.1861 Y6.1321 I-0.1169 J-0.1129 F10
G1 X5.2021 Y6.0803
G1 X5.2217 Y6.1407
G1 X5.1671 Y6.1804
G2 X5.1478 Y6.1969 I0.0955 J0.1315
G0 Z0.25
G0 X5.1965 Y6.2209
G1 Z-0.05 F30
G2 X5.1501 Y6.3119 I0.0661 J0.091 F10
G2 X5.1506 Y6.3224 I0.1125 J0
G2 X5.115 Y6.3397 I0.0304 J0.1083
G1 X5.0309 Y6.4007
G1 X4.9469 Y6.3397
G2 X4.9112 Y6.3224 I-0.0661 J0.091
G2 X4.9117 Y6.3119 I-0.112 J-0.0106
G2 X4.8653 Y6.2209 I-0.1125 J0
G1 X4.7813 Y6.1598
G1 X4.8134 Y6.0611
G2 X4.8189 Y6.0264 I-0.107 J-0.0347
G2 X4.8187 Y6.0201 I-0.1125 J0
G1 X4.8918 Y6.0201
G1 X4.9238 Y6.1188
G2 X5.1383 Y6.1173 I0.107 J-0.0347
G1 X5.1684 Y6.0201
G1 X5.2431 Y6.0201
G2 X5.2429 Y6.0264 I0.1123 J0.0062
G2 X5.2484 Y6.0611 I0.1125 J0
G1 X5.2805 Y6.1598
G1 X5.1965 Y6.2209
G0 Z0.25
G0 X4.4415 Y4.9862
G1 Z-0.05 F30
G2 X4.7115 Y4.9192 I0.1147 J-0.1151 F10
G1 X4.7274 Y4.8676
G1 X4.7471 Y4.928
G1 X4.6925 Y4.9676
G2 X4.6271 Y5.0768 I0.0955 J0.1315
G2 X4.6108 Y5.0872 I0.0793 J0.1418
G1 X4.5563 Y5.1268
G1 X4.5017 Y5.0872
G2 X4.4856 Y5.0769 I-0.0955 J0.1315
G2 X4.4415 Y4.9862 I-0.161 J0.0222
G2 X4.4393 Y4.984 I-0.1169 J0.1129
G2 X4.4415 Y4.9862 I0.1169 J-0.1129
G1 X4.3907 Y5.008 F10
G1 X4.3067 Y4.947 F10
G1 X4.3388 Y4.8483
G2 X4.3443 Y4.8135 I-0.107 J-0.0347
G2 X4.3441 Y4.8072 I-0.1125 J0
G1 X4.4172 Y4.8072
G1 X4.4493 Y4.9059
G2 X4.6637 Y4.9044 I0.107 J-0.0347
G1 X4.6938 Y4.8072
G1 X4.7684 Y4.8072
G2 X4.7682 Y4.8135 I0.1123 J0.0064
G2 X4.7738 Y4.8483 I0.1125 J0
G1 X4.8059 Y4.947
G1 X4.7219 Y5.008
G2 X4.6755 Y5.0991 I0.0661 J0.091
G2 X4.6761 Y5.1103 I0.1125 J0
G2 X4.6402 Y5.1276 I0.0303 J0.1084
G1 X4.5563 Y5.1886
G1 X4.4723 Y5.1276
G2 X4.4365 Y5.1103 I-0.0661 J0.091
G2 X4.4371 Y5.0991 I-0.1119 J-0.0113
G2 X4.3907 Y5.008 I-0.1125 J0
G0 Z0.25
G0 X3.9668 Y4.5818
G1 Z-0.05 F30
G2 X4.1965 Y4.5818 I0.1148 J-0.115 F10
G2 X4.1526 Y4.6716 I0.1169 J0.1129
G2 X4.1363 Y4.6821 I0.0792 J0.1419
G1 X4.0817 Y4.7217
G1 X4.0271 Y4.6821
G2 X4.0108 Y4.6716 I-0.0955 J0.1315
G2 X3.9668 Y4.5818 I-0.1609 J0.023
G2 X3.9648 Y4.5797 I-0.1169 J0.1129
G2 X3.9668 Y4.5818 I0.1169 J-0.1129
G0 Z0.25
G0 X4.1986 Y4.5797
G1 Z-0.05 F30
G2 X4.2369 Y4.5149 I-0.1169 J-0.1129 F10
G1 X4.2529 Y4.4633
G1 X4.2725 Y4.5236
G1 X4.2179 Y4.5632
G2 X4.1986 Y4.5797 I0.0955 J0.1315
G0 Z0.25
G0 X4.2473 Y4.6037
G1 Z-0.05 F30
G2 X4.2009 Y4.6947 I0.0661 J0.091 F10
G2 X4.2014 Y4.7052 I0.1125 J0
G2 X4.1656 Y4.7225 I0.0303 J0.1083
G1 X4.0817 Y4.7835
G1 X3.9977 Y4.7225
G2 X3.9619 Y4.7052 I-0.0661 J0.091
G2 X3.9624 Y4.6947 I-0.112 J-0.0105
G2 X3.916 Y4.6037 I-0.1125 J0
G1 X3.8321 Y4.5427
G1 X3.8642 Y4.444
G2 X3.8697 Y4.4092 I-0.107 J-0.0348
G2 X3.8695 Y4.4029 I-0.1125 J0
G1 X3.9426 Y4.4029
G1 X3.9747 Y4.5016
G2 X4.1891 Y4.5001 I0.107 J-0.0347
G1 X4.2192 Y4.4029
G1 X4.2938 Y4.4029
G2 X4.2937 Y4.4092 I0.1123 J0.0062
G2 X4.2992 Y4.444 I0.1125 J0
G1 X4.3313 Y4.5427
G1 X4.2473 Y4.6037
G0 Z0.25
G0 X4.4431 Y4.1792
G1 Z-0.05 F30
G2 X4.6711 Y4.1776 I0.1132 J-0.1166 F10
G2 X4.6272 Y4.2673 I0.1169 J0.1129
G2 X4.6108 Y4.2777 I0.0792 J0.1419
G1 X4.5563 Y4.3174
G1 X4.5017 Y4.2777
G2 X4.4854 Y4.2673 I-0.0955 J0.1315
G2 X4.4431 Y4.1792 I-0.1609 J0.0231
G2 X4.4378 Y4.1738 I-0.1185 J0.1112
G2 X4.4431 Y4.1792 I0.1185 J-0.1112
G0 Z0.25
G0 X4.6732 Y4.1755
G1 Z-0.05 F30
G2 X4.7115 Y4.1106 I-0.1169 J-0.1129 F10
G1 X4.7275 Y4.059
G1 X4.7471 Y4.1193
G1 X4.6925 Y4.159
G2 X4.6732 Y4.1755 I0.0955 J0.1315
G0 Z0.25
G0 X4.7219 Y4.1994
G1 Z-0.05 F30
G2 X4.6755 Y4.2904 I0.0661 J0.091 F10
G2 X4.676 Y4.3008 I0.1125 J0
G2 X4.6402 Y4.3182 I0.0303 J0.1083
G1 X4.5563 Y4.3792
G1 X4.4723 Y4.3182
G2 X4.4366 Y4.3009 I-0.0661 J0.091
G2 X4.4371 Y4.2904 I-0.112 J-0.0104
G2 X4.3907 Y4.1994 I-0.1125 J0
G1 X4.3067 Y4.1384
G1 X4.3388 Y4.0396
G2 X4.3443 Y4.0049 I-0.107 J-0.0347
G2 X4.3441 Y3.9986 I-0.1125 J0
G1 X4.4172 Y3.9986
G1 X4.4493 Y4.0973
G2 X4.6637 Y4.0958 I0.107 J-0.0347
G1 X4.6938 Y3.9986
G1 X4.7684 Y3.9986
G2 X4.7682 Y4.0049 I0.1123 J0.0062
G2 X4.7738 Y4.0397 I0.1125 J0
G1 X4.8059 Y4.1384
G1 X4.7219 Y4.1994
G0 Z0.25
G0 X4.4415 Y6.6034
G1 Z-0.05 F30
G2 X4.7115 Y6.5364 I0.1147 J-0.1151 F10
G1 X4.7274 Y6.4848
G1 X4.7471 Y6.5451
G1 X4.6925 Y6.5848
G2 X4.6271 Y6.694 I0.0955 J0.1315
G2 X4.6108 Y6.7044 I0.0793 J0.1418
G1 X4.5563 Y6.744
G1 X4.5017 Y6.7044
G2 X4.4856 Y6.6941 I-0.0955 J0.1315
G2 X4.4415 Y6.6034 I-0.161 J0.0222
G2 X4.4393 Y6.6012 I-0.1169 J0.1129
G2 X4.4415 Y6.6034 I0.1169 J-0.1129
G1 X4.3907 Y6.6252 F10
G1 X4.3067 Y6.5642 F10
G1 X4.3388 Y6.4655
G2 X4.3443 Y6.4307 I-0.107 J-0.0347
G2 X4.3441 Y6.4244 I-0.1125 J0
G1 X4.4172 Y6.4244
G1 X4.4493 Y6.5231
G2 X4.6637 Y6.5216 I0.107 J-0.0347
G1 X4.6938 Y6.4244
G1 X4.7684 Y6.4244
G2 X4.7682 Y6.4307 I0.1123 J0.0064
G2 X4.7738 Y6.4655 I0.1125 J0
G1 X4.8059 Y6.5642
G1 X4.7219 Y6.6252
G2 X4.6755 Y6.7162 I0.0661 J0.091
G2 X4.6761 Y6.7275 I0.1125 J0
G2 X4.6402 Y6.7448 I0.0303 J0.1084
G1 X4.5563 Y6.8058
G1 X4.4723 Y6.7448
G2 X4.4365 Y6.7275 I-0.0661 J0.091
G2 X4.4371 Y6.7162 I-0.1119 J-0.0113
G2 X4.3907 Y6.6252 I-0.1125 J0
G0 Z0.25
G0 X2.9778 Y5.3257
G1 Z-0.05 F30
G2 X3.2876 Y5.3235 I0.1546 J-0.0502 F10
G1 X3.3035 Y5.2722
G1 X3.3233 Y5.333
G1 X3.2687 Y5.3727
G2 X3.2035 Y5.4802 I0.0955 J0.1315
G2 X3.1871 Y5.4906 I0.0792 J0.1419
G1 X3.1324 Y5.5303
G1 X3.0778 Y5.4906
G2 X3.0615 Y5.4802 I-0.0955 J0.1315
G2 X2.9963 Y5.3727 I-0.1607 J0.024
G1 X2.9416 Y5.333
G1 X2.9609 Y5.2736
G1 X2.9778 Y5.3257
G1 X3.0254 Y5.3103 F10
G2 X3.2399 Y5.3088 I0.107 J-0.0347 F10
G1 X3.2699 Y5.2116
G1 X3.3447 Y5.2116
G2 X3.3445 Y5.2186 I0.1123 J0.0071
G2 X3.35 Y5.2534 I0.1125 J0
G1 X3.382 Y5.3521
G1 X3.298 Y5.4132
G2 X3.2517 Y5.5042 I0.0661 J0.091
G2 X3.2521 Y5.5138 I0.1125 J0
G2 X3.2165 Y5.531 I0.0305 J0.1083
G1 X3.1324 Y5.5921
G1 X3.0484 Y5.5311
G2 X3.0128 Y5.5138 I-0.0661 J0.091
G2 X3.0132 Y5.5042 I-0.1121 J-0.0096
G2 X2.9669 Y5.4132 I-0.1125 J0
G1 X2.8829 Y5.3521
G1 X2.9149 Y5.2534
G2 X2.9204 Y5.2186 I-0.107 J-0.0347
G2 X2.9202 Y5.2116 I-0.1125 J0
G1 X2.9934 Y5.2116
G1 X3.0254 Y5.3103
G0 Z0.25
G0 X2.5431 Y6.6034
G1 Z-0.05 F30
G2 X2.8131 Y6.5364 I0.1147 J-0.1151 F10
G1 X2.829 Y6.4848
G1 X2.8486 Y6.5451
G1 X2.7941 Y6.5848
G2 X2.7286 Y6.694 I0.0955 J0.1315
G2 X2.7124 Y6.7044 I0.0793 J0.1418
G1 X2.6578 Y6.744
G1 X2.6032 Y6.7044
G2 X2.5871 Y6.6941 I-0.0955 J0.1315
G2 X2.5431 Y6.6034 I-0.161 J0.0222
G2 X2.5409 Y6.6012 I-0.1169 J0.1129
G2 X2.5431 Y6.6034 I0.1169 J-0.1129
G1 X2.4923 Y6.6252 F10
G1 X2.4083 Y6.5642 F10
G1 X2.4403 Y6.4655
G2 X2.4458 Y6.4307 I-0.107 J-0.0347
G2 X2.4457 Y6.4244 I-0.1125 J0
G1 X2.5188 Y6.4244
G1 X2.5508 Y6.5231
G2 X2.7653 Y6.5216 I0.107 J-0.0347
G1 X2.7954 Y6.4244
G1 X2.87 Y6.4244
G2 X2.8698 Y6.4307 I0.1123 J0.0064
G2 X2.8753 Y6.4655 I0.1125 J0
G1 X2.9074 Y6.5642
G1 X2.8235 Y6.6252
G2 X2.7771 Y6.7162 I0.0661 J0.091
G2 X2.7777 Y6.7275 I0.1125 J0
G2 X2.7418 Y6.7448 I0.0303 J0.1084
G1 X2.6578 Y6.8058
G1 X2.5738 Y6.7448
G2 X2.5381 Y6.7275 I-0.0661 J0.091
G2 X2.5387 Y6.7162 I-0.1119 J-0.0113
G2 X2.4923 Y6.6252 I-0.1125 J0
G0 Z0.25
G0 X2.0684 Y6.199
G1 Z-0.05 F30
G2 X2.2981 Y6.199 I0.1148 J-0.115 F10
G2 X2.2541 Y6.2888 I0.1169 J0.1129
G2 X2.2378 Y6.2993 I0.0792 J0.1419
G1 X2.1832 Y6.3389
G1 X2.1286 Y6.2993
G2 X2.1123 Y6.2888 I-0.0955 J0.1315
G2 X2.0684 Y6.199 I-0.1609 J0.023
G2 X2.0663 Y6.1969 I-0.1169 J0.1129
G2 X2.0684 Y6.199 I0.1169 J-0.1129
G0 Z0.25
G0 X2.3002 Y6.1969
G1 Z-0.05 F30
G2 X2.3385 Y6.1321 I-0.1169 J-0.1129 F10
G1 X2.3544 Y6.0805
G1 X2.3741 Y6.1408
G1 X2.3195 Y6.1804
G2 X2.3002 Y6.1969 I0.0955 J0.1315
G0 Z0.25
G0 X2.3489 Y6.2209
G1 Z-0.05 F30
G2 X2.3025 Y6.3119 I0.0661 J0.091 F10
G2 X2.303 Y6.3224 I0.1125 J0
G2 X2.2672 Y6.3397 I0.0303 J0.1083
G1 X2.1832 Y6.4007
G1 X2.0993 Y6.3397
G2 X2.0635 Y6.3224 I-0.0661 J0.091
G2 X2.064 Y6.3119 I-0.112 J-0.0105
G2 X2.0176 Y6.2209 I-0.1125 J0
G1 X1.9336 Y6.1599
G1 X1.9657 Y6.0612
G2 X1.9713 Y6.0264 I-0.107 J-0.0348
G2 X1.9711 Y6.0201 I-0.1125 J0
G1 X2.0442 Y6.0201
G1 X2.0762 Y6.1188
G2 X2.2907 Y6.1173 I0.107 J-0.0347
G1 X2.3208 Y6.0201
G1 X2.3954 Y6.0201
G2 X2.3952 Y6.0264 I0.1123 J0.0062
G2 X2.4007 Y6.0612 I0.1125 J0
G1 X2.4328 Y6.1599
G1 X2.3489 Y6.2209
G0 Z0.25
G0 X2.0287 Y5.3257
G1 Z-0.05 F30
G2 X2.3385 Y5.3235 I0.1546 J-0.0502 F10
G1 X2.3543 Y5.2724
G1 X2.3741 Y5.3331
G1 X2.3195 Y5.3727
G2 X2.2543 Y5.4801 I0.0955 J0.1315
G2 X2.2378 Y5.4906 I0.079 J0.142
G1 X2.1832 Y5.5303
G1 X2.1286 Y5.4906
G2 X2.1122 Y5.4801 I-0.0955 J0.1315
G2 X2.047 Y5.3727 I-0.1607 J0.0241
G1 X1.9924 Y5.3331
G1 X2.0118 Y5.2736
G1 X2.0287 Y5.3257
G1 X2.0762 Y5.3103 F10
G2 X2.2907 Y5.3088 I0.107 J-0.0347 F10
G1 X2.3208 Y5.2116
G1 X2.3954 Y5.2116
G2 X2.3952 Y5.2186 I0.1123 J0.0071
G2 X2.4007 Y5.2534 I0.1125 J0
G1 X2.4328 Y5.3521
G1 X2.3489 Y5.4132
G2 X2.3025 Y5.5042 I0.0661 J0.091
G2 X2.3029 Y5.5138 I0.1125 J0
G2 X2.2672 Y5.5311 I0.0304 J0.1083
G1 X2.1832 Y5.5921
G1 X2.0993 Y5.5311
G2 X2.0636 Y5.5138 I-0.0661 J0.091
G2 X2.064 Y5.5042 I-0.1121 J-0.0096
G2 X2.0176 Y5.4132 I-0.1125 J0
G1 X1.9336 Y5.3521
G1 X1.9657 Y5.2534
G2 X1.9713 Y5.2186 I-0.107 J-0.0348
G2 X1.971 Y5.2116 I-0.1125 J0
G1 X2.0442 Y5.2116
G1 X2.0762 Y5.3103
G0 Z0.25
G0 X4.8763 Y5.3257
G1 Z-0.05 F30
G2 X5.1861 Y5.3235 I0.1546 J-0.0502 F10
G1 X5.202 Y5.2722
G1 X5.2217 Y5.333
G1 X5.1671 Y5.3727
G2 X5.1019 Y5.4802 I0.0955 J0.1315
G2 X5.0856 Y5.4906 I0.0792 J0.1419
G1 X5.0309 Y5.5303
G1 X4.9763 Y5.4906
G2 X4.9599 Y5.4802 I-0.0955 J0.1315
G2 X4.8947 Y5.3727 I-0.1607 J0.024
G1 X4.8401 Y5.333
G1 X4.8594 Y5.2736
G1 X4.8763 Y5.3257
G1 X4.9238 Y5.3103 F10
G2 X5.1383 Y5.3088 I0.107 J-0.0347 F10
G1 X5.1684 Y5.2116
G1 X5.2431 Y5.2116
G2 X5.2429 Y5.2186 I0.1123 J0.0071
G2 X5.2484 Y5.2534 I0.1125 J0
G1 X5.2805 Y5.3521
G1 X5.1965 Y5.4132
G2 X5.1501 Y5.5042 I0.0661 J0.091
G2 X5.1505 Y5.5138 I0.1125 J0
G2 X5.115 Y5.531 I0.0305 J0.1083
G1 X5.0309 Y5.5921
G1 X4.9469 Y5.5311
G2 X4.9113 Y5.5138 I-0.0661 J0.091
G2 X4.9117 Y5.5042 I-0.1121 J-0.0096
G2 X4.8653 Y5.4132 I-0.1125 J0
G1 X4.7813 Y5.3521
G1 X4.8134 Y5.2534
G2 X4.8189 Y5.2186 I-0.107 J-0.0347
G2 X4.8186 Y5.2116 I-0.1125 J0
G1 X4.8918 Y5.2116
G1 X4.9238 Y5.3103
G0 Z0.25
G0 X2.5446 Y4.1792
G1 Z-0.05 F30
G2 X2.7727 Y4.1776 I0.1132 J-0.1166 F10
G2 X2.7287 Y4.2673 I0.1169 J0.1129
G2 X2.7124 Y4.2777 I0.0792 J0.1419
G1 X2.6578 Y4.3174
G1 X2.6032 Y4.2777
G2 X2.587 Y4.2673 I-0.0955 J0.1315
G2 X2.5446 Y4.1792 I-0.1609 J0.0231
G2 X2.5393 Y4.1738 I-0.1185 J0.1112
G2 X2.5446 Y4.1792 I0.1185 J-0.1112
G0 Z0.25
G0 X2.7747 Y4.1755
G1 Z-0.05 F30
G2 X2.8131 Y4.1106 I-0.1169 J-0.1129 F10
G1 X2.829 Y4.059
G1 X2.8486 Y4.1193
G1 X2.7941 Y4.159
G2 X2.7747 Y4.1755 I0.0955 J0.1315
G0 Z0.25
G0 X2.8235 Y4.1994
G1 Z-0.05 F30
G2 X2.7771 Y4.2904 I0.0661 J0.091 F10
G2 X2.7776 Y4.3008 I0.1125 J0
G2 X2.7418 Y4.3182 I0.0303 J0.1083
G1 X2.6578 Y4.3792
G1 X2.5738 Y4.3182
G2 X2.5382 Y4.3009 I-0.0661 J0.091
G2 X2.5387 Y4.2904 I-0.112 J-0.0104
G2 X2.4923 Y4.1994 I-0.1125 J0
G1 X2.4083 Y4.1384
G1 X2.4403 Y4.0396
G2 X2.4458 Y4.0049 I-0.107 J-0.0347
G2 X2.4457 Y3.9986 I-0.1125 J0
G1 X2.5188 Y3.9986
G1 X2.5508 Y4.0973
G2 X2.7653 Y4.0958 I0.107 J-0.0347
G1 X2.7954 Y3.9986
G1 X2.87 Y3.9986
G2 X2.8698 Y4.0049 I0.1123 J0.0062
G2 X2.8753 Y4.0397 I0.1125 J0
G1 X2.9074 Y4.1384
G1 X2.8235 Y4.1994
G0 Z0.25
G0 X2.0684 Y4.5818
G1 Z-0.05 F30
G2 X2.2981 Y4.5818 I0.1148 J-0.115 F10
G2 X2.2541 Y4.6716 I0.1169 J0.1129
G2 X2.2378 Y4.6821 I0.0792 J0.1419
G1 X2.1832 Y4.7217
G1 X2.1286 Y4.6821
G2 X2.1123 Y4.6716 I-0.0955 J0.1315
G2 X2.0684 Y4.5818 I-0.1609 J0.023
G2 X2.0663 Y4.5797 I-0.1169 J0.1129
G2 X2.0684 Y4.5818 I0.1169 J-0.1129
G0 Z0.25
G0 X2.3002 Y4.5797
G1 Z-0.05 F30
G2 X2.3385 Y4.5149 I-0.1169 J-0.1129 F10
G1 X2.3544 Y4.4633
G1 X2.3741 Y4.5236
G1 X2.3195 Y4.5632
G2 X2.3002 Y4.5797 I0.0955 J0.1315
G0 Z0.25
G0 X2.3489 Y4.6037
G1 Z-0.05 F30
G2 X2.3025 Y4.6947 I0.0661 J0.091 F10
G2 X2.303 Y4.7052 I0.1125 J0
G2 X2.2672 Y4.7225 I0.0303 J0.1083
G1 X2.1832 Y4.7835
G1 X2.0993 Y4.7225
G2 X2.0635 Y4.7052 I-0.0661 J0.091
G2 X2.064 Y4.6947 I-0.112 J-0.0105
G2 X2.0176 Y4.6037 I-0.1125 J0
G1 X1.9336 Y4.5427
G1 X1.9657 Y4.444
G2 X1.9713 Y4.4092 I-0.107 J-0.0348
G2 X1.9711 Y4.4029 I-0.1125 J0
G1 X2.0442 Y4.4029
G1 X2.0762 Y4.5016
G2 X2.2907 Y4.5001 I0.107 J-0.0347
G1 X2.3208 Y4.4029
G1 X2.3954 Y4.4029
G2 X2.3952 Y4.4092 I0.1123 J0.0062
G2 X2.4007 Y4.444 I0.1125 J0
G1 X2.4328 Y4.5427
G1 X2.3489 Y4.6037
G0 Z0.25
G0 X2.5431 Y4.9862
G1 Z-0.05 F30
G2 X2.8131 Y4.9192 I0.1147 J-0.1151 F10
G1 X2.829 Y4.8676
G1 X2.8486 Y4.928
G1 X2.7941 Y4.9676
G2 X2.7286 Y5.0768 I0.0955 J0.1315
G2 X2.7124 Y5.0872 I0.0793 J0.1418
G1 X2.6578 Y5.1268
G1 X2.6032 Y5.0872
G2 X2.5871 Y5.0769 I-0.0955 J0.1315
G2 X2.5431 Y4.9862 I-0.161 J0.0222
G2 X2.5409 Y4.984 I-0.1169 J0.1129
G2 X2.5431 Y4.9862 I0.1169 J-0.1129
G1 X2.4923 Y5.008 F10
G1 X2.4083 Y4.947 F10
G1 X2.4403 Y4.8483
G2 X2.4458 Y4.8135 I-0.107 J-0.0347
G2 X2.4457 Y4.8072 I-0.1125 J0
G1 X2.5188 Y4.8072
G1 X2.5508 Y4.9059
G2 X2.7653 Y4.9044 I0.107 J-0.0347
G1 X2.7954 Y4.8072
G1 X2.87 Y4.8072
G2 X2.8698 Y4.8135 I0.1123 J0.0064
G2 X2.8753 Y4.8483 I0.1125 J0
G1 X2.9074 Y4.947
G1 X2.8235 Y5.008
G2 X2.7771 Y5.0991 I0.0661 J0.091
G2 X2.7777 Y5.1103 I0.1125 J0
G2 X2.7418 Y5.1276 I0.0303 J0.1084
G1 X2.6578 Y5.1886
G1 X2.5738 Y5.1276
G2 X2.5381 Y5.1103 I-0.0661 J0.091
G2 X2.5387 Y5.0991 I-0.1119 J-0.0113
G2 X2.4923 Y5.008 I-0.1125 J0
G0 Z0.25
G0 X1.0794 Y5.3257
G1 Z-0.05 F30
G2 X1.3892 Y5.3235 I0.1546 J-0.0502 F10
G1 X1.4051 Y5.2722
G1 X1.4248 Y5.333
G1 X1.3702 Y5.3727
G2 X1.305 Y5.4802 I0.0955 J0.1315
G2 X1.2887 Y5.4906 I0.0792 J0.1419
G1 X1.234 Y5.5303
G1 X1.1793 Y5.4906
G2 X1.163 Y5.4802 I-0.0955 J0.1315
G2 X1.0978 Y5.3727 I-0.1607 J0.024
G1 X1.0432 Y5.333
G1 X1.0625 Y5.2736
G1 X1.0794 Y5.3257
G1 X1.127 Y5.3103 F10
G2 X1.3414 Y5.3088 I0.107 J-0.0347 F10
G1 X1.3715 Y5.2116
G1 X1.4463 Y5.2116
G2 X1.446 Y5.2186 I0.1123 J0.0071
G2 X1.4515 Y5.2534 I0.1125 J0
G1 X1.4836 Y5.3521
G1 X1.3996 Y5.4132
G2 X1.3532 Y5.5042 I0.0661 J0.091
G2 X1.3536 Y5.5138 I0.1125 J0
G2 X1.318 Y5.5311 I0.0305 J0.1083
G1 X1.234 Y5.5921
G1 X1.15 Y5.531
G2 X1.1144 Y5.5138 I-0.0661 J0.091
G2 X1.1148 Y5.5042 I-0.1121 J-0.0096
G2 X1.0684 Y5.4132 I-0.1125 J0
G1 X0.9844 Y5.3521
G1 X1.0165 Y5.2534
G2 X1.022 Y5.2186 I-0.107 J-0.0347
G2 X1.0218 Y5.2116 I-0.1125 J0
G1 X1.0949 Y5.2116
G1 X1.127 Y5.3103
G0 Z0.25
G0 X3.9668 Y6.199
G1 Z-0.05 F30
G2 X4.1965 Y6.199 I0.1148 J-0.115 F10
G2 X4.1526 Y6.2888 I0.1169 J0.1129
G2 X4.1363 Y6.2993 I0.0792 J0.1419
G1 X4.0817 Y6.3389
G1 X4.0271 Y6.2993
G2 X4.0108 Y6.2888 I-0.0955 J0.1315
G2 X3.9668 Y6.199 I-0.1609 J0.023
G2 X3.9648 Y6.1969 I-0.1169 J0.1129
G2 X3.9668 Y6.199 I0.1169 J-0.1129
G0 Z0.25
G0 X4.1986 Y6.1969
G1 Z-0.05 F30
G2 X4.2369 Y6.1321 I-0.1169 J-0.1129 F10
G1 X4.2529 Y6.0805
G1 X4.2725 Y6.1408
G1 X4.2179 Y6.1804
G2 X4.1986 Y6.1969 I0.0955 J0.1315
G0 Z0.25
G0 X4.2473 Y6.2209
G1 Z-0.05 F30
G2 X4.2009 Y6.3119 I0.0661 J0.091 F10
G2 X4.2014 Y6.3224 I0.1125 J0
G2 X4.1656 Y6.3397 I0.0303 J0.1083
G1 X4.0817 Y6.4007
G1 X3.9977 Y6.3397
G2 X3.9619 Y6.3224 I-0.0661 J0.091
G2 X3.9624 Y6.3119 I-0.112 J-0.0105
G2 X3.916 Y6.2209 I-0.1125 J0
G1 X3.8321 Y6.1599
G1 X3.8642 Y6.0612
G2 X3.8697 Y6.0264 I-0.107 J-0.0348
G2 X3.8695 Y6.0201 I-0.1125 J0
G1 X3.9426 Y6.0201
G1 X3.9747 Y6.1188
G2 X4.1891 Y6.1173 I0.107 J-0.0347
G1 X4.2192 Y6.0201
G1 X4.2938 Y6.0201
G2 X4.2937 Y6.0264 I0.1123 J0.0062
G2 X4.2992 Y6.0612 I0.1125 J0
G1 X4.3313 Y6.1599
G1 X4.2473 Y6.2209
G0 Z0.25
G0 X3.0192 Y4.5835
G1 Z-0.05 F30
G2 X3.2473 Y4.5818 I0.1132 J-0.1166 F10
G2 X3.2033 Y4.6717 I0.1169 J0.1129
G2 X3.1871 Y4.682 I0.0793 J0.1418
G1 X3.1324 Y4.7218
G1 X3.0778 Y4.6821
G2 X3.0616 Y4.6717 I-0.0955 J0.1315
G2 X3.0192 Y4.5835 I-0.1609 J0.023
G2 X3.0139 Y4.5781 I-0.1185 J0.1112
G2 X3.0192 Y4.5835 I0.1185 J-0.1112
G0 Z0.25
G0 X3.2493 Y4.5797
G1 Z-0.05 F30
G2 X3.2876 Y4.5149 I-0.1169 J-0.1129 F10
G1 X3.3037 Y4.4631
G1 X3.3233 Y4.5235
G1 X3.2687 Y4.5632
G2 X3.2493 Y4.5797 I0.0955 J0.1315
G0 Z0.25
G0 X3.298 Y4.6037
G1 Z-0.05 F30
G2 X3.2517 Y4.6947 I0.0661 J0.091 F10
G2 X3.2522 Y4.7052 I0.1125 J0
G2 X3.2165 Y4.7225 I0.0304 J0.1083
G1 X3.1324 Y4.7836
G1 X3.0484 Y4.7225
G2 X3.0127 Y4.7052 I-0.0661 J0.091
G2 X3.0132 Y4.6947 I-0.112 J-0.0106
G2 X2.9669 Y4.6037 I-0.1125 J0
G1 X2.8829 Y4.5426
G1 X2.9149 Y4.4439
G2 X2.9204 Y4.4092 I-0.107 J-0.0347
G2 X2.9202 Y4.4029 I-0.1125 J0
G1 X2.9934 Y4.4029
G1 X3.0254 Y4.5016
G2 X3.2399 Y4.5001 I0.107 J-0.0347
G1 X3.2699 Y4.4029
G1 X3.3447 Y4.4029
G2 X3.3445 Y4.4092 I0.1123 J0.0062
G2 X3.35 Y4.4439 I0.1125 J0
G1 X3.382 Y4.5426
G1 X3.298 Y4.6037
G0 Z0.25
G0 X3.9271 Y5.3257
G1 Z-0.05 F30
G2 X4.2369 Y5.3235 I0.1546 J-0.0502 F10
G1 X4.2527 Y5.2724
G1 X4.2725 Y5.3331
G1 X4.2179 Y5.3727
G2 X4.1527 Y5.4801 I0.0955 J0.1315
G2 X4.1363 Y5.4906 I0.079 J0.142
G1 X4.0817 Y5.5303
G1 X4.0271 Y5.4906
G2 X4.0106 Y5.4801 I-0.0955 J0.1315
G2 X3.9454 Y5.3727 I-0.1607 J0.0241
G1 X3.8909 Y5.3331
G1 X3.9102 Y5.2736
G1 X3.9271 Y5.3257
G1 X3.9747 Y5.3103 F10
G2 X4.1891 Y5.3088 I0.107 J-0.0347 F10
G1 X4.2192 Y5.2116
G1 X4.2939 Y5.2116
G2 X4.2937 Y5.2186 I0.1123 J0.0071
G2 X4.2992 Y5.2534 I0.1125 J0
G1 X4.3313 Y5.3521
G1 X4.2473 Y5.4132
G2 X4.2009 Y5.5042 I0.0661 J0.091
G2 X4.2014 Y5.5138 I0.1125 J0
G2 X4.1656 Y5.5311 I0.0304 J0.1083
G1 X4.0817 Y5.5921
G1 X3.9977 Y5.5311
G2 X3.962 Y5.5138 I-0.0661 J0.091
G2 X3.9624 Y5.5042 I-0.1121 J-0.0096
G2 X3.916 Y5.4132 I-0.1125 J0
G1 X3.8321 Y5.3521
G1 X3.8642 Y5.2534
G2 X3.8697 Y5.2186 I-0.107 J-0.0348
G2 X3.8695 Y5.2116 I-0.1125 J0
G1 X3.9426 Y5.2116
G1 X3.9747 Y5.3103
G0 Z0.25
G0 X3.0192 Y6.2007
G1 Z-0.05 F30
G2 X3.2473 Y6.199 I0.1132 J-0.1166 F10
G2 X3.2033 Y6.2889 I0.1169 J0.1129
G2 X3.1871 Y6.2992 I0.0793 J0.1418
G1 X3.1324 Y6.339
G1 X3.0778 Y6.2993
G2 X3.0616 Y6.2889 I-0.0955 J0.1315
G2 X3.0192 Y6.2007 I-0.1609 J0.023
G2 X3.0139 Y6.1953 I-0.1185 J0.1112
G2 X3.0192 Y6.2007 I0.1185 J-0.1112
G0 Z0.25
G0 X3.2493 Y6.1969
G1 Z-0.05 F30
G2 X3.2876 Y6.1321 I-0.1169 J-0.1129 F10
G1 X3.3037 Y6.0803
G1 X3.3233 Y6.1407
G1 X3.2687 Y6.1804
G2 X3.2493 Y6.1969 I0.0955 J0.1315
G0 Z0.25
G0 X3.298 Y6.2209
G1 Z-0.05 F30
G2 X3.2517 Y6.3119 I0.0661 J0.091 F10
G2 X3.2522 Y6.3224 I0.1125 J0
G2 X3.2165 Y6.3397 I0.0304 J0.1083
G1 X3.1324 Y6.4007
G1 X3.0484 Y6.3397
G2 X3.0127 Y6.3224 I-0.0661 J0.091
G2 X3.0132 Y6.3119 I-0.112 J-0.0106
G2 X2.9669 Y6.2209 I-0.1125 J0
G1 X2.8829 Y6.1598
G1 X2.9149 Y6.0611
G2 X2.9204 Y6.0264 I-0.107 J-0.0347
G2 X2.9202 Y6.0201 I-0.1125 J0
G1 X2.9934 Y6.0201
G1 X3.0254 Y6.1188
G2 X3.2399 Y6.1173 I0.107 J-0.0347
G1 X3.2699 Y6.0201
G1 X3.3447 Y6.0201
G2 X3.3445 Y6.0264 I0.1123 J0.0062
G2 X3.35 Y6.0611 I0.1125 J0
G1 X3.382 Y6.1598
G1 X3.298 Y6.2209
G0 Z0.25
G0 X5.7739 Y7.2674
G1 Z-0.05 F30
G1 X5.6327 Y7.2674 F10
G1 X5.643 Y7.2339
G1 X5.7483 Y7.2339
G2 X5.7739 Y7.2309 I0 J-0.1125
G1 X5.7739 Y7.2674
G0 Z0.25
G0 X0.6312 Y7.2674
G1 Z-0.05 F30
G1 X0.491 Y7.2674 F10
G1 X0.491 Y7.2309
G2 X0.5166 Y7.2339 I0.0255 J-0.1096
G1 X0.6203 Y7.2339
G1 X0.6312 Y7.2674
G0 Z0.25
G0 X0.491 Y3.7656
G1 Z-0.05 F30
G1 X0.491 Y3.6486 F10
G1 X0.5066 Y3.6486
G1 X0.5344 Y3.7341
G1 X0.491 Y3.7656
G0 Z0.25
G0 X5.7739 Y3.6486
G1 Z-0.05 F30
G1 X5.7739 Y3.7656 F10
G1 X5.7305 Y3.7341
G1 X5.7583 Y3.6486
G1 X5.7739 Y3.6486
G0 Z0.25
G0 X5.7151 Y3.62
G1 Z-0.05 F30
G2 X5.7181 Y3.6006 I-0.0594 J-0.0193 F10
G2 X5.7181 Y3.5986 I-0.0625 J0
G1 X5.8239 Y3.5986
G1 X5.8239 Y7.3174
G1 X5.5649 Y7.3174
G2 X5.5652 Y7.3163 I-0.0594 J-0.0195
G1 X5.6061 Y7.1839
G1 X5.7483 Y7.1839
G2 X5.8108 Y7.1214 I0 J-0.0625
G2 X5.7851 Y7.0708 I-0.0625 J0
G1 X5.6717 Y6.9884
G1 X5.7151 Y6.8552
G2 X5.7181 Y6.8358 I-0.0594 J-0.0193
G2 X5.6189 Y6.7853 I-0.0625 J0
G1 X5.5055 Y6.8676
G1 X5.3922 Y6.7853
G2 X5.2929 Y6.8358 I-0.0367 J0.0506
G2 X5.296 Y6.8551 I0.0625 J0
G1 X5.3393 Y6.9884
G1 X5.2259 Y7.0708
G2 X5.2001 Y7.1214 I0.0367 J0.0506
G2 X5.2626 Y7.1839 I0.0625 J0
G1 X5.4027 Y7.1839
G1 X5.4461 Y7.3172
G1 X5.4461 Y7.3174
G1 X4.6156 Y7.3174
G2 X4.616 Y7.3164 I-0.0594 J-0.0195
G1 X4.6569 Y7.1839
G1 X4.7992 Y7.1839
G2 X4.8617 Y7.1214 I0 J-0.0625
G2 X4.8359 Y7.0708 I-0.0625 J0
G1 X4.7225 Y6.9884
G1 X4.7658 Y6.8551
G2 X4.7689 Y6.8358 I-0.0594 J-0.0193
G2 X4.6696 Y6.7853 I-0.0625 J0
G1 X4.5563 Y6.8676
G1 X4.4429 Y6.7853
G2 X4.3437 Y6.8358 I-0.0367 J0.0506
G2 X4.3467 Y6.8552 I0.0625 J0
G1 X4.3901 Y6.9884
G1 X4.2767 Y7.0708
G2 X4.2509 Y7.1214 I0.0367 J0.0506
G2 X4.3134 Y7.1839 I0.0625 J0
G1 X4.4535 Y7.1839
G1 X4.4968 Y7.3172
G1 X4.4969 Y7.3174
G1 X3.6665 Y7.3174
G2 X3.6668 Y7.3163 I-0.0594 J-0.0195
G1 X3.7077 Y7.1839
G1 X3.8499 Y7.1839
G2 X3.9124 Y7.1214 I0 J-0.0625
G2 X3.8866 Y7.0708 I-0.0625 J0
G1 X3.7733 Y6.9884
G1 X3.8166 Y6.8552
G2 X3.8197 Y6.8358 I-0.0594 J-0.0193
G2 X3.7205 Y6.7853 I-0.0625 J0
G1 X3.6071 Y6.8676
G1 X3.4937 Y6.7853
G2 X3.3945 Y6.8358 I-0.0367 J0.0506
G2 X3.3975 Y6.8551 I0.0625 J0
G1 X3.4408 Y6.9884
G1 X3.3274 Y7.0708
G2 X3.3017 Y7.1214 I0.0367 J0.0506
G2 X3.3642 Y7.1839 I0.0625 J0
G1 X3.5043 Y7.1839
G1 X3.5477 Y7.3172
G1 X3.5477 Y7.3174
G1 X2.7172 Y7.3174
G2 X2.7175 Y7.3164 I-0.0594 J-0.0195
G1 X2.7585 Y7.1839
G1 X2.9007 Y7.1839
G2 X2.9632 Y7.1214 I0 J-0.0625
G2 X2.9375 Y7.0708 I-0.0625 J0
G1 X2.8241 Y6.9884
G1 X2.8674 Y6.8551
G2 X2.8704 Y6.8358 I-0.0594 J-0.0193
G2 X2.7712 Y6.7853 I-0.0625 J0
G1 X2.6578 Y6.8676
G1 X2.5445 Y6.7853
G2 X2.4452 Y6.8358 I-0.0367 J0.0506
G2 X2.4483 Y6.8552 I0.0625 J0
G1 X2.4916 Y6.9884
G1 X2.3783 Y7.0708
G2 X2.3525 Y7.1214 I0.0367 J0.0506
G2 X2.415 Y7.1839 I0.0625 J0
G1 X2.5551 Y7.1839
G1 X2.5984 Y7.3172
G1 X2.5984 Y7.3174
G1 X1.768 Y7.3174
G2 X1.7684 Y7.3163 I-0.0594 J-0.0195
G1 X1.8093 Y7.1839
G1 X1.9515 Y7.1839
G2 X2.014 Y7.1214 I0 J-0.0625
G2 X1.9882 Y7.0708 I-0.0625 J0
G1 X1.8748 Y6.9884
G1 X1.9182 Y6.8552
G2 X1.9213 Y6.8358 I-0.0594 J-0.0193
G2 X1.822 Y6.7853 I-0.0625 J0
G1 X1.7087 Y6.8676
G1 X1.5953 Y6.7853
G2 X1.496 Y6.8358 I-0.0367 J0.0506
G2 X1.4991 Y6.8551 I0.0625 J0
G1 X1.5424 Y6.9884
G1 X1.429 Y7.0708
G2 X1.4032 Y7.1214 I0.0367 J0.0506
G2 X1.4657 Y7.1839 I0.0625 J0
G1 X1.6059 Y7.1839
G1 X1.6492 Y7.3172
G1 X1.6493 Y7.3174
G1 X0.8188 Y7.3174
G2 X0.8191 Y7.3164 I-0.0594 J-0.0195
G1 X0.8601 Y7.1839
G1 X1.0023 Y7.1839
G2 X1.0648 Y7.1214 I0 J-0.0625
G2 X1.039 Y7.0708 I-0.0625 J0
G1 X0.9257 Y6.9884
G1 X0.9689 Y6.8551
G2 X0.972 Y6.8358 I-0.0594 J-0.0193
G2 X0.8727 Y6.7853 I-0.0625 J0
G1 X0.7594 Y6.8676
G1 X0.646 Y6.7853
G2 X0.5468 Y6.8358 I-0.0367 J0.0506
G2 X0.5498 Y6.8552 I0.0625 J0
G1 X0.5932 Y6.9884
G1 X0.4798 Y7.0708
G2 X0.4541 Y7.1214 I0.0367 J0.0506
G2 X0.5166 Y7.1839 I0.0625 J0
G1 X0.6567 Y7.1839
G1 X0.6999 Y7.3172
G1 X0.7 Y7.3174
G1 X0.441 Y7.3174
G1 X0.441 Y3.5986
G1 X0.5468 Y3.5986
G2 X0.5468 Y3.6006 I0.0625 J0.002
G2 X0.5498 Y3.62 I0.0625 J0
G1 X0.5932 Y3.7532
G1 X0.4798 Y3.8356
G2 X0.4541 Y3.8861 I0.0367 J0.0506
G2 X0.5166 Y3.9486 I0.0625 J0
G1 X0.6567 Y3.9486
G1 X0.6999 Y4.0819
G2 X0.8191 Y4.0811 I0.0594 J-0.0193
G1 X0.8601 Y3.9486
G1 X1.0023 Y3.9486
G2 X1.0648 Y3.8861 I0 J-0.0625
G2 X1.039 Y3.8356 I-0.0625 J0
G1 X0.9257 Y3.7532
G1 X0.9689 Y3.6199
G2 X0.972 Y3.6006 I-0.0594 J-0.0193
G2 X0.972 Y3.5986 I-0.0625 J0
G1 X1.4961 Y3.5986
G2 X1.496 Y3.6006 I0.0625 J0.002
G2 X1.4991 Y3.6199 I0.0625 J0
G1 X1.5424 Y3.7532
G1 X1.429 Y3.8356
G2 X1.4032 Y3.8861 I0.0367 J0.0506
G2 X1.4657 Y3.9486 I0.0625 J0
G1 X1.6059 Y3.9486
G1 X1.6492 Y4.0819
G2 X1.7684 Y4.081 I0.0594 J-0.0193
G1 X1.8092 Y3.9486
G1 X1.9515 Y3.9486
G2 X2.014 Y3.8861 I0 J-0.0625
G2 X1.9882 Y3.8356 I-0.0625 J0
G1 X1.8748 Y3.7532
G1 X1.9182 Y3.62
G2 X1.9213 Y3.6006 I-0.0594 J-0.0193
G2 X1.9212 Y3.5986 I-0.0625 J0
G1 X2.4452 Y3.5986
G2 X2.4452 Y3.6006 I0.0625 J0.002
G2 X2.4483 Y3.62 I0.0625 J0
G1 X2.4916 Y3.7532
G1 X2.3783 Y3.8356
G2 X2.3525 Y3.8861 I0.0367 J0.0506
G2 X2.415 Y3.9486 I0.0625 J0
G1 X2.5551 Y3.9486
G1 X2.5984 Y4.0819
G2 X2.7175 Y4.0811 I0.0594 J-0.0193
G1 X2.7585 Y3.9486
G1 X2.9007 Y3.9486
G2 X2.9632 Y3.8861 I0 J-0.0625
G2 X2.9375 Y3.8356 I-0.0625 J0
G1 X2.8241 Y3.7532
G1 X2.8674 Y3.6199
G2 X2.8704 Y3.6006 I-0.0594 J-0.0193
G2 X2.8704 Y3.5986 I-0.0625 J0
G1 X3.3945 Y3.5986
G2 X3.3945 Y3.6006 I0.0625 J0.002
G2 X3.3975 Y3.6199 I0.0625 J0
G1 X3.4408 Y3.7532
G1 X3.3274 Y3.8356
G2 X3.3017 Y3.8861 I0.0367 J0.0506
G2 X3.3642 Y3.9486 I0.0625 J0
G1 X3.5043 Y3.9486
G1 X3.5477 Y4.0819
G2 X3.6668 Y4.081 I0.0594 J-0.0193
G1 X3.7077 Y3.9486
G1 X3.8499 Y3.9486
G2 X3.9124 Y3.8861 I0 J-0.0625
G2 X3.8866 Y3.8356 I-0.0625 J0
G1 X3.7733 Y3.7532
G1 X3.8166 Y3.62
G2 X3.8197 Y3.6006 I-0.0594 J-0.0193
G2 X3.8197 Y3.5986 I-0.0625 J0
G1 X4.3437 Y3.5986
G2 X4.3437 Y3.6006 I0.0625 J0.002
G2 X4.3467 Y3.62 I0.0625 J0
G1 X4.3901 Y3.7532
G1 X4.2767 Y3.8356
G2 X4.2509 Y3.8861 I0.0367 J0.0506
G2 X4.3134 Y3.9486 I0.0625 J0
G1 X4.4535 Y3.9486
G1 X4.4968 Y4.0819
G2 X4.616 Y4.0811 I0.0594 J-0.0193
G1 X4.6569 Y3.9486
G1 X4.7992 Y3.9486
G2 X4.8617 Y3.8861 I0 J-0.0625
G2 X4.8359 Y3.8356 I-0.0625 J0
G1 X4.7225 Y3.7532
G1 X4.7658 Y3.6199
G2 X4.7689 Y3.6006 I-0.0594 J-0.0193
G2 X4.7688 Y3.5986 I-0.0625 J0
G1 X5.293 Y3.5986
G2 X5.2929 Y3.6006 I0.0625 J0.002
G2 X5.296 Y3.6199 I0.0625 J0
G1 X5.3393 Y3.7532
G1 X5.2259 Y3.8356
G2 X5.2001 Y3.8861 I0.0367 J0.0506
G2 X5.2626 Y3.9486 I0.0625 J0
G1 X5.4027 Y3.9486
G1 X5.4461 Y4.0819
G2 X5.5652 Y4.081 I0.0594 J-0.0193
G1 X5.6061 Y3.9486
G1 X5.7483 Y3.9486
G2 X5.8108 Y3.8861 I0 J-0.0625
G2 X5.7851 Y3.8356 I-0.0625 J0
G1 X5.6717 Y3.7532
G1 X5.7151 Y3.62
G0 Z0.25
G0 X5.459 Y3.5986
G1 Z-0.05 F30
G1 X5.552 Y3.5986 F10
G1 X5.5055 Y3.6324
G1 X5.459 Y3.5986
G0 Z0.25
G0 X3.5606 Y3.5986
G1 Z-0.05 F30
G1 X3.6536 Y3.5986 F10
G1 X3.6071 Y3.6324
G1 X3.5606 Y3.5986
G0 Z0.25
G0 X1.6622 Y3.5986
G1 Z-0.05 F30
G1 X1.7552 Y3.5986 F10
G1 X1.7087 Y3.6324
G1 X1.6622 Y3.5986
G0 Z0.25
G0 X0.7129 Y3.5986
G1 Z-0.05 F30
G1 X0.8059 Y3.5986 F10
G1 X0.7594 Y3.6324
G1 X0.7129 Y3.5986
G0 Z0.25
G0 X2.6113 Y3.5986
G1 Z-0.05 F30
G1 X2.7043 Y3.5986 F10
G1 X2.6578 Y3.6324
G1 X2.6113 Y3.5986
G0 Z0.25
G0 X4.5098 Y3.5986
G1 Z-0.05 F30
G1 X4.6028 Y3.5986 F10
G1 X4.5563 Y3.6324
G1 X4.5098 Y3.5986

(follow path 2)
G0 Z0.25
G0 X0.2848 Y0.5504
G1 Z-0.0625 F30
G1 X14.5348 Y0.5504 F10
G1 X14.5348 Y-0.0264
G1 X0.2848 Y-0.0264
G1 X0.2848 Y0.5504
G0 Z0.25
G0 X0.2848 Y1.1275
G1 Z-0.0625 F30
G1 X14.5348 Y1.1275 F10
G1 X14.5348 Y0.5508
G1 X0.2848 Y0.5508
G1 X0.2848 Y1.1275
G0 Z0.25
G0 X0.2848 Y1.7049
G1 Z-0.0625 F30
G1 X14.5348 Y1.7049 F10
G1 X14.5348 Y1.1281
G1 X0.2848 Y1.1281
G1 X0.2848 Y1.7049
G0 Z0.25
G0 X0.2848 Y2.282
G1 Z-0.0625 F30
G1 X14.5348 Y2.282 F10
G1 X14.5348 Y1.7053
G1 X0.2848 Y1.7053
G1 X0.2848 Y2.282
G0 Z0.25
G0 X0.2848 Y2.8592
G1 Z-0.0625 F30
G1 X14.5348 Y2.8592 F10
G1 X14.5348 Y2.2824
G1 X0.2848 Y2.2824
G1 X0.2848 Y2.8592
G0 Z0.25
G0 X0.2848 Y3.4363
G1 Z-0.0625 F30
G1 X14.5348 Y3.4363 F10
G1 X14.5348 Y2.8596
G1 X0.2848 Y2.8596
G1 X0.2848 Y3.4363
G0 Z0.25
G0 X5.9859 Y4.0137
G1 Z-0.0625 F30
G1 X14.5348 Y4.0137 F10
G1 X14.5348 Y3.4369
G1 X5.9859 Y3.4369
G1 X5.9859 Y4.0137
G0 Z0.25
G0 X5.9859 Y4.5908
G1 Z-0.0625 F30
G1 X14.5348 Y4.5908 F10
G1 X14.5348 Y4.0141
G1 X5.9859 Y4.0141
G1 X5.9859 Y4.5908
G0 Z0.25
G0 X5.9859 Y5.1676
G1 Z-0.0625 F30
G1 X14.5348 Y5.1676 F10
G1 X14.5348 Y4.5908
G1 X5.9859 Y4.5908
G1 X5.9859 Y5.1676
G0 Z0.25
G0 X5.9859 Y5.7447
G1 Z-0.0625 F30
G1 X14.5348 Y5.7447 F10
G1 X14.5348 Y5.168
G1 X5.9859 Y5.168
G1 X5.9859 Y5.7447
G0 Z0.25
G0 X5.9859 Y6.3221
G1 Z-0.0625 F30
G1 X14.5348 Y6.3221 F10
G1 X14.5348 Y5.7453
G1 X5.9859 Y5.7453
G1 X5.9859 Y6.3221
G0 Z0.25
G0 X5.9859 Y6.8992
G1 Z-0.0625 F30
G1 X14.5348 Y6.8992 F10
G1 X14.5348 Y6.3225
G1 X5.9859 Y6.3225
G1 X5.9859 Y6.8992
G0 Z0.25
G0 X5.9859 Y7.4764
G1 Z-0.0625 F30
G1 X14.5348 Y7.4764 F10
G1 X14.5348 Y6.8996
G1 X5.9859 Y6.8996
G1 X5.9859 Y7.4764
G0 Z0.25
G0 X0.2848 Y7.4736
G1 Z-0.0625 F30
G1 X5.9848 Y7.4736 F10
G1 X5.9848 Y3.4349
G1 X0.2848 Y3.4349
G1 X0.2848 Y7.4736

(profile 3)
G0 Z0.25
T0 M6
G0 X0.0973 Y-0.3389
G1 Z-0.15 F30
G1 X12.9877 Y-0.3389 F20
G1 X13.4877 Y-0.3389
G1 X14.7223 Y-0.3389
G3 X14.8473 Y-0.2139 I0 J0.125
G1 X14.8473 Y7.6611
G3 X14.7223 Y7.7861 I-0.125 J0
G1 X7.7382 Y7.7861
G1 X7.2382 Y7.7861
G1 X0.0973 Y7.7861
G3 X-0.0277 Y7.6611 I0 J-0.125
G1 X-0.0277 Y1.5339
G1 X-0.0277 Y1.0339
G1 X-0.0277 Y-0.2139
G3 X0.0973 Y-0.3389 I0.125 J0
G1 Z-0.3 F30
G1 X12.9877 Y-0.3389 F20
G1 X13.4877 Y-0.3389
G1 X14.7223 Y-0.3389
G3 X14.8473 Y-0.2139 I0 J0.125
G1 X14.8473 Y7.6611
G3 X14.7223 Y7.7861 I-0.125 J0
G1 X7.7382 Y7.7861
G1 X7.2382 Y7.7861
G1 X0.0973 Y7.7861
G3 X-0.0277 Y7.6611 I0 J-0.125
G1 X-0.0277 Y1.5339
G1 X-0.0277 Y1.0339
G1 X-0.0277 Y-0.2139
G3 X0.0973 Y-0.3389 I0.125 J0
G1 Z-0.45 F30
G1 X12.9877 Y-0.3389 F20
G1 X13.4877 Y-0.3389
G1 X14.7223 Y-0.3389
G3 X14.8473 Y-0.2139 I0 J0.125
G1 X14.8473 Y7.6611
G3 X14.7223 Y7.7861 I-0.125 J0
G1 X7.7382 Y7.7861
G1 X7.2382 Y7.7861
G1 X0.0973 Y7.7861
G3 X-0.0277 Y7.6611 I0 J-0.125
G1 X-0.0277 Y1.5339
G1 X-0.0277 Y1.0339
G1 X-0.0277 Y-0.2139
G3 X0.0973 Y-0.3389 I0.125 J0
G1 Z-0.6 F30
G1 X12.9877 Y-0.3389 F20
G1 X13.4877 Y-0.3389
G1 X14.7223 Y-0.3389
G3 X14.8473 Y-0.2139 I0 J0.125
G1 X14.8473 Y7.6611
G3 X14.7223 Y7.7861 I-0.125 J0
G1 X7.7382 Y7.7861
G1 X7.2382 Y7.7861
G1 X0.0973 Y7.7861
G3 X-0.0277 Y7.6611 I0 J-0.125
G1 X-0.0277 Y1.5339
G1 X-0.0277 Y1.0339
G1 X-0.0277 Y-0.2139
G3 X0.0973 Y-0.3389 I0.125 J0
G1 Z-0.75 F30
G1 X12.9877 Y-0.3389 F20
G1 Z-0.6 F30
G1 X13.4877 Y-0.3389 F20
G1 Z-0.75 F30
G1 X14.7223 Y-0.3389 F20
G3 X14.8473 Y-0.2139 I0 J0.125
G1 X14.8473 Y7.6611
G3 X14.7223 Y7.7861 I-0.125 J0
G1 X7.7382 Y7.7861
G1 Z-0.6 F30
G1 X7.2382 Y7.7861 F20
G1 Z-0.75 F30
G1 X0.0973 Y7.7861 F20
G3 X-0.0277 Y7.6611 I0 J-0.125
G1 X-0.0277 Y1.5339
G1 Z-0.6 F30
G1 X-0.0277 Y1.0339 F20
G1 Z-0.75 F30
G1 X-0.0277 Y-0.2139 F20
G3 X0.0973 Y-0.3389 I0.125 J0
G1 Z-0.85 F30
G1 X12.9877 Y-0.3389 F20
G1 Z-0.6 F30
G1 X13.4877 Y-0.3389 F20
G1 Z-0.85 F30
G1 X14.7223 Y-0.3389 F20
G3 X14.8473 Y-0.2139 I0 J0.125
G1 X14.8473 Y7.6611
G3 X14.7223 Y7.7861 I-0.125 J0
G1 X7.7382 Y7.7861
G1 Z-0.6 F30
G1 X7.2382 Y7.7861 F20
G1 Z-0.85 F30
G1 X0.0973 Y7.7861 F20
G3 X-0.0277 Y7.6611 I0 J-0.125
G1 X-0.0277 Y1.5339
G1 Z-0.6 F30
G1 X-0.0277 Y1.0339 F20
G1 Z-0.85 F30
G1 X-0.0277 Y-0.2139 F20
G3 X0.0973 Y-0.3389 I0.125 J0
G0 Z0.25
M5
M30
