(Generated by PartKam Version 0.05)

G20 G90 G40

(pocket 1)
G0 Z0.25
T1 M6
G17
M3
G0 X6.7974 Y9.4285
G1 Z-0.05 F30
G1 X6.7383 Y9.6197 F10
G3 X6.6191 Y9.6205 I-0.0597 J-0.0185
G1 X6.5567 Y9.4285
G1 X6.3548 Y9.4285
G3 X6.2923 Y9.366 I0 J-0.0625
G3 X6.3181 Y9.3154 I0.0625 J0
G1 X6.4814 Y9.1967
G1 X6.419 Y9.0046
G3 X6.4159 Y8.9853 I0.0594 J-0.0193
G3 X6.5151 Y8.9347 I0.0625 J0
G1 X6.6786 Y9.0534
G1 X6.8421 Y8.9347
G3 X6.9413 Y8.9853 I0.0367 J0.0506
G3 X6.9383 Y9.0046 I-0.0625 J0
G1 X6.8758 Y9.1967
G1 X7.0392 Y9.3154
G3 X7.0649 Y9.366 I-0.0367 J0.0506
G3 X7.0024 Y9.4285 I-0.0625 J0
G1 X6.7974 Y9.4285
G0 Z0.25
G0 X6.7974 Y7.2722
G1 Z-0.05 F30
G1 X6.7383 Y7.4635 F10
G3 X6.6191 Y7.4643 I-0.0597 J-0.0185
G1 X6.5567 Y7.2722
G1 X6.3548 Y7.2722
G3 X6.2923 Y7.2097 I0 J-0.0625
G3 X6.3181 Y7.1591 I0.0625 J0
G1 X6.4814 Y7.0404
G1 X6.419 Y6.8484
G3 X6.4159 Y6.829 I0.0594 J-0.0193
G3 X6.5151 Y6.7785 I0.0625 J0
G1 X6.6786 Y6.8972
G1 X6.8421 Y6.7784
G3 X6.9413 Y6.829 I0.0367 J0.0506
G3 X6.9383 Y6.8484 I-0.0625 J0
G1 X6.8758 Y7.0404
G1 X7.0392 Y7.1591
G3 X7.0649 Y7.2097 I-0.0367 J0.0506
G3 X7.0024 Y7.2722 I-0.0625 J0
G1 X6.7974 Y7.2722
G0 Z0.25
G0 X6.7974 Y6.194
G1 Z-0.05 F30
G1 X6.7383 Y6.3853 F10
G3 X6.6191 Y6.3861 I-0.0597 J-0.0185
G1 X6.5567 Y6.194
G1 X6.3548 Y6.194
G3 X6.2923 Y6.1315 I0 J-0.0625
G3 X6.3181 Y6.081 I0.0625 J0
G1 X6.4814 Y5.9622
G1 X6.419 Y5.7702
G3 X6.4159 Y5.7508 I0.0594 J-0.0193
G3 X6.5151 Y5.7003 I0.0625 J0
G1 X6.6786 Y5.819
G1 X6.8421 Y5.7002
G3 X6.9413 Y5.7508 I0.0367 J0.0506
G3 X6.9383 Y5.7702 I-0.0625 J0
G1 X6.8758 Y5.9622
G1 X7.0392 Y6.081
G3 X7.0649 Y6.1315 I-0.0367 J0.0506
G3 X7.0024 Y6.194 I-0.0625 J0
G1 X6.7974 Y6.194
G0 Z0.25
G0 X5.5319 Y8.3503
G1 Z-0.05 F30
G1 X5.4727 Y8.5415 F10
G3 X5.3535 Y8.5423 I-0.0597 J-0.0185
G1 X5.2912 Y8.3503
G1 X5.0891 Y8.3503
G3 X5.0266 Y8.2878 I0 J-0.0625
G3 X5.0524 Y8.2372 I0.0625 J0
G1 X5.2158 Y8.1185
G1 X5.1534 Y7.9264
G3 X5.1503 Y7.9071 I0.0594 J-0.0193
G3 X5.2496 Y7.8565 I0.0625 J0
G1 X5.413 Y7.9752
G1 X5.5764 Y7.8565
G3 X5.6756 Y7.9071 I0.0367 J0.0506
G3 X5.6726 Y7.9264 I-0.0625 J0
G1 X5.6102 Y8.1185
G1 X5.7736 Y8.2372
G3 X5.7994 Y8.2878 I-0.0367 J0.0506
G3 X5.7369 Y8.3503 I-0.0625 J0
G1 X5.5319 Y8.3503
G0 Z0.25
G0 X3.6334 Y8.8893
G1 Z-0.05 F30
G1 X3.5742 Y9.0805 F10
G3 X3.4551 Y9.0814 I-0.0597 J-0.0185
G1 X3.3927 Y8.8893
G1 X3.1908 Y8.8893
G3 X3.1283 Y8.8268 I0 J-0.0625
G3 X3.154 Y8.7762 I0.0625 J0
G1 X3.3174 Y8.6575
G1 X3.2549 Y8.4654
G3 X3.2519 Y8.4461 I0.0594 J-0.0193
G3 X3.3511 Y8.3955 I0.0625 J0
G1 X3.5145 Y8.5143
G1 X3.6779 Y8.3955
G3 X3.7772 Y8.4461 I0.0367 J0.0506
G3 X3.7741 Y8.4654 I-0.0625 J0
G1 X3.7117 Y8.6575
G1 X3.8751 Y8.7762
G3 X3.9009 Y8.8268 I-0.0367 J0.0506
G3 X3.8384 Y8.8893 I-0.0625 J0
G1 X3.6334 Y8.8893
G0 Z0.25
G0 X6.1646 Y6.733
G1 Z-0.05 F30
G1 X6.1055 Y6.9243 F10
G3 X5.9863 Y6.9251 I-0.0597 J-0.0185
G1 X5.924 Y6.733
G1 X5.722 Y6.733
G3 X5.6595 Y6.6705 I0 J-0.0625
G3 X5.6853 Y6.62 I0.0625 J0
G1 X5.8487 Y6.5013
G1 X5.7862 Y6.3092
G3 X5.7831 Y6.2899 I0.0594 J-0.0193
G3 X5.8824 Y6.2393 I0.0625 J0
G1 X6.0458 Y6.358
G1 X6.2092 Y6.2393
G3 X6.3084 Y6.2899 I0.0367 J0.0506
G3 X6.3053 Y6.3092 I-0.0625 J0
G1 X6.243 Y6.5013
G1 X6.4064 Y6.62
G3 X6.4322 Y6.6705 I-0.0367 J0.0506
G3 X6.3697 Y6.733 I-0.0625 J0
G1 X6.1646 Y6.733
G0 Z0.25
G0 X4.2662 Y8.3503
G1 Z-0.05 F30
G1 X4.207 Y8.5415 F10
G3 X4.0878 Y8.5423 I-0.0597 J-0.0185
G1 X4.0255 Y8.3503
G1 X3.8235 Y8.3503
G3 X3.761 Y8.2878 I0 J-0.0625
G3 X3.7868 Y8.2372 I0.0625 J0
G1 X3.9502 Y8.1185
G1 X3.8877 Y7.9264
G3 X3.8847 Y7.9071 I0.0594 J-0.0193
G3 X3.9839 Y7.8565 I0.0625 J0
G1 X4.1473 Y7.9752
G1 X4.3108 Y7.8565
G3 X4.4101 Y7.9071 I0.0367 J0.0506
G3 X4.407 Y7.9264 I-0.0625 J0
G1 X4.3445 Y8.1185
G1 X4.5079 Y8.2372
G3 X4.5337 Y8.2878 I-0.0367 J0.0506
G3 X4.4712 Y8.3503 I-0.0625 J0
G1 X4.2662 Y8.3503
G0 Z0.25
G0 X4.2662 Y9.4285
G1 Z-0.05 F30
G1 X4.207 Y9.6197 F10
G3 X4.0878 Y9.6205 I-0.0597 J-0.0185
G1 X4.0255 Y9.4285
G1 X3.8235 Y9.4285
G3 X3.761 Y9.366 I0 J-0.0625
G3 X3.7868 Y9.3154 I0.0625 J0
G1 X3.9502 Y9.1967
G1 X3.8877 Y9.0046
G3 X3.8847 Y8.9853 I0.0594 J-0.0193
G3 X3.9839 Y8.9347 I0.0625 J0
G1 X4.1473 Y9.0534
G1 X4.3108 Y8.9347
G3 X4.4101 Y8.9853 I0.0367 J0.0506
G3 X4.407 Y9.0046 I-0.0625 J0
G1 X4.3445 Y9.1967
G1 X4.5079 Y9.3154
G3 X4.5337 Y9.366 I-0.0367 J0.0506
G3 X4.4712 Y9.4285 I-0.0625 J0
G1 X4.2662 Y9.4285
G0 Z0.25
G0 X3.6334 Y6.733
G1 Z-0.05 F30
G1 X3.5742 Y6.9243 F10
G3 X3.4551 Y6.9251 I-0.0597 J-0.0185
G1 X3.3927 Y6.733
G1 X3.1908 Y6.733
G3 X3.1283 Y6.6705 I0 J-0.0625
G3 X3.154 Y6.62 I0.0625 J0
G1 X3.3174 Y6.5013
G1 X3.2549 Y6.3092
G3 X3.2519 Y6.2899 I0.0594 J-0.0193
G3 X3.3511 Y6.2393 I0.0625 J0
G1 X3.5145 Y6.358
G1 X3.6779 Y6.2393
G3 X3.7772 Y6.2899 I0.0367 J0.0506
G3 X3.7741 Y6.3092 I-0.0625 J0
G1 X3.7117 Y6.5013
G1 X3.8751 Y6.62
G3 X3.9009 Y6.6705 I-0.0367 J0.0506
G3 X3.8384 Y6.733 I-0.0625 J0
G1 X3.6334 Y6.733
G0 Z0.25
G0 X3.0006 Y7.2722
G1 Z-0.05 F30
G1 X2.9414 Y7.4635 F10
G3 X2.8223 Y7.4643 I-0.0597 J-0.0185
G1 X2.7599 Y7.2722
G1 X2.5578 Y7.2722
G3 X2.4953 Y7.2097 I0 J-0.0625
G3 X2.5211 Y7.1591 I0.0625 J0
G1 X2.6845 Y7.0404
G1 X2.6222 Y6.8483
G3 X2.6191 Y6.829 I0.0594 J-0.0193
G3 X2.7183 Y6.7785 I0.0625 J0
G1 X2.8817 Y6.8972
G1 X3.0451 Y6.7785
G3 X3.1444 Y6.829 I0.0367 J0.0506
G3 X3.1413 Y6.8483 I-0.0625 J0
G1 X3.079 Y7.0404
G1 X3.2424 Y7.1591
G3 X3.2681 Y7.2097 I-0.0367 J0.0506
G3 X3.2056 Y7.2722 I-0.0625 J0
G1 X3.0006 Y7.2722
G0 Z0.25
G0 X5.5319 Y6.194
G1 Z-0.05 F30
G1 X5.4727 Y6.3853 F10
G3 X5.3535 Y6.3861 I-0.0597 J-0.0185
G1 X5.2912 Y6.194
G1 X5.0891 Y6.194
G3 X5.0266 Y6.1315 I0 J-0.0625
G3 X5.0524 Y6.081 I0.0625 J0
G1 X5.2158 Y5.9622
G1 X5.1534 Y5.7701
G3 X5.1503 Y5.7508 I0.0594 J-0.0193
G3 X5.2496 Y5.7003 I0.0625 J0
G1 X5.413 Y5.819
G1 X5.5764 Y5.7003
G3 X5.6756 Y5.7508 I0.0367 J0.0506
G3 X5.6726 Y5.7701 I-0.0625 J0
G1 X5.6102 Y5.9622
G1 X5.7736 Y6.081
G3 X5.7994 Y6.1315 I-0.0367 J0.0506
G3 X5.7369 Y6.194 I-0.0625 J0
G1 X5.5319 Y6.194
G0 Z0.25
G0 X1.1021 Y6.733
G1 Z-0.05 F30
G1 X1.043 Y6.9243 F10
G3 X0.9238 Y6.9251 I-0.0597 J-0.0185
G1 X0.8615 Y6.733
G1 X0.6595 Y6.733
G3 X0.597 Y6.6705 I0 J-0.0625
G3 X0.6228 Y6.62 I0.0625 J0
G1 X0.7862 Y6.5013
G1 X0.7237 Y6.3092
G3 X0.7206 Y6.2899 I0.0594 J-0.0193
G3 X0.8199 Y6.2393 I0.0625 J0
G1 X0.9833 Y6.358
G1 X1.1467 Y6.2393
G3 X1.2459 Y6.2899 I0.0367 J0.0506
G3 X1.2428 Y6.3092 I-0.0625 J0
G1 X1.1805 Y6.5013
G1 X1.3439 Y6.62
G3 X1.3697 Y6.6705 I-0.0367 J0.0506
G3 X1.3072 Y6.733 I-0.0625 J0
G1 X1.1021 Y6.733
G0 Z0.25
G0 X3.0006 Y8.3503
G1 Z-0.05 F30
G1 X2.9414 Y8.5415 F10
G3 X2.8223 Y8.5423 I-0.0597 J-0.0185
G1 X2.7599 Y8.3503
G1 X2.5578 Y8.3503
G3 X2.4953 Y8.2878 I0 J-0.0625
G3 X2.5211 Y8.2372 I0.0625 J0
G1 X2.6845 Y8.1185
G1 X2.6222 Y7.9264
G3 X2.6191 Y7.9071 I0.0594 J-0.0193
G3 X2.7183 Y7.8565 I0.0625 J0
G1 X2.8817 Y7.9752
G1 X3.0451 Y7.8565
G3 X3.1444 Y7.9071 I0.0367 J0.0506
G3 X3.1413 Y7.9264 I-0.0625 J0
G1 X3.079 Y8.1185
G1 X3.2424 Y8.2372
G3 X3.2681 Y8.2878 I-0.0367 J0.0506
G3 X3.2056 Y8.3503 I-0.0625 J0
G1 X3.0006 Y8.3503
G0 Z0.25
G0 X1.7349 Y7.2722
G1 Z-0.05 F30
G1 X1.6758 Y7.4635 F10
G3 X1.5566 Y7.4643 I-0.0597 J-0.0185
G1 X1.4942 Y7.2722
G1 X1.2923 Y7.2722
G3 X1.2298 Y7.2097 I0 J-0.0625
G3 X1.2556 Y7.1591 I0.0625 J0
G1 X1.4189 Y7.0404
G1 X1.3565 Y6.8484
G3 X1.3534 Y6.829 I0.0594 J-0.0193
G3 X1.4526 Y6.7785 I0.0625 J0
G1 X1.6161 Y6.8972
G1 X1.7796 Y6.7784
G3 X1.8788 Y6.829 I0.0367 J0.0506
G3 X1.8758 Y6.8484 I-0.0625 J0
G1 X1.8133 Y7.0404
G1 X1.9767 Y7.1591
G3 X2.0024 Y7.2097 I-0.0367 J0.0506
G3 X1.9399 Y7.2722 I-0.0625 J0
G1 X1.7349 Y7.2722
G0 Z0.25
G0 X4.2662 Y7.2722
G1 Z-0.05 F30
G1 X4.207 Y7.4635 F10
G3 X4.0878 Y7.4643 I-0.0597 J-0.0185
G1 X4.0255 Y7.2722
G1 X3.8235 Y7.2722
G3 X3.761 Y7.2097 I0 J-0.0625
G3 X3.7868 Y7.1591 I0.0625 J0
G1 X3.9502 Y7.0404
G1 X3.8877 Y6.8484
G3 X3.8847 Y6.829 I0.0594 J-0.0193
G3 X3.9839 Y6.7785 I0.0625 J0
G1 X4.1473 Y6.8972
G1 X4.3108 Y6.7784
G3 X4.4101 Y6.829 I0.0367 J0.0506
G3 X4.407 Y6.8484 I-0.0625 J0
G1 X4.3445 Y7.0404
G1 X4.5079 Y7.1591
G3 X4.5337 Y7.2097 I-0.0367 J0.0506
G3 X4.4712 Y7.2722 I-0.0625 J0
G1 X4.2662 Y7.2722
G0 Z0.25
G0 X1.1021 Y8.8893
G1 Z-0.05 F30
G1 X1.043 Y9.0805 F10
G3 X0.9238 Y9.0814 I-0.0597 J-0.0185
G1 X0.8615 Y8.8893
G1 X0.6595 Y8.8893
G3 X0.597 Y8.8268 I0 J-0.0625
G3 X0.6228 Y8.7762 I0.0625 J0
G1 X0.7862 Y8.6575
G1 X0.7237 Y8.4654
G3 X0.7206 Y8.4461 I0.0594 J-0.0193
G3 X0.8199 Y8.3955 I0.0625 J0
G1 X0.9833 Y8.5143
G1 X1.1467 Y8.3955
G3 X1.2459 Y8.4461 I0.0367 J0.0506
G3 X1.2428 Y8.4654 I-0.0625 J0
G1 X1.1805 Y8.6575
G1 X1.3439 Y8.7762
G3 X1.3697 Y8.8268 I-0.0367 J0.0506
G3 X1.3072 Y8.8893 I-0.0625 J0
G1 X1.1021 Y8.8893
G0 Z0.25
G0 X6.7974 Y8.3503
G1 Z-0.05 F30
G1 X6.7383 Y8.5415 F10
G3 X6.6191 Y8.5423 I-0.0597 J-0.0185
G1 X6.5567 Y8.3503
G1 X6.3548 Y8.3503
G3 X6.2923 Y8.2878 I0 J-0.0625
G3 X6.3181 Y8.2372 I0.0625 J0
G1 X6.4814 Y8.1185
G1 X6.419 Y7.9264
G3 X6.4159 Y7.9071 I0.0594 J-0.0193
G3 X6.5151 Y7.8565 I0.0625 J0
G1 X6.6786 Y7.9752
G1 X6.8421 Y7.8565
G3 X6.9413 Y7.9071 I0.0367 J0.0506
G3 X6.9383 Y7.9264 I-0.0625 J0
G1 X6.8758 Y8.1185
G1 X7.0392 Y8.2372
G3 X7.0649 Y8.2878 I-0.0367 J0.0506
G3 X7.0024 Y8.3503 I-0.0625 J0
G1 X6.7974 Y8.3503
G0 Z0.25
G0 X3.0006 Y9.4285
G1 Z-0.05 F30
G1 X2.9414 Y9.6197 F10
G3 X2.8223 Y9.6205 I-0.0597 J-0.0185
G1 X2.7599 Y9.4285
G1 X2.5578 Y9.4285
G3 X2.4953 Y9.366 I0 J-0.0625
G3 X2.5211 Y9.3154 I0.0625 J0
G1 X2.6845 Y9.1967
G1 X2.6222 Y9.0046
G3 X2.6191 Y8.9853 I0.0594 J-0.0193
G3 X2.7183 Y8.9347 I0.0625 J0
G1 X2.8817 Y9.0534
G1 X3.0451 Y8.9347
G3 X3.1444 Y8.9853 I0.0367 J0.0506
G3 X3.1413 Y9.0046 I-0.0625 J0
G1 X3.079 Y9.1967
G1 X3.2424 Y9.3154
G3 X3.2681 Y9.366 I-0.0367 J0.0506
G3 X3.2056 Y9.4285 I-0.0625 J0
G1 X3.0006 Y9.4285
G0 Z0.25
G0 X1.7349 Y9.4285
G1 Z-0.05 F30
G1 X1.6758 Y9.6197 F10
G3 X1.5566 Y9.6205 I-0.0597 J-0.0185
G1 X1.4942 Y9.4285
G1 X1.2923 Y9.4285
G3 X1.2298 Y9.366 I0 J-0.0625
G3 X1.2556 Y9.3154 I0.0625 J0
G1 X1.4189 Y9.1967
G1 X1.3565 Y9.0046
G3 X1.3534 Y8.9853 I0.0594 J-0.0193
G3 X1.4526 Y8.9347 I0.0625 J0
G1 X1.6161 Y9.0534
G1 X1.7796 Y8.9347
G3 X1.8788 Y8.9853 I0.0367 J0.0506
G3 X1.8758 Y9.0046 I-0.0625 J0
G1 X1.8133 Y9.1967
G1 X1.9767 Y9.3154
G3 X2.0024 Y9.366 I-0.0367 J0.0506
G3 X1.9399 Y9.4285 I-0.0625 J0
G1 X1.7349 Y9.4285
G0 Z0.25
G0 X4.2662 Y6.194
G1 Z-0.05 F30
G1 X4.207 Y6.3853 F10
G3 X4.0878 Y6.3861 I-0.0597 J-0.0185
G1 X4.0255 Y6.194
G1 X3.8235 Y6.194
G3 X3.761 Y6.1315 I0 J-0.0625
G3 X3.7868 Y6.081 I0.0625 J0
G1 X3.9502 Y5.9622
G1 X3.8877 Y5.7702
G3 X3.8847 Y5.7508 I0.0594 J-0.0193
G3 X3.9839 Y5.7003 I0.0625 J0
G1 X4.1473 Y5.819
G1 X4.3108 Y5.7002
G3 X4.4101 Y5.7508 I0.0367 J0.0506
G3 X4.407 Y5.7702 I-0.0625 J0
G1 X4.3445 Y5.9622
G1 X4.5079 Y6.081
G3 X4.5337 Y6.1315 I-0.0367 J0.0506
G3 X4.4712 Y6.194 I-0.0625 J0
G1 X4.2662 Y6.194
G0 Z0.25
G0 X3.0006 Y6.194
G1 Z-0.05 F30
G1 X2.9414 Y6.3853 F10
G3 X2.8223 Y6.3861 I-0.0597 J-0.0185
G1 X2.7599 Y6.194
G1 X2.5578 Y6.194
G3 X2.4953 Y6.1315 I0 J-0.0625
G3 X2.5211 Y6.081 I0.0625 J0
G1 X2.6845 Y5.9622
G1 X2.6222 Y5.7701
G3 X2.6191 Y5.7508 I0.0594 J-0.0193
G3 X2.7183 Y5.7003 I0.0625 J0
G1 X2.8817 Y5.819
G1 X3.0451 Y5.7003
G3 X3.1444 Y5.7508 I0.0367 J0.0506
G3 X3.1413 Y5.7701 I-0.0625 J0
G1 X3.079 Y5.9622
G1 X3.2424 Y6.081
G3 X3.2681 Y6.1315 I-0.0367 J0.0506
G3 X3.2056 Y6.194 I-0.0625 J0
G1 X3.0006 Y6.194
G0 Z0.25
G0 X6.1646 Y8.8893
G1 Z-0.05 F30
G1 X6.1055 Y9.0805 F10
G3 X5.9863 Y9.0814 I-0.0597 J-0.0185
G1 X5.924 Y8.8893
G1 X5.722 Y8.8893
G3 X5.6595 Y8.8268 I0 J-0.0625
G3 X5.6853 Y8.7762 I0.0625 J0
G1 X5.8487 Y8.6575
G1 X5.7862 Y8.4654
G3 X5.7831 Y8.4461 I0.0594 J-0.0193
G3 X5.8824 Y8.3955 I0.0625 J0
G1 X6.0458 Y8.5143
G1 X6.2092 Y8.3955
G3 X6.3084 Y8.4461 I0.0367 J0.0506
G3 X6.3053 Y8.4654 I-0.0625 J0
G1 X6.243 Y8.6575
G1 X6.4064 Y8.7762
G3 X6.4322 Y8.8268 I-0.0367 J0.0506
G3 X6.3697 Y8.8893 I-0.0625 J0
G1 X6.1646 Y8.8893
G0 Z0.25
G0 X5.5319 Y9.4285
G1 Z-0.05 F30
G1 X5.4727 Y9.6197 F10
G3 X5.3535 Y9.6205 I-0.0597 J-0.0185
G1 X5.2912 Y9.4285
G1 X5.0891 Y9.4285
G3 X5.0266 Y9.366 I0 J-0.0625
G3 X5.0524 Y9.3154 I0.0625 J0
G1 X5.2158 Y9.1967
G1 X5.1534 Y9.0046
G3 X5.1503 Y8.9853 I0.0594 J-0.0193
G3 X5.2496 Y8.9347 I0.0625 J0
G1 X5.413 Y9.0534
G1 X5.5764 Y8.9347
G3 X5.6756 Y8.9853 I0.0367 J0.0506
G3 X5.6726 Y9.0046 I-0.0625 J0
G1 X5.6102 Y9.1967
G1 X5.7736 Y9.3154
G3 X5.7994 Y9.366 I-0.0367 J0.0506
G3 X5.7369 Y9.4285 I-0.0625 J0
G1 X5.5319 Y9.4285
G0 Z0.25
G0 X5.5319 Y7.2722
G1 Z-0.05 F30
G1 X5.4727 Y7.4635 F10
G3 X5.3535 Y7.4643 I-0.0597 J-0.0185
G1 X5.2912 Y7.2722
G1 X5.0891 Y7.2722
G3 X5.0266 Y7.2097 I0 J-0.0625
G3 X5.0524 Y7.1591 I0.0625 J0
G1 X5.2158 Y7.0404
G1 X5.1534 Y6.8483
G3 X5.1503 Y6.829 I0.0594 J-0.0193
G3 X5.2496 Y6.7785 I0.0625 J0
G1 X5.413 Y6.8972
G1 X5.5764 Y6.7785
G3 X5.6756 Y6.829 I0.0367 J0.0506
G3 X5.6726 Y6.8483 I-0.0625 J0
G1 X5.6102 Y7.0404
G1 X5.7736 Y7.1591
G3 X5.7994 Y7.2097 I-0.0367 J0.0506
G3 X5.7369 Y7.2722 I-0.0625 J0
G1 X5.5319 Y7.2722
G0 Z0.25
G0 X6.1646 Y7.8124
G1 Z-0.05 F30
G1 X6.1055 Y8.0037 F10
G3 X5.9863 Y8.0046 I-0.0597 J-0.0185
G1 X5.9239 Y7.8124
G1 X5.722 Y7.8124
G3 X5.6595 Y7.7499 I0 J-0.0625
G3 X5.6853 Y7.6993 I0.0625 J0
G1 X5.8487 Y7.5806
G1 X5.7862 Y7.3885
G3 X5.7831 Y7.3692 I0.0594 J-0.0193
G3 X5.8824 Y7.3186 I0.0625 J0
G1 X6.0458 Y7.4373
G1 X6.2092 Y7.3186
G3 X6.3084 Y7.3692 I0.0367 J0.0506
G3 X6.3053 Y7.3885 I-0.0625 J0
G1 X6.243 Y7.5806
G1 X6.4064 Y7.6993
G3 X6.4322 Y7.7499 I-0.0367 J0.0506
G3 X6.3697 Y7.8124 I-0.0625 J0
G1 X6.1646 Y7.8124
G0 Z0.25
G0 X1.1021 Y7.8124
G1 Z-0.05 F30
G1 X1.043 Y8.0037 F10
G3 X0.9238 Y8.0046 I-0.0597 J-0.0185
G1 X0.8614 Y7.8124
G1 X0.6595 Y7.8124
G3 X0.597 Y7.7499 I0 J-0.0625
G3 X0.6228 Y7.6993 I0.0625 J0
G1 X0.7862 Y7.5806
G1 X0.7237 Y7.3885
G3 X0.7206 Y7.3692 I0.0594 J-0.0193
G3 X0.8199 Y7.3186 I0.0625 J0
G1 X0.9833 Y7.4373
G1 X1.1467 Y7.3186
G3 X1.2459 Y7.3692 I0.0367 J0.0506
G3 X1.2428 Y7.3885 I-0.0625 J0
G1 X1.1805 Y7.5806
G1 X1.3439 Y7.6993
G3 X1.3697 Y7.7499 I-0.0367 J0.0506
G3 X1.3072 Y7.8124 I-0.0625 J0
G1 X1.1021 Y7.8124
G0 Z0.25
G0 X3.6334 Y7.8124
G1 Z-0.05 F30
G1 X3.5742 Y8.0037 F10
G3 X3.4551 Y8.0046 I-0.0597 J-0.0185
G1 X3.3927 Y7.8124
G1 X3.1908 Y7.8124
G3 X3.1283 Y7.7499 I0 J-0.0625
G3 X3.154 Y7.6993 I0.0625 J0
G1 X3.3174 Y7.5806
G1 X3.2549 Y7.3885
G3 X3.2519 Y7.3692 I0.0594 J-0.0193
G3 X3.3511 Y7.3186 I0.0625 J0
G1 X3.5145 Y7.4373
G1 X3.6779 Y7.3186
G3 X3.7772 Y7.3692 I0.0367 J0.0506
G3 X3.7741 Y7.3885 I-0.0625 J0
G1 X3.7117 Y7.5806
G1 X3.8751 Y7.6993
G3 X3.9009 Y7.7499 I-0.0367 J0.0506
G3 X3.8384 Y7.8124 I-0.0625 J0
G1 X3.6334 Y7.8124
G0 Z0.25
G0 X7.4302 Y8.8893
G1 Z-0.05 F30
G1 X7.3712 Y9.0805 F10
G3 X7.252 Y9.0814 I-0.0597 J-0.0184
G1 X7.1895 Y8.8893
G1 X6.9876 Y8.8893
G3 X6.9251 Y8.8268 I0 J-0.0625
G3 X6.9508 Y8.7762 I0.0625 J0
G1 X7.1142 Y8.6575
G1 X7.0519 Y8.4654
G3 X7.0488 Y8.4461 I0.0594 J-0.0193
G3 X7.1481 Y8.3955 I0.0625 J0
G1 X7.3115 Y8.5143
G1 X7.4749 Y8.3955
G3 X7.5741 Y8.4461 I0.0367 J0.0506
G3 X7.571 Y8.4654 I-0.0625 J0
G1 X7.5086 Y8.6575
G1 X7.6719 Y8.7762
G3 X7.6977 Y8.8268 I-0.0367 J0.0506
G3 X7.6352 Y8.8893 I-0.0625 J0
G1 X7.4302 Y8.8893
G0 Z0.25
G0 X2.3677 Y8.8893
G1 Z-0.05 F30
G1 X2.3087 Y9.0805 F10
G3 X2.1895 Y9.0814 I-0.0597 J-0.0184
G1 X2.127 Y8.8893
G1 X1.9251 Y8.8893
G3 X1.8626 Y8.8268 I0 J-0.0625
G3 X1.8883 Y8.7762 I0.0625 J0
G1 X2.0517 Y8.6575
G1 X1.9894 Y8.4654
G3 X1.9863 Y8.4461 I0.0594 J-0.0193
G3 X2.0856 Y8.3955 I0.0625 J0
G1 X2.249 Y8.5143
G1 X2.4124 Y8.3955
G3 X2.5116 Y8.4461 I0.0367 J0.0506
G3 X2.5085 Y8.4654 I-0.0625 J0
G1 X2.4461 Y8.6575
G1 X2.6094 Y8.7762
G3 X2.6352 Y8.8268 I-0.0367 J0.0506
G3 X2.5727 Y8.8893 I-0.0625 J0
G1 X2.3677 Y8.8893
G0 Z0.25
G0 X2.3677 Y6.733
G1 Z-0.05 F30
G1 X2.3087 Y6.9243 F10
G3 X2.1895 Y6.9252 I-0.0597 J-0.0184
G1 X2.127 Y6.733
G1 X1.9251 Y6.733
G3 X1.8626 Y6.6705 I0 J-0.0625
G3 X1.8883 Y6.62 I0.0625 J0
G1 X2.0517 Y6.5013
G1 X1.9894 Y6.3092
G3 X1.9863 Y6.2899 I0.0594 J-0.0193
G3 X2.0856 Y6.2393 I0.0625 J0
G1 X2.249 Y6.358
G1 X2.4124 Y6.2393
G3 X2.5116 Y6.2899 I0.0367 J0.0506
G3 X2.5085 Y6.3092 I-0.0625 J0
G1 X2.4461 Y6.5013
G1 X2.6094 Y6.62
G3 X2.6352 Y6.6705 I-0.0367 J0.0506
G3 X2.5727 Y6.733 I-0.0625 J0
G1 X2.3677 Y6.733
G0 Z0.25
G0 X4.899 Y6.733
G1 Z-0.05 F30
G1 X4.8399 Y6.9243 F10
G3 X4.7208 Y6.9252 I-0.0597 J-0.0184
G1 X4.6583 Y6.733
G1 X4.4563 Y6.733
G3 X4.3938 Y6.6705 I0 J-0.0625
G3 X4.4196 Y6.62 I0.0625 J0
G1 X4.583 Y6.5013
G1 X4.5206 Y6.3092
G3 X4.5176 Y6.2899 I0.0594 J-0.0193
G3 X4.6168 Y6.2393 I0.0625 J0
G1 X4.7802 Y6.358
G1 X4.9436 Y6.2393
G3 X5.0428 Y6.2899 I0.0367 J0.0506
G3 X5.0398 Y6.3092 I-0.0625 J0
G1 X4.9773 Y6.5013
G1 X5.1407 Y6.62
G3 X5.1665 Y6.6705 I-0.0367 J0.0506
G3 X5.104 Y6.733 I-0.0625 J0
G1 X4.899 Y6.733
G0 Z0.25
G0 X4.899 Y8.8893
G1 Z-0.05 F30
G1 X4.8399 Y9.0805 F10
G3 X4.7208 Y9.0814 I-0.0597 J-0.0184
G1 X4.6583 Y8.8893
G1 X4.4563 Y8.8893
G3 X4.3938 Y8.8268 I0 J-0.0625
G3 X4.4196 Y8.7762 I0.0625 J0
G1 X4.583 Y8.6575
G1 X4.5206 Y8.4654
G3 X4.5176 Y8.4461 I0.0594 J-0.0193
G3 X4.6168 Y8.3955 I0.0625 J0
G1 X4.7802 Y8.5143
G1 X4.9436 Y8.3955
G3 X5.0428 Y8.4461 I0.0367 J0.0506
G3 X5.0398 Y8.4654 I-0.0625 J0
G1 X4.9773 Y8.6575
G1 X5.1407 Y8.7762
G3 X5.1665 Y8.8268 I-0.0367 J0.0506
G3 X5.104 Y8.8893 I-0.0625 J0
G1 X4.899 Y8.8893
G0 Z0.25
G0 X1.7349 Y6.194
G1 Z-0.05 F30
G1 X1.6759 Y6.3852 F10
G3 X1.5567 Y6.3861 I-0.0597 J-0.0184
G1 X1.4943 Y6.194
G1 X1.2923 Y6.194
G3 X1.2298 Y6.1315 I0 J-0.0625
G3 X1.2556 Y6.081 I0.0625 J0
G1 X1.4189 Y5.9622
G1 X1.3565 Y5.7702
G3 X1.3534 Y5.7508 I0.0594 J-0.0193
G3 X1.4526 Y5.7002 I0.0625 J0
G1 X1.6162 Y5.819
G1 X1.7796 Y5.7003
G3 X1.8788 Y5.7508 I0.0367 J0.0506
G3 X1.8758 Y5.7702 I-0.0625 J0
G1 X1.8133 Y5.9622
G1 X1.9767 Y6.081
G3 X2.0024 Y6.1315 I-0.0367 J0.0506
G3 X1.9399 Y6.194 I-0.0625 J0
G1 X1.7349 Y6.194
G0 Z0.25
G0 X1.7349 Y8.3503
G1 Z-0.05 F30
G1 X1.6759 Y8.5415 F10
G3 X1.5567 Y8.5424 I-0.0597 J-0.0184
G1 X1.4943 Y8.3503
G1 X1.2923 Y8.3503
G3 X1.2298 Y8.2878 I0 J-0.0625
G3 X1.2556 Y8.2372 I0.0625 J0
G1 X1.4189 Y8.1185
G1 X1.3565 Y7.9264
G3 X1.3534 Y7.9071 I0.0594 J-0.0193
G3 X1.4526 Y7.8565 I0.0625 J0
G1 X1.6162 Y7.9752
G1 X1.7796 Y7.8565
G3 X1.8788 Y7.9071 I0.0367 J0.0506
G3 X1.8758 Y7.9264 I-0.0625 J0
G1 X1.8133 Y8.1185
G1 X1.9767 Y8.2372
G3 X2.0024 Y8.2878 I-0.0367 J0.0506
G3 X1.9399 Y8.3503 I-0.0625 J0
G1 X1.7349 Y8.3503
G0 Z0.25
G0 X7.4302 Y6.733
G1 Z-0.05 F30
G1 X7.3712 Y6.9243 F10
G3 X7.252 Y6.9252 I-0.0597 J-0.0184
G1 X7.1895 Y6.733
G1 X6.9876 Y6.733
G3 X6.9251 Y6.6705 I0 J-0.0625
G3 X6.9508 Y6.62 I0.0625 J0
G1 X7.1142 Y6.5013
G1 X7.0519 Y6.3092
G3 X7.0488 Y6.2899 I0.0594 J-0.0193
G3 X7.1481 Y6.2393 I0.0625 J0
G1 X7.3115 Y6.358
G1 X7.4749 Y6.2393
G3 X7.5741 Y6.2899 I0.0367 J0.0506
G3 X7.571 Y6.3092 I-0.0625 J0
G1 X7.5086 Y6.5013
G1 X7.6719 Y6.62
G3 X7.6977 Y6.6705 I-0.0367 J0.0506
G3 X7.6352 Y6.733 I-0.0625 J0
G1 X7.4302 Y6.733
G0 Z0.25
G0 X7.4302 Y7.8124
G1 Z-0.05 F30
G1 X7.3712 Y8.0037 F10
G3 X7.252 Y8.0046 I-0.0597 J-0.0184
G1 X7.1895 Y7.8124
G1 X6.9876 Y7.8124
G3 X6.9251 Y7.7499 I0 J-0.0625
G3 X6.9508 Y7.6993 I0.0625 J0
G1 X7.1142 Y7.5806
G1 X7.0519 Y7.3885
G3 X7.0488 Y7.3692 I0.0594 J-0.0193
G3 X7.1481 Y7.3186 I0.0625 J0
G1 X7.3115 Y7.4373
G1 X7.4749 Y7.3186
G3 X7.5741 Y7.3692 I0.0367 J0.0506
G3 X7.571 Y7.3885 I-0.0625 J0
G1 X7.5086 Y7.5806
G1 X7.6719 Y7.6993
G3 X7.6977 Y7.7499 I-0.0367 J0.0506
G3 X7.6352 Y7.8124 I-0.0625 J0
G1 X7.4302 Y7.8124
G0 Z0.25
G0 X4.899 Y7.8124
G1 Z-0.05 F30
G1 X4.8399 Y8.0037 F10
G3 X4.7208 Y8.0046 I-0.0597 J-0.0184
G1 X4.6583 Y7.8124
G1 X4.4563 Y7.8124
G3 X4.3938 Y7.7499 I0 J-0.0625
G3 X4.4196 Y7.6993 I0.0625 J0
G1 X4.583 Y7.5806
G1 X4.5206 Y7.3885
G3 X4.5176 Y7.3692 I0.0594 J-0.0193
G3 X4.6168 Y7.3186 I0.0625 J0
G1 X4.7802 Y7.4373
G1 X4.9436 Y7.3186
G3 X5.0428 Y7.3692 I0.0367 J0.0506
G3 X5.0398 Y7.3885 I-0.0625 J0
G1 X4.9773 Y7.5806
G1 X5.1407 Y7.6993
G3 X5.1665 Y7.7499 I-0.0367 J0.0506
G3 X5.104 Y7.8124 I-0.0625 J0
G1 X4.899 Y7.8124
G0 Z0.25
G0 X2.3677 Y7.8124
G1 Z-0.05 F30
G1 X2.3087 Y8.0037 F10
G3 X2.1895 Y8.0046 I-0.0597 J-0.0184
G1 X2.127 Y7.8124
G1 X1.9251 Y7.8124
G3 X1.8626 Y7.7499 I0 J-0.0625
G3 X1.8883 Y7.6993 I0.0625 J0
G1 X2.0517 Y7.5806
G1 X1.9894 Y7.3885
G3 X1.9863 Y7.3692 I0.0594 J-0.0193
G3 X2.0856 Y7.3186 I0.0625 J0
G1 X2.249 Y7.4373
G1 X2.4124 Y7.3186
G3 X2.5116 Y7.3692 I0.0367 J0.0506
G3 X2.5085 Y7.3885 I-0.0625 J0
G1 X2.4461 Y7.5806
G1 X2.6094 Y7.6993
G3 X2.6352 Y7.7499 I-0.0367 J0.0506
G3 X2.5727 Y7.8124 I-0.0625 J0
G1 X2.3677 Y7.8124
G0 Z0.25
G0 X4.207 Y9.9883
G1 Z-0.05 F30
G1 X4.0877 Y9.9883 F10
G2 X4.1009 Y9.9061 I-0.2493 J-0.0822
G2 X4.0966 Y9.8588 I-0.2625 J0
G2 X4.1981 Y9.8588 I0.0507 J-0.2576
G2 X4.1938 Y9.9061 I0.2582 J0.0473
G2 X4.207 Y9.9883 I0.2625 J0
G1 X4.2438 Y9.9061 F10
G2 X4.29 Y10.0383 I0.2125 J0 F10
G1 X4.0048 Y10.0383
G2 X4.0509 Y9.9061 I-0.1664 J-0.1322
G2 X3.9633 Y9.7342 I-0.2125 J0
G1 X3.888 Y9.6795
G1 X3.9168 Y9.591
G2 X3.9186 Y9.585 I-0.2021 J-0.0656
G1 X3.9452 Y9.6669
G2 X4.3503 Y9.664 I0.2021 J-0.0656
G1 X4.3754 Y9.5827
G2 X4.378 Y9.591 I0.2046 J-0.0573
G1 X4.4067 Y9.6795
G1 X4.3314 Y9.7342
G2 X4.2438 Y9.9061 I0.1249 J0.1719
G1 X4.2938 Y9.9061 F10
G2 X4.4563 Y10.0686 I0.1625 J0 F10
G1 X4.5856 Y10.0686
G1 X4.592 Y10.0883
G1 X3.701 Y10.0883
G1 X3.7071 Y10.0686
G1 X3.8384 Y10.0686
G2 X4.0009 Y9.9061 I0 J-0.1625
G2 X3.9339 Y9.7746 I-0.1625 J0
G1 X3.8293 Y9.6986
G1 X3.8692 Y9.5756
G2 X3.8771 Y9.5285 I-0.1546 J-0.0502
G1 X3.9528 Y9.5285
G1 X3.9927 Y9.6514
G2 X4.3025 Y9.6493 I0.1546 J-0.0502
G1 X4.3399 Y9.5285
G1 X4.4176 Y9.5285
G2 X4.4255 Y9.5756 I0.1625 J-0.0031
G1 X4.4655 Y9.6986
G1 X4.3608 Y9.7746
G2 X4.2938 Y9.9061 I0.0955 J0.1315
G1 X4.3438 Y9.9061 F10
G2 X4.4563 Y10.0186 I0.1125 J0 F10
G1 X4.622 Y10.0186
G1 X4.6609 Y10.1383
G1 X3.6333 Y10.1383
G1 X3.6703 Y10.0186
G1 X3.8384 Y10.0186
G2 X3.9509 Y9.9061 I0 J-0.1125
G2 X3.9045 Y9.8151 I-0.1125 J0
G1 X3.7705 Y9.7177
G1 X3.8217 Y9.5601
G2 X3.8272 Y9.5254 I-0.107 J-0.0347
G2 X3.8168 Y9.4783 I-0.1125 J0
G2 X3.8235 Y9.4785 I0.0067 J-0.1123
G1 X3.9891 Y9.4785
G1 X4.0403 Y9.636
G2 X4.2548 Y9.6345 I0.107 J-0.0347
G1 X4.303 Y9.4785
G1 X4.4712 Y9.4785
G2 X4.4779 Y9.4783 I0 J-0.1125
G2 X4.4676 Y9.5254 I0.1021 J0.0471
G2 X4.4731 Y9.5601 I0.1125 J0
G1 X4.5242 Y9.7177
G1 X4.3902 Y9.8151
G2 X4.3438 Y9.9061 I0.0661 J0.091
G0 Z0.25
G0 X1.6758 Y9.9883
G1 Z-0.05 F30
G1 X1.5564 Y9.9883 F10
G2 X1.5697 Y9.9061 I-0.2493 J-0.0822
G2 X1.5654 Y9.8588 I-0.2625 J0
G2 X1.6669 Y9.8588 I0.0507 J-0.2576
G2 X1.6626 Y9.9061 I0.2582 J0.0473
G2 X1.6758 Y9.9883 I0.2625 J0
G1 X1.7126 Y9.9061 F10
G2 X1.7587 Y10.0383 I0.2125 J0 F10
G1 X1.4735 Y10.0383
G2 X1.5197 Y9.9061 I-0.1664 J-0.1322
G2 X1.4321 Y9.7342 I-0.2125 J0
G1 X1.3568 Y9.6795
G1 X1.3855 Y9.591
G2 X1.3874 Y9.585 I-0.2021 J-0.0656
G1 X1.4139 Y9.6669
G2 X1.8191 Y9.664 I0.2021 J-0.0656
G1 X1.8442 Y9.5827
G2 X1.8467 Y9.591 I0.2046 J-0.0573
G1 X1.8754 Y9.6795
G1 X1.8002 Y9.7342
G2 X1.7126 Y9.9061 I0.1249 J0.1719
G1 X1.7626 Y9.9061 F10
G2 X1.9251 Y10.0686 I0.1625 J0 F10
G1 X2.0544 Y10.0686
G1 X2.0608 Y10.0883
G1 X1.1698 Y10.0883
G1 X1.1759 Y10.0686
G1 X1.3072 Y10.0686
G2 X1.4697 Y9.9061 I0 J-0.1625
G2 X1.4027 Y9.7746 I-0.1625 J0
G1 X1.298 Y9.6986
G1 X1.338 Y9.5756
G2 X1.3459 Y9.5285 I-0.1546 J-0.0502
G1 X1.4216 Y9.5285
G1 X1.4615 Y9.6514
G2 X1.7713 Y9.6493 I0.1546 J-0.0502
G1 X1.8087 Y9.5285
G1 X1.8863 Y9.5285
G2 X1.8943 Y9.5756 I0.1625 J-0.0031
G1 X1.9342 Y9.6986
G1 X1.8296 Y9.7746
G2 X1.7626 Y9.9061 I0.0955 J0.1315
G1 X1.8126 Y9.9061 F10
G2 X1.9251 Y10.0186 I0.1125 J0 F10
G1 X2.0907 Y10.0186
G1 X2.1296 Y10.1383
G1 X1.102 Y10.1383
G1 X1.139 Y10.0186
G1 X1.3072 Y10.0186
G2 X1.4197 Y9.9061 I0 J-0.1125
G2 X1.3733 Y9.8151 I-0.1125 J0
G1 X1.2392 Y9.7177
G1 X1.2904 Y9.5601
G2 X1.2959 Y9.5254 I-0.107 J-0.0347
G2 X1.2855 Y9.4783 I-0.1125 J0
G2 X1.2923 Y9.4785 I0.0067 J-0.1123
G1 X1.4579 Y9.4785
G1 X1.509 Y9.636
G2 X1.7235 Y9.6345 I0.107 J-0.0347
G1 X1.7718 Y9.4785
G1 X1.9399 Y9.4785
G2 X1.9467 Y9.4783 I0 J-0.1125
G2 X1.9363 Y9.5254 I0.1021 J0.0471
G2 X1.9418 Y9.5601 I0.1125 J0
G1 X1.993 Y9.7177
G1 X1.8589 Y9.8151
G2 X1.8126 Y9.9061 I0.0661 J0.091
G0 Z0.25
G0 X6.7383 Y9.9883
G1 Z-0.05 F30
G1 X6.6189 Y9.9883 F10
G2 X6.6322 Y9.9061 I-0.2493 J-0.0822
G2 X6.6279 Y9.8588 I-0.2625 J0
G2 X6.7294 Y9.8588 I0.0507 J-0.2576
G2 X6.7251 Y9.9061 I0.2582 J0.0473
G2 X6.7383 Y9.9883 I0.2625 J0
G1 X6.7751 Y9.9061 F10
G2 X6.8212 Y10.0383 I0.2125 J0 F10
G1 X6.536 Y10.0383
G2 X6.5822 Y9.9061 I-0.1664 J-0.1322
G2 X6.4946 Y9.7342 I-0.2125 J0
G1 X6.4193 Y9.6795
G1 X6.448 Y9.591
G2 X6.4499 Y9.585 I-0.2021 J-0.0656
G1 X6.4764 Y9.6669
G2 X6.8816 Y9.664 I0.2021 J-0.0656
G1 X6.9067 Y9.5827
G2 X6.9092 Y9.591 I0.2046 J-0.0573
G1 X6.9379 Y9.6795
G1 X6.8627 Y9.7342
G2 X6.7751 Y9.9061 I0.1249 J0.1719
G1 X6.8251 Y9.9061 F10
G2 X6.9876 Y10.0686 I0.1625 J0 F10
G1 X7.1169 Y10.0686
G1 X7.1233 Y10.0883
G1 X6.2323 Y10.0883
G1 X6.2384 Y10.0686
G1 X6.3697 Y10.0686
G2 X6.5322 Y9.9061 I0 J-0.1625
G2 X6.4652 Y9.7746 I-0.1625 J0
G1 X6.3605 Y9.6986
G1 X6.4005 Y9.5756
G2 X6.4084 Y9.5285 I-0.1546 J-0.0502
G1 X6.4841 Y9.5285
G1 X6.524 Y9.6514
G2 X6.8338 Y9.6493 I0.1546 J-0.0502
G1 X6.8712 Y9.5285
G1 X6.9488 Y9.5285
G2 X6.9568 Y9.5756 I0.1625 J-0.0031
G1 X6.9967 Y9.6986
G1 X6.8921 Y9.7746
G2 X6.8251 Y9.9061 I0.0955 J0.1315
G1 X6.8751 Y9.9061 F10
G2 X6.9876 Y10.0186 I0.1125 J0 F10
G1 X7.1532 Y10.0186
G1 X7.1921 Y10.1383
G1 X6.1645 Y10.1383
G1 X6.2015 Y10.0186
G1 X6.3697 Y10.0186
G2 X6.4822 Y9.9061 I0 J-0.1125
G2 X6.4358 Y9.8151 I-0.1125 J0
G1 X6.3017 Y9.7177
G1 X6.3529 Y9.5601
G2 X6.3584 Y9.5254 I-0.107 J-0.0347
G2 X6.348 Y9.4783 I-0.1125 J0
G2 X6.3548 Y9.4785 I0.0067 J-0.1123
G1 X6.5204 Y9.4785
G1 X6.5715 Y9.636
G2 X6.786 Y9.6345 I0.107 J-0.0347
G1 X6.8343 Y9.4785
G1 X7.0024 Y9.4785
G2 X7.0092 Y9.4783 I0 J-0.1125
G2 X6.9988 Y9.5254 I0.1021 J0.0471
G2 X7.0043 Y9.5601 I0.1125 J0
G1 X7.0555 Y9.7177
G1 X6.9214 Y9.8151
G2 X6.8751 Y9.9061 I0.0661 J0.091
G0 Z0.25
G0 X2.9415 Y9.9883
G1 Z-0.05 F30
G1 X2.822 Y9.9883 F10
G2 X2.8352 Y9.9061 I-0.2493 J-0.0822
G2 X2.8309 Y9.8588 I-0.2625 J0
G2 X2.9326 Y9.8588 I0.0508 J-0.2575
G2 X2.9283 Y9.9061 I0.2582 J0.0473
G2 X2.9415 Y9.9883 I0.2625 J0
G1 X2.9783 Y9.9061 F10
G2 X3.0244 Y10.0383 I0.2125 J0 F10
G1 X2.7391 Y10.0383
G2 X2.7852 Y9.9061 I-0.1664 J-0.1322
G2 X2.6976 Y9.7342 I-0.2125 J0
G1 X2.6224 Y9.6796
G1 X2.6512 Y9.5911
G2 X2.6531 Y9.585 I-0.2021 J-0.0657
G1 X2.6796 Y9.6669
G2 X3.0847 Y9.664 I0.2021 J-0.0656
G1 X3.1098 Y9.583
G2 X3.1123 Y9.5911 I0.2046 J-0.0576
G1 X3.1411 Y9.6796
G1 X3.0659 Y9.7342
G2 X2.9783 Y9.9061 I0.1249 J0.1719
G1 X3.0283 Y9.9061 F10
G2 X3.1908 Y10.0686 I0.1625 J0 F10
G1 X3.32 Y10.0686
G1 X3.3264 Y10.0883
G1 X2.4354 Y10.0883
G1 X2.4415 Y10.0686
G1 X2.5727 Y10.0686
G2 X2.7352 Y9.9061 I0 J-0.1625
G2 X2.6682 Y9.7746 I-0.1625 J0
G1 X2.5636 Y9.6986
G1 X2.6036 Y9.5757
G2 X2.6116 Y9.5285 I-0.1545 J-0.0503
G1 X2.6873 Y9.5285
G1 X2.7272 Y9.6514
G2 X3.037 Y9.6493 I0.1546 J-0.0502
G1 X3.0743 Y9.5285
G1 X3.1519 Y9.5285
G2 X3.1598 Y9.5757 I0.1625 J-0.0031
G1 X3.1998 Y9.6986
G1 X3.0952 Y9.7746
G2 X3.0283 Y9.9061 I0.0955 J0.1315
G1 X3.0783 Y9.9061 F10
G2 X3.1908 Y10.0186 I0.1125 J0 F10
G1 X3.3564 Y10.0186
G1 X3.3952 Y10.1383
G1 X2.3677 Y10.1383
G1 X2.4046 Y10.0186
G1 X2.5727 Y10.0186
G2 X2.6852 Y9.9061 I0 J-0.1125
G2 X2.6388 Y9.8151 I-0.1125 J0
G1 X2.5048 Y9.7177
G1 X2.5561 Y9.5602
G2 X2.5616 Y9.5254 I-0.107 J-0.0348
G2 X2.5512 Y9.4783 I-0.1125 J0
G2 X2.5578 Y9.4785 I0.0066 J-0.1123
G1 X2.7236 Y9.4785
G1 X2.7747 Y9.636
G2 X2.9892 Y9.6345 I0.107 J-0.0347
G1 X3.0375 Y9.4785
G1 X3.2056 Y9.4785
G2 X3.2122 Y9.4783 I0 J-0.1125
G2 X3.2019 Y9.5254 I0.1021 J0.0471
G2 X3.2074 Y9.5602 I0.1125 J0
G1 X3.2586 Y9.7177
G1 X3.1246 Y9.8151
G2 X3.0783 Y9.9061 I0.0661 J0.091
G0 Z0.25
G0 X5.4727 Y9.9883
G1 Z-0.05 F30
G1 X5.3532 Y9.9883 F10
G2 X5.3665 Y9.9061 I-0.2493 J-0.0822
G2 X5.3622 Y9.8588 I-0.2625 J0
G2 X5.4638 Y9.8588 I0.0508 J-0.2575
G2 X5.4595 Y9.9061 I0.2582 J0.0473
G2 X5.4727 Y9.9883 I0.2625 J0
G1 X5.5095 Y9.9061 F10
G2 X5.5557 Y10.0383 I0.2125 J0 F10
G1 X5.2703 Y10.0383
G2 X5.3165 Y9.9061 I-0.1664 J-0.1322
G2 X5.2289 Y9.7342 I-0.2125 J0
G1 X5.1537 Y9.6796
G1 X5.1824 Y9.5911
G2 X5.1843 Y9.585 I-0.2021 J-0.0657
G1 X5.2109 Y9.6669
G2 X5.616 Y9.664 I0.2021 J-0.0656
G1 X5.6411 Y9.583
G2 X5.6435 Y9.5911 I0.2046 J-0.0576
G1 X5.6723 Y9.6796
G1 X5.5971 Y9.7342
G2 X5.5095 Y9.9061 I0.1249 J0.1719
G1 X5.5595 Y9.9061 F10
G2 X5.722 Y10.0686 I0.1625 J0 F10
G1 X5.8513 Y10.0686
G1 X5.8577 Y10.0883
G1 X4.9667 Y10.0883
G1 X4.9728 Y10.0686
G1 X5.104 Y10.0686
G2 X5.2665 Y9.9061 I0 J-0.1625
G2 X5.1995 Y9.7746 I-0.1625 J0
G1 X5.0949 Y9.6986
G1 X5.1349 Y9.5757
G2 X5.1428 Y9.5285 I-0.1545 J-0.0503
G1 X5.2185 Y9.5285
G1 X5.2584 Y9.6514
G2 X5.5682 Y9.6493 I0.1546 J-0.0502
G1 X5.6056 Y9.5285
G1 X5.6832 Y9.5285
G2 X5.6911 Y9.5757 I0.1625 J-0.0031
G1 X5.7311 Y9.6986
G1 X5.6265 Y9.7746
G2 X5.5595 Y9.9061 I0.0955 J0.1315
G1 X5.6095 Y9.9061 F10
G2 X5.722 Y10.0186 I0.1125 J0 F10
G1 X5.8876 Y10.0186
G1 X5.9265 Y10.1383
G1 X4.8989 Y10.1383
G1 X4.9359 Y10.0186
G1 X5.104 Y10.0186
G2 X5.2165 Y9.9061 I0 J-0.1125
G2 X5.1701 Y9.8151 I-0.1125 J0
G1 X5.0361 Y9.7177
G1 X5.0873 Y9.5602
G2 X5.0928 Y9.5254 I-0.107 J-0.0348
G2 X5.0825 Y9.4783 I-0.1125 J0
G2 X5.0891 Y9.4785 I0.0066 J-0.1123
G1 X5.2548 Y9.4785
G1 X5.306 Y9.636
G2 X5.5205 Y9.6345 I0.107 J-0.0347
G1 X5.5687 Y9.4785
G1 X5.7369 Y9.4785
G2 X5.7435 Y9.4783 I0 J-0.1125
G2 X5.7331 Y9.5254 I0.1021 J0.0471
G2 X5.7386 Y9.5602 I0.1125 J0
G1 X5.7899 Y9.7177
G1 X5.6559 Y9.8151
G2 X5.6095 Y9.9061 I0.0661 J0.091
G0 Z0.25
G0 X7.4779 Y9.2651
G1 Z-0.05 F30
G2 X7.5567 Y9.1556 I-0.1664 J-0.203 F10
G1 X7.5567 Y9.2668
G2 X7.4779 Y9.2651 I-0.0451 J0.2586
G0 Z0.25
G0 X7.2787 Y9.3225
G1 Z-0.05 F30
G2 X7.3443 Y9.3225 I0.0328 J-0.2604 F10
G1 X7.3115 Y9.3464
G1 X7.2787 Y9.3225
G0 Z0.25
G0 X7.2362 Y9.3535
G1 Z-0.05 F30
G2 X7.2132 Y9.3389 I-0.1249 J0.1719 F10
G2 X7.1273 Y9.194 I-0.2108 J0.027
G1 X7.0521 Y9.1394
G1 X7.0809 Y9.051
G2 X7.0826 Y9.0455 I-0.2021 J-0.0657
G1 X7.1094 Y9.1278
G2 X7.5145 Y9.1248 I0.2021 J-0.0657
G1 X7.5409 Y9.0393
G1 X7.6067 Y9.0393
G1 X7.6067 Y9.3354
G2 X7.3867 Y9.3535 I-0.0951 J0.19
G1 X7.3115 Y9.4082
G1 X7.2362 Y9.3535
G1 X7.2068 Y9.3939 F10
G2 X7.1648 Y9.372 I-0.0955 J0.1315 F10
G2 X7.1649 Y9.366 I-0.1624 J-0.006
G2 X7.0979 Y9.2345 I-0.1625 J0
G1 X6.9934 Y9.1585
G1 X7.0334 Y9.0355
G2 X7.0413 Y8.9893 I-0.1545 J-0.0503
G1 X7.1169 Y8.9893
G1 X7.1569 Y9.1123
G2 X7.4667 Y9.11 I0.1545 J-0.0503
G1 X7.504 Y8.9893
G1 X7.6352 Y8.9893
G2 X7.6567 Y8.9879 I0 J-0.1625
G1 X7.6567 Y9.4523
G2 X7.4161 Y9.3939 I-0.1451 J0.0731
G1 X7.3115 Y9.47
G1 X7.2068 Y9.3939
G0 Z0.25
G0 X7.6567 Y9.6045
G1 Z-0.05 F30
G1 X7.6567 Y9.7209 F10
G1 X7.6261 Y9.6986
G1 X7.6567 Y9.6045
G0 Z0.25
G0 X7.6186 Y9.5602
G1 Z-0.05 F30
G2 X7.6241 Y9.5254 I-0.107 J-0.0348 F10
G2 X7.4455 Y9.4344 I-0.1125 J0
G1 X7.3115 Y9.5318
G1 X7.1774 Y9.4344
G2 X7.1046 Y9.4131 I-0.0661 J0.091
G2 X7.1149 Y9.366 I-0.1021 J-0.0471
G2 X7.0686 Y9.2749 I-0.1125 J0
G1 X6.9346 Y9.1776
G1 X6.9858 Y9.0201
G2 X6.9913 Y8.9853 I-0.107 J-0.0348
G2 X6.9814 Y8.9391 I-0.1125 J0
G2 X6.9876 Y8.9393 I0.0061 J-0.1123
G1 X7.1532 Y8.9393
G1 X7.2045 Y9.0969
G2 X7.419 Y9.0953 I0.107 J-0.0348
G1 X7.4671 Y8.9393
G1 X7.6352 Y8.9393
G2 X7.7067 Y8.9136 I0 J-0.1125
G1 X7.7067 Y9.8193
G2 X7.7013 Y9.8151 I-0.0715 J0.0868
G1 X7.5673 Y9.7177
G1 X7.6186 Y9.5602
G0 Z0.25
G0 X7.4779 Y7.1088
G1 Z-0.05 F30
G2 X7.5567 Y6.9993 I-0.1664 J-0.203 F10
G1 X7.5567 Y7.1106
G2 X7.4779 Y7.1088 I-0.0451 J0.2586
G0 Z0.25
G0 X7.2787 Y7.1663
G1 Z-0.05 F30
G2 X7.3443 Y7.1663 I0.0328 J-0.2604 F10
G1 X7.3115 Y7.1901
G1 X7.2787 Y7.1663
G0 Z0.25
G0 X7.2362 Y7.1972
G1 Z-0.05 F30
G2 X7.2132 Y7.1827 I-0.1249 J0.1719 F10
G2 X7.1273 Y7.0378 I-0.2108 J0.027
G1 X7.0521 Y6.9832
G1 X7.0809 Y6.8947
G2 X7.0826 Y6.8892 I-0.2021 J-0.0657
G1 X7.1094 Y6.9716
G2 X7.5145 Y6.9685 I0.2021 J-0.0657
G1 X7.5409 Y6.883
G1 X7.6067 Y6.883
G1 X7.6067 Y7.1791
G2 X7.3867 Y7.1972 I-0.0951 J0.19
G1 X7.3115 Y7.2519
G1 X7.2362 Y7.1972
G1 X7.2068 Y7.2377 F10
G2 X7.1648 Y7.2157 I-0.0955 J0.1315 F10
G2 X7.1649 Y7.2097 I-0.1624 J-0.006
G2 X7.0979 Y7.0782 I-0.1625 J0
G1 X6.9934 Y7.0023
G1 X7.0334 Y6.8793
G2 X7.0413 Y6.833 I-0.1545 J-0.0503
G1 X7.1169 Y6.833
G1 X7.1569 Y6.9561
G2 X7.4667 Y6.9538 I0.1545 J-0.0503
G1 X7.504 Y6.833
G1 X7.6352 Y6.833
G2 X7.6567 Y6.8316 I0 J-0.1625
G1 X7.6567 Y7.2961
G2 X7.4161 Y7.2377 I-0.1451 J0.0731
G1 X7.3115 Y7.3137
G1 X7.2068 Y7.2377
G0 Z0.25
G0 X7.6567 Y7.4483
G1 Z-0.05 F30
G1 X7.6567 Y7.5646 F10
G1 X7.6261 Y7.5424
G1 X7.6567 Y7.4483
G0 Z0.25
G0 X7.6186 Y7.404
G1 Z-0.05 F30
G2 X7.6241 Y7.3692 I-0.107 J-0.0348 F10
G2 X7.4455 Y7.2781 I-0.1125 J0
G1 X7.3115 Y7.3755
G1 X7.1774 Y7.2781
G2 X7.1046 Y7.2569 I-0.0661 J0.091
G2 X7.1149 Y7.2097 I-0.1021 J-0.0471
G2 X7.0686 Y7.1187 I-0.1125 J0
G1 X6.9346 Y7.0213
G1 X6.9858 Y6.8638
G2 X6.9913 Y6.829 I-0.107 J-0.0348
G2 X6.9814 Y6.7829 I-0.1125 J0
G2 X6.9876 Y6.783 I0.0061 J-0.1123
G1 X7.1532 Y6.783
G1 X7.2045 Y6.9406
G2 X7.419 Y6.939 I0.107 J-0.0348
G1 X7.4671 Y6.783
G1 X7.6352 Y6.783
G2 X7.7067 Y6.7574 I0 J-0.1125
G1 X7.7067 Y7.663
G2 X7.7013 Y7.6588 I-0.0715 J0.0868
G1 X7.5673 Y7.5615
G1 X7.6186 Y7.404
G0 Z0.25
G0 X0.738 Y6.9993
G1 Z-0.05 F30
G2 X0.8168 Y7.1088 I0.2453 J-0.0935 F10
G2 X0.738 Y7.1106 I-0.0337 J0.2603
G1 X0.738 Y6.9993
G0 Z0.25
G0 X0.9505 Y7.1663
G1 Z-0.05 F30
G2 X1.0161 Y7.1663 I0.0328 J-0.2604 F10
G1 X0.9833 Y7.1901
G1 X0.9505 Y7.1663
G0 Z0.25
G0 X0.908 Y7.1972
G1 Z-0.05 F30
G2 X0.688 Y7.1791 I-0.1249 J0.1719 F10
G1 X0.688 Y6.883
G1 X0.7524 Y6.883
G1 X0.7811 Y6.9714
G2 X1.1863 Y6.9686 I0.2021 J-0.0656
G1 X1.2115 Y6.8871
G2 X1.2138 Y6.8947 I0.2044 J-0.0581
G1 X1.2426 Y6.9832
G1 X1.1674 Y7.0378
G2 X1.0815 Y7.1827 I0.1249 J0.1719
G2 X1.0585 Y7.1972 I0.1019 J0.1865
G1 X0.9833 Y7.2519
G1 X0.908 Y7.1972
G1 X0.8786 Y7.2377 F10
G2 X0.638 Y7.2961 I-0.0955 J0.1315 F10
G1 X0.638 Y6.8316
G2 X0.6595 Y6.833 I0.0215 J-0.1611
G1 X0.7888 Y6.833
G1 X0.8287 Y6.956
G2 X1.1385 Y6.9538 I0.1546 J-0.0502
G1 X1.1759 Y6.833
G1 X1.2535 Y6.833
G2 X1.2614 Y6.8793 I0.1625 J-0.004
G1 X1.3014 Y7.0023
G1 X1.1968 Y7.0782
G2 X1.1298 Y7.2097 I0.0955 J0.1315
G2 X1.1299 Y7.2157 I0.1625 J0
G2 X1.0879 Y7.2377 I0.0535 J0.1534
G1 X0.9833 Y7.3137
G1 X0.8786 Y7.2377
G0 Z0.25
G0 X0.638 Y7.5646
G1 Z-0.05 F30
G1 X0.638 Y7.4483 F10
G1 X0.6686 Y7.5424
G1 X0.638 Y7.5646
G0 Z0.25
G0 X0.7274 Y7.5615
G1 Z-0.05 F30
G1 X0.5934 Y7.6588 F10
G2 X0.588 Y7.663 I0.0661 J0.091
G1 X0.588 Y6.7574
G2 X0.6595 Y6.783 I0.0715 J-0.0868
G1 X0.8251 Y6.783
G1 X0.8763 Y6.9406
G2 X1.0907 Y6.9391 I0.107 J-0.0347
G1 X1.139 Y6.783
G1 X1.3072 Y6.783
G2 X1.3133 Y6.7829 I0 J-0.1125
G2 X1.3034 Y6.829 I0.1026 J0.0461
G2 X1.3089 Y6.8638 I0.1125 J0
G1 X1.3602 Y7.0213
G1 X1.2262 Y7.1187
G2 X1.1798 Y7.2097 I0.0661 J0.091
G2 X1.1901 Y7.2569 I0.1125 J0
G2 X1.1173 Y7.2781 I-0.0067 J0.1123
G1 X0.9833 Y7.3755
G1 X0.8493 Y7.2781
G2 X0.6706 Y7.3692 I-0.0661 J0.091
G2 X0.6761 Y7.404 I0.1125 J0
G1 X0.7274 Y7.5615
G0 Z0.25
G0 X0.738 Y9.1556
G1 Z-0.05 F30
G2 X0.8168 Y9.2651 I0.2453 J-0.0935 F10
G2 X0.738 Y9.2668 I-0.0337 J0.2603
G1 X0.738 Y9.1556
G0 Z0.25
G0 X0.9505 Y9.3225
G1 Z-0.05 F30
G2 X1.0161 Y9.3225 I0.0328 J-0.2604 F10
G1 X0.9833 Y9.3464
G1 X0.9505 Y9.3225
G0 Z0.25
G0 X0.908 Y9.3535
G1 Z-0.05 F30
G2 X0.688 Y9.3354 I-0.1249 J0.1719 F10
G1 X0.688 Y9.0393
G1 X0.7524 Y9.0393
G1 X0.7811 Y9.1277
G2 X1.1863 Y9.1249 I0.2021 J-0.0656
G1 X1.2115 Y9.0433
G2 X1.2138 Y9.051 I0.2044 J-0.0581
G1 X1.2426 Y9.1394
G1 X1.1674 Y9.194
G2 X1.0815 Y9.3389 I0.1249 J0.1719
G2 X1.0585 Y9.3535 I0.1019 J0.1865
G1 X0.9833 Y9.4082
G1 X0.908 Y9.3535
G1 X0.8786 Y9.3939 F10
G2 X0.638 Y9.4523 I-0.0955 J0.1315 F10
G1 X0.638 Y8.9879
G2 X0.6595 Y8.9893 I0.0215 J-0.1611
G1 X0.7888 Y8.9893
G1 X0.8287 Y9.1123
G2 X1.1385 Y9.1101 I0.1546 J-0.0502
G1 X1.1759 Y8.9893
G1 X1.2535 Y8.9893
G2 X1.2614 Y9.0355 I0.1625 J-0.004
G1 X1.3014 Y9.1585
G1 X1.1968 Y9.2345
G2 X1.1298 Y9.366 I0.0955 J0.1315
G2 X1.1299 Y9.372 I0.1625 J0
G2 X1.0879 Y9.3939 I0.0535 J0.1534
G1 X0.9833 Y9.47
G1 X0.8786 Y9.3939
G0 Z0.25
G0 X0.638 Y9.7209
G1 Z-0.05 F30
G1 X0.638 Y9.6045 F10
G1 X0.6686 Y9.6986
G1 X0.638 Y9.7209
G0 Z0.25
G0 X0.7274 Y9.7177
G1 Z-0.05 F30
G1 X0.5934 Y9.8151 F10
G2 X0.588 Y9.8193 I0.0661 J0.091
G1 X0.588 Y8.9136
G2 X0.6595 Y8.9393 I0.0715 J-0.0868
G1 X0.8251 Y8.9393
G1 X0.8763 Y9.0968
G2 X1.0907 Y9.0953 I0.107 J-0.0347
G1 X1.139 Y8.9393
G1 X1.3072 Y8.9393
G2 X1.3133 Y8.9391 I0 J-0.1125
G2 X1.3034 Y8.9853 I0.1026 J0.0461
G2 X1.3089 Y9.0201 I0.1125 J0
G1 X1.3602 Y9.1776
G1 X1.2262 Y9.2749
G2 X1.1798 Y9.366 I0.0661 J0.091
G2 X1.1901 Y9.4131 I0.1125 J0
G2 X1.1173 Y9.4344 I-0.0067 J0.1123
G1 X0.9833 Y9.5318
G1 X0.8493 Y9.4344
G2 X0.6706 Y9.5254 I-0.0661 J0.091
G2 X0.6761 Y9.5602 I0.1125 J0
G1 X0.7274 Y9.7177
G0 Z0.25
G0 X7.4797 Y6.0293
G1 Z-0.05 F30
G2 X7.5567 Y5.9213 I-0.1682 J-0.2015 F10
G1 X7.5567 Y6.0313
G2 X7.4797 Y6.0293 I-0.0451 J0.2586
G0 Z0.25
G0 X7.2807 Y6.0885
G1 Z-0.05 F30
G2 X7.3422 Y6.0885 I0.0307 J-0.2607 F10
G1 X7.3115 Y6.1108
G1 X7.2807 Y6.0885
G0 Z0.25
G0 X7.2362 Y6.1179
G1 Z-0.05 F30
G2 X7.213 Y6.1033 I-0.1249 J0.1719 F10
G2 X7.1273 Y5.9596 I-0.2106 J0.0282
G1 X7.0521 Y5.905
G1 X7.0809 Y5.8166
G2 X7.0826 Y5.8111 I-0.2021 J-0.0657
G1 X7.1094 Y5.8935
G2 X7.5145 Y5.8905 I0.2021 J-0.0657
G1 X7.5409 Y5.805
G1 X7.6067 Y5.805
G1 X7.6067 Y6.0998
G2 X7.3867 Y6.1179 I-0.0951 J0.19
G1 X7.3115 Y6.1726
G1 X7.2362 Y6.1179
G1 X7.2068 Y6.1584 F10
G2 X7.1649 Y6.1364 I-0.0955 J0.1315 F10
G2 X7.1649 Y6.1315 I-0.1624 J-0.0049
G2 X7.0979 Y6.0001 I-0.1625 J0
G1 X6.9934 Y5.9241
G1 X7.0334 Y5.8011
G2 X7.0413 Y5.755 I-0.1545 J-0.0503
G1 X7.1169 Y5.755
G1 X7.1569 Y5.878
G2 X7.4667 Y5.8757 I0.1545 J-0.0503
G1 X7.504 Y5.755
G1 X7.6352 Y5.755
G2 X7.6567 Y5.7536 I0 J-0.1625
G1 X7.6567 Y6.2168
G2 X7.4161 Y6.1584 I-0.1451 J0.0731
G1 X7.3115 Y6.2344
G1 X7.2068 Y6.1584
G0 Z0.25
G0 X7.6567 Y6.369
G1 Z-0.05 F30
G1 X7.6567 Y6.4853 F10
G1 X7.6261 Y6.4631
G1 X7.6567 Y6.369
G0 Z0.25
G0 X7.6186 Y6.3246
G1 Z-0.05 F30
G2 X7.6241 Y6.2899 I-0.107 J-0.0348 F10
G2 X7.4455 Y6.1988 I-0.1125 J0
G1 X7.3115 Y6.2962
G1 X7.1774 Y6.1988
G2 X7.1051 Y6.1775 I-0.0661 J0.091
G2 X7.1149 Y6.1315 I-0.1027 J-0.046
G2 X7.0686 Y6.0405 I-0.1125 J0
G1 X6.9346 Y5.9431
G1 X6.9858 Y5.7856
G2 X6.9913 Y5.7508 I-0.107 J-0.0348
G2 X6.9815 Y5.7048 I-0.1125 J0
G2 X6.9876 Y5.705 I0.0061 J-0.1123
G1 X7.1532 Y5.705
G1 X7.2045 Y5.8626
G2 X7.419 Y5.861 I0.107 J-0.0348
G1 X7.4671 Y5.705
G1 X7.6352 Y5.705
G2 X7.7067 Y5.6793 I0 J-0.1125
G1 X7.7067 Y6.5837
G2 X7.7013 Y6.5795 I-0.0715 J0.0868
G1 X7.5673 Y6.4822
G1 X7.6186 Y6.3246
G0 Z0.25
G0 X0.738 Y5.9213
G1 Z-0.05 F30
G2 X0.8151 Y6.0293 I0.2453 J-0.0935 F10
G2 X0.738 Y6.0313 I-0.0319 J0.2605
G1 X0.738 Y5.9213
G0 Z0.25
G0 X0.9525 Y6.0885
G1 Z-0.05 F30
G2 X1.014 Y6.0885 I0.0307 J-0.2607 F10
G1 X0.9833 Y6.1108
G1 X0.9525 Y6.0885
G0 Z0.25
G0 X0.908 Y6.1179
G1 Z-0.05 F30
G2 X0.688 Y6.0998 I-0.1249 J0.1719 F10
G1 X0.688 Y5.805
G1 X0.7524 Y5.805
G1 X0.7811 Y5.8934
G2 X1.1863 Y5.8906 I0.2021 J-0.0656
G1 X1.2115 Y5.809
G2 X1.2138 Y5.8166 I0.2044 J-0.0581
G1 X1.2426 Y5.905
G1 X1.1674 Y5.9596
G2 X1.0817 Y6.1033 I0.1249 J0.1719
G2 X1.0585 Y6.1179 I0.1017 J0.1866
G1 X0.9833 Y6.1726
G1 X0.908 Y6.1179
G1 X0.8786 Y6.1584 F10
G2 X0.638 Y6.2168 I-0.0955 J0.1315 F10
G1 X0.638 Y5.7536
G2 X0.6595 Y5.755 I0.0215 J-0.1611
G1 X0.7888 Y5.755
G1 X0.8287 Y5.8779
G2 X1.1385 Y5.8758 I0.1546 J-0.0502
G1 X1.1759 Y5.755
G1 X1.2535 Y5.755
G2 X1.2614 Y5.8011 I0.1624 J-0.0042
G1 X1.3014 Y5.9241
G1 X1.1968 Y6.0001
G2 X1.1298 Y6.1315 I0.0955 J0.1315
G2 X1.1299 Y6.1364 I0.1625 J0
G2 X1.0879 Y6.1584 I0.0535 J0.1534
G1 X0.9833 Y6.2344
G1 X0.8786 Y6.1584
G0 Z0.25
G0 X0.638 Y6.4853
G1 Z-0.05 F30
G1 X0.638 Y6.369 F10
G1 X0.6686 Y6.4631
G1 X0.638 Y6.4853
G0 Z0.25
G0 X0.7274 Y6.4822
G1 Z-0.05 F30
G1 X0.5934 Y6.5795 F10
G2 X0.588 Y6.5837 I0.0661 J0.091
G1 X0.588 Y5.6793
G2 X0.6595 Y5.705 I0.0715 J-0.0868
G1 X0.8251 Y5.705
G1 X0.8763 Y5.8625
G2 X1.0907 Y5.861 I0.107 J-0.0347
G1 X1.139 Y5.705
G1 X1.3072 Y5.705
G2 X1.3132 Y5.7048 I0 J-0.1125
G2 X1.3034 Y5.7508 I0.1027 J0.046
G2 X1.3089 Y5.7856 I0.1125 J0
G1 X1.3602 Y5.9431
G1 X1.2262 Y6.0405
G2 X1.1798 Y6.1315 I0.0661 J0.091
G2 X1.1896 Y6.1775 I0.1125 J0
G2 X1.1173 Y6.1988 I-0.0062 J0.1123
G1 X0.9833 Y6.2962
G1 X0.8493 Y6.1988
G2 X0.6706 Y6.2899 I-0.0661 J0.091
G2 X0.6761 Y6.3246 I0.1125 J0
G1 X0.7274 Y6.4822
G0 Z0.25
G0 X7.4814 Y8.1853
G1 Z-0.05 F30
G2 X7.5567 Y8.0788 I-0.1699 J-0.2001 F10
G1 X7.5567 Y8.1875
G2 X7.4814 Y8.1853 I-0.0451 J0.2586
G0 Z0.25
G0 X7.2828 Y8.2462
G1 Z-0.05 F30
G2 X7.3402 Y8.2462 I0.0287 J-0.2609 F10
G1 X7.3115 Y8.267
G1 X7.2828 Y8.2462
G0 Z0.25
G0 X7.2362 Y8.2742
G1 Z-0.05 F30
G2 X7.213 Y8.2595 I-0.1249 J0.1719 F10
G2 X7.1273 Y8.1159 I-0.2106 J0.0282
G1 X7.0521 Y8.0612
G1 X7.0809 Y7.9728
G2 X7.0824 Y7.968 I-0.2021 J-0.0657
G1 X7.1094 Y8.051
G2 X7.5145 Y8.0479 I0.2021 J-0.0657
G1 X7.5409 Y7.9624
G1 X7.6067 Y7.9624
G1 X7.6067 Y8.2561
G2 X7.3867 Y8.2742 I-0.0951 J0.19
G1 X7.3115 Y8.3288
G1 X7.2362 Y8.2742
G1 X7.2068 Y8.3146 F10
G2 X7.1649 Y8.2927 I-0.0955 J0.1315 F10
G2 X7.1649 Y8.2878 I-0.1624 J-0.0049
G2 X7.0979 Y8.1563 I-0.1625 J0
G1 X6.9934 Y8.0803
G1 X7.0334 Y7.9573
G2 X7.0412 Y7.9124 I-0.1545 J-0.0503
G1 X7.1169 Y7.9124
G1 X7.1569 Y8.0355
G2 X7.4667 Y8.0332 I0.1545 J-0.0502
G1 X7.504 Y7.9124
G1 X7.6352 Y7.9124
G2 X7.6567 Y7.9109 I0 J-0.1625
G1 X7.6567 Y8.373
G2 X7.4161 Y8.3146 I-0.1451 J0.0731
G1 X7.3115 Y8.3907
G1 X7.2068 Y8.3146
G0 Z0.25
G0 X7.6567 Y8.5252
G1 Z-0.05 F30
G1 X7.6567 Y8.6416 F10
G1 X7.6261 Y8.6193
G1 X7.6567 Y8.5252
G0 Z0.25
G0 X7.6186 Y8.4809
G1 Z-0.05 F30
G2 X7.6241 Y8.4461 I-0.107 J-0.0348 F10
G2 X7.4455 Y8.3551 I-0.1125 J0
G1 X7.3115 Y8.4525
G1 X7.1774 Y8.3551
G2 X7.1051 Y8.3338 I-0.0661 J0.091
G2 X7.1149 Y8.2878 I-0.1027 J-0.046
G2 X7.0686 Y8.1968 I-0.1125 J0
G1 X6.9346 Y8.0994
G1 X6.9858 Y7.9419
G2 X6.9913 Y7.9071 I-0.107 J-0.0348
G2 X6.982 Y7.8622 I-0.1125 J0
G2 X6.9876 Y7.8624 I0.0056 J-0.1124
G1 X7.1532 Y7.8624
G1 X7.2045 Y8.02
G2 X7.419 Y8.0184 I0.107 J-0.0348
G1 X7.4671 Y7.8624
G1 X7.6352 Y7.8624
G2 X7.7067 Y7.8367 I0 J-0.1125
G1 X7.7067 Y8.74
G2 X7.7013 Y8.7358 I-0.0715 J0.0868
G1 X7.5673 Y8.6384
G1 X7.6186 Y8.4809
G0 Z0.25
G0 X0.738 Y8.0788
G1 Z-0.05 F30
G2 X0.8133 Y8.1853 I0.2453 J-0.0935 F10
G2 X0.738 Y8.1875 I-0.0302 J0.2608
G1 X0.738 Y8.0788
G0 Z0.25
G0 X0.9546 Y8.2462
G1 Z-0.05 F30
G2 X1.012 Y8.2462 I0.0287 J-0.2609 F10
G1 X0.9833 Y8.267
G1 X0.9546 Y8.2462
G0 Z0.25
G0 X0.908 Y8.2742
G1 Z-0.05 F30
G2 X0.688 Y8.2561 I-0.1249 J0.1719 F10
G1 X0.688 Y7.9624
G1 X0.7524 Y7.9624
G1 X0.7811 Y8.0509
G2 X1.1863 Y8.048 I0.2021 J-0.0656
G1 X1.2117 Y7.9658
G2 X1.2138 Y7.9728 I0.2042 J-0.0588
G1 X1.2426 Y8.0612
G1 X1.1674 Y8.1159
G2 X1.0817 Y8.2595 I0.1249 J0.1719
G2 X1.0585 Y8.2742 I0.1017 J0.1866
G1 X0.9833 Y8.3288
G1 X0.908 Y8.2742
G1 X0.8786 Y8.3146 F10
G2 X0.638 Y8.373 I-0.0955 J0.1315 F10
G1 X0.638 Y7.9109
G2 X0.6595 Y7.9124 I0.0215 J-0.1611
G1 X0.7888 Y7.9124
G1 X0.8287 Y8.0354
G2 X1.1385 Y8.0333 I0.1546 J-0.0502
G1 X1.1759 Y7.9124
G1 X1.2535 Y7.9124
G2 X1.2614 Y7.9573 I0.1624 J-0.0053
G1 X1.3014 Y8.0803
G1 X1.1968 Y8.1563
G2 X1.1298 Y8.2878 I0.0955 J0.1315
G2 X1.1299 Y8.2927 I0.1625 J0
G2 X1.0879 Y8.3146 I0.0535 J0.1534
G1 X0.9833 Y8.3907
G1 X0.8786 Y8.3146
G0 Z0.25
G0 X0.638 Y8.6416
G1 Z-0.05 F30
G1 X0.638 Y8.5252 F10
G1 X0.6686 Y8.6193
G1 X0.638 Y8.6416
G0 Z0.25
G0 X0.7274 Y8.6384
G1 Z-0.05 F30
G1 X0.5934 Y8.7358 F10
G2 X0.588 Y8.74 I0.0661 J0.091
G1 X0.588 Y7.8367
G2 X0.6595 Y7.8624 I0.0715 J-0.0868
G1 X0.8251 Y7.8624
G1 X0.8763 Y8.02
G2 X1.0907 Y8.0185 I0.107 J-0.0347
G1 X1.139 Y7.8624
G1 X1.3072 Y7.8624
G2 X1.3127 Y7.8622 I0 J-0.1125
G2 X1.3034 Y7.9071 I0.1032 J0.0449
G2 X1.3089 Y7.9419 I0.1125 J0
G1 X1.3602 Y8.0994
G1 X1.2262 Y8.1968
G2 X1.1798 Y8.2878 I0.0661 J0.091
G2 X1.1896 Y8.3338 I0.1125 J0
G2 X1.1173 Y8.3551 I-0.0062 J0.1123
G1 X0.9833 Y8.4525
G1 X0.8493 Y8.3551
G2 X0.6706 Y8.4461 I-0.0661 J0.091
G2 X0.6761 Y8.4809 I0.1125 J0
G1 X0.7274 Y8.6384
G0 Z0.25
G0 X1.579 Y5.4383
G1 Z-0.05 F30
G1 X1.6532 Y5.4383 F10
G2 X1.6256 Y5.5031 I0.2718 J0.1542
G1 X1.6161 Y5.51
G1 X1.6066 Y5.5031
G2 X1.579 Y5.4383 I-0.2994 J0.0894
G1 X1.5629 Y5.5333 F10
G2 X1.4721 Y5.3883 I-0.2557 J0.0591 F10
G1 X1.7601 Y5.3883
G2 X1.6693 Y5.5333 I0.165 J0.2042
G2 X1.662 Y5.5385 I0.147 J0.2175
G1 X1.6161 Y5.5718
G1 X1.5701 Y5.5384
G2 X1.5629 Y5.5333 I-0.1542 J0.2124
G1 X1.5408 Y5.5789 F10
G2 X1.5178 Y5.5643 I-0.1249 J0.172 F10
G2 X1.4321 Y5.4206 I-0.2106 J0.0282
G1 X1.3568 Y5.3659
G1 X1.3657 Y5.3383
G1 X1.8665 Y5.3383
G1 X1.8754 Y5.3659
G1 X1.8002 Y5.4206
G2 X1.7144 Y5.5643 I0.1249 J0.1719
G2 X1.6914 Y5.5789 I0.1019 J0.1865
G1 X1.6161 Y5.6336
G1 X1.5408 Y5.5789
G1 X1.5114 Y5.6193 F10
G2 X1.4696 Y5.5974 I-0.0955 J0.1315 F10
G2 X1.4697 Y5.5925 I-0.1624 J-0.005
G2 X1.4027 Y5.461 I-0.1625 J0
G1 X1.298 Y5.385
G1 X1.3294 Y5.2883
G1 X1.9028 Y5.2883
G1 X1.9342 Y5.385
G1 X1.8296 Y5.461
G2 X1.7626 Y5.5925 I0.0955 J0.1315
G2 X1.7626 Y5.5974 I0.1625 J0
G2 X1.7208 Y5.6194 I0.0537 J0.1534
G1 X1.6161 Y5.6954
G1 X1.5114 Y5.6193
G1 X1.482 Y5.6598 F10
G2 X1.4098 Y5.6385 I-0.0661 J0.091 F10
G2 X1.4197 Y5.5925 I-0.1027 J-0.046
G2 X1.3733 Y5.5015 I-0.1125 J0
G1 X1.2392 Y5.4041
G1 X1.2904 Y5.2465
G2 X1.2927 Y5.2383 I-0.107 J-0.0347
G1 X1.9395 Y5.2383
G2 X1.9418 Y5.2465 I0.1093 J-0.0265
G1 X1.993 Y5.4041
G1 X1.8589 Y5.5015
G2 X1.8126 Y5.5925 I0.0661 J0.091
G2 X1.8224 Y5.6385 I0.1125 J0
G2 X1.7502 Y5.6598 I-0.0061 J0.1123
G1 X1.6162 Y5.7572
G1 X1.482 Y5.6598
G0 Z0.25
G0 X4.1102 Y5.4383
G1 Z-0.05 F30
G1 X4.1845 Y5.4383 F10
G2 X4.1569 Y5.5031 I0.2718 J0.1542
G1 X4.1474 Y5.51
G1 X4.1378 Y5.5031
G2 X4.1102 Y5.4383 I-0.2994 J0.0894
G1 X4.0942 Y5.5333 F10
G2 X4.0034 Y5.3883 I-0.2557 J0.0591 F10
G1 X4.2913 Y5.3883
G2 X4.2006 Y5.5333 I0.165 J0.2042
G2 X4.1933 Y5.5384 I0.147 J0.2175
G1 X4.1473 Y5.5718
G1 X4.1015 Y5.5385
G2 X4.0942 Y5.5333 I-0.1543 J0.2124
G1 X4.0721 Y5.5789 F10
G2 X4.049 Y5.5643 I-0.1249 J0.1719 F10
G2 X3.9633 Y5.4206 I-0.2106 J0.0282
G1 X3.888 Y5.3659
G1 X3.897 Y5.3383
G1 X4.3977 Y5.3383
G1 X4.4067 Y5.3659
G1 X4.3314 Y5.4206
G2 X4.2457 Y5.5643 I0.1249 J0.1719
G2 X4.2227 Y5.5789 I0.1019 J0.1865
G1 X4.1473 Y5.6336
G1 X4.0721 Y5.5789
G1 X4.0427 Y5.6194 F10
G2 X4.0008 Y5.5974 I-0.0955 J0.1315 F10
G2 X4.0009 Y5.5925 I-0.1624 J-0.005
G2 X3.9339 Y5.461 I-0.1625 J0
G1 X3.8293 Y5.385
G1 X3.8607 Y5.2883
G1 X4.4341 Y5.2883
G1 X4.4655 Y5.385
G1 X4.3608 Y5.461
G2 X4.2938 Y5.5925 I0.0955 J0.1315
G2 X4.2939 Y5.5974 I0.1625 J0
G2 X4.2521 Y5.6193 I0.0537 J0.1534
G1 X4.1473 Y5.6954
G1 X4.0427 Y5.6194
G1 X4.0133 Y5.6598 F10
G2 X3.9411 Y5.6385 I-0.0661 J0.091 F10
G2 X3.9509 Y5.5925 I-0.1027 J-0.046
G2 X3.9045 Y5.5015 I-0.1125 J0
G1 X3.7705 Y5.4041
G1 X3.8217 Y5.2465
G2 X3.824 Y5.2383 I-0.107 J-0.0347
G1 X4.4707 Y5.2383
G2 X4.4731 Y5.2465 I0.1093 J-0.0265
G1 X4.5242 Y5.4041
G1 X4.3902 Y5.5015
G2 X4.3438 Y5.5925 I0.0661 J0.091
G2 X4.3537 Y5.6385 I0.1125 J0
G2 X4.2815 Y5.6598 I-0.0061 J0.1123
G1 X4.1473 Y5.7572
G1 X4.0133 Y5.6598
G0 Z0.25
G0 X6.6415 Y5.4383
G1 Z-0.05 F30
G1 X6.7157 Y5.4383 F10
G2 X6.6881 Y5.5031 I0.2718 J0.1542
G1 X6.6786 Y5.51
G1 X6.6691 Y5.5031
G2 X6.6415 Y5.4383 I-0.2994 J0.0894
G1 X6.6254 Y5.5333 F10
G2 X6.5346 Y5.3883 I-0.2557 J0.0591 F10
G1 X6.8226 Y5.3883
G2 X6.7318 Y5.5333 I0.165 J0.2042
G2 X6.7246 Y5.5384 I0.147 J0.2175
G1 X6.6786 Y5.5718
G1 X6.6327 Y5.5385
G2 X6.6254 Y5.5333 I-0.1543 J0.2124
G1 X6.6033 Y5.5789 F10
G2 X6.5803 Y5.5643 I-0.1249 J0.1719 F10
G2 X6.4946 Y5.4206 I-0.2106 J0.0282
G1 X6.4193 Y5.3659
G1 X6.4282 Y5.3383
G1 X6.929 Y5.3383
G1 X6.9379 Y5.3659
G1 X6.8627 Y5.4206
G2 X6.7769 Y5.5643 I0.1249 J0.1719
G2 X6.754 Y5.5789 I0.1019 J0.1865
G1 X6.6786 Y5.6336
G1 X6.6033 Y5.5789
G1 X6.5739 Y5.6194 F10
G2 X6.5321 Y5.5974 I-0.0955 J0.1315 F10
G2 X6.5322 Y5.5925 I-0.1624 J-0.005
G2 X6.4652 Y5.461 I-0.1625 J0
G1 X6.3605 Y5.385
G1 X6.3919 Y5.2883
G1 X6.9653 Y5.2883
G1 X6.9967 Y5.385
G1 X6.8921 Y5.461
G2 X6.8251 Y5.5925 I0.0955 J0.1315
G2 X6.8251 Y5.5974 I0.1625 J0
G2 X6.7833 Y5.6193 I0.0537 J0.1534
G1 X6.6786 Y5.6954
G1 X6.5739 Y5.6194
G1 X6.5445 Y5.6598 F10
G2 X6.4723 Y5.6385 I-0.0661 J0.091 F10
G2 X6.4822 Y5.5925 I-0.1027 J-0.046
G2 X6.4358 Y5.5015 I-0.1125 J0
G1 X6.3017 Y5.4041
G1 X6.3529 Y5.2465
G2 X6.3552 Y5.2383 I-0.107 J-0.0347
G1 X7.002 Y5.2383
G2 X7.0043 Y5.2465 I0.1093 J-0.0265
G1 X7.0555 Y5.4041
G1 X6.9214 Y5.5015
G2 X6.8751 Y5.5925 I0.0661 J0.091
G2 X6.8849 Y5.6385 I0.1125 J0
G2 X6.8127 Y5.6598 I-0.0061 J0.1123
G1 X6.6786 Y5.7572
G1 X6.5445 Y5.6598
G0 Z0.25
G0 X2.8445 Y5.4383
G1 Z-0.05 F30
G1 X2.9189 Y5.4383 F10
G2 X2.8914 Y5.503 I0.2718 J0.1542
G1 X2.8817 Y5.51
G1 X2.8721 Y5.503
G2 X2.8445 Y5.4383 I-0.2994 J0.0895
G1 X2.8284 Y5.5332 F10
G2 X2.7377 Y5.3883 I-0.2557 J0.0593 F10
G1 X3.0258 Y5.3883
G2 X2.935 Y5.5332 I0.165 J0.2042
G2 X2.9276 Y5.5385 I0.1468 J0.2176
G1 X2.8817 Y5.5718
G1 X2.8359 Y5.5385
G2 X2.8284 Y5.5332 I-0.1543 J0.2124
G1 X2.8065 Y5.5789 F10
G2 X2.7833 Y5.5643 I-0.1249 J0.1719 F10
G2 X2.6976 Y5.4206 I-0.2106 J0.0282
G1 X2.6224 Y5.3659
G1 X2.6314 Y5.3383
G1 X3.1321 Y5.3383
G1 X3.1411 Y5.3659
G1 X3.0659 Y5.4206
G2 X2.9801 Y5.5643 I0.1249 J0.1719
G2 X2.957 Y5.5789 I0.1017 J0.1866
G1 X2.8817 Y5.6336
G1 X2.8065 Y5.5789
G1 X2.7771 Y5.6194 F10
G2 X2.7351 Y5.5974 I-0.0955 J0.1315 F10
G2 X2.7352 Y5.5925 I-0.1624 J-0.0049
G2 X2.6682 Y5.461 I-0.1625 J0
G1 X2.5636 Y5.385
G1 X2.5951 Y5.2883
G1 X3.1684 Y5.2883
G1 X3.1998 Y5.385
G1 X3.0952 Y5.461
G2 X3.0283 Y5.5925 I0.0955 J0.1315
G2 X3.0283 Y5.5974 I0.1625 J0
G2 X2.9864 Y5.6194 I0.0535 J0.1534
G1 X2.8817 Y5.6954
G1 X2.7771 Y5.6194
G1 X2.7477 Y5.6598 F10
G2 X2.6754 Y5.6385 I-0.0661 J0.091 F10
G2 X2.6852 Y5.5925 I-0.1027 J-0.046
G2 X2.6388 Y5.5015 I-0.1125 J0
G1 X2.5048 Y5.4041
G1 X2.5561 Y5.2466
G2 X2.5584 Y5.2383 I-0.107 J-0.0348
G1 X3.205 Y5.2383
G2 X3.2074 Y5.2466 I0.1093 J-0.0265
G1 X3.2586 Y5.4041
G1 X3.1246 Y5.5015
G2 X3.0783 Y5.5925 I0.0661 J0.091
G2 X3.0881 Y5.6385 I0.1125 J0
G2 X3.0157 Y5.6598 I-0.0062 J0.1123
G1 X2.8817 Y5.7572
G1 X2.7477 Y5.6598
G0 Z0.25
G0 X5.3758 Y5.4383
G1 Z-0.05 F30
G1 X5.4502 Y5.4383 F10
G2 X5.4226 Y5.503 I0.2718 J0.1542
G1 X5.413 Y5.51
G1 X5.4034 Y5.503
G2 X5.3758 Y5.4383 I-0.2994 J0.0895
G1 X5.3597 Y5.5332 F10
G2 X5.2689 Y5.3883 I-0.2557 J0.0593 F10
G1 X5.557 Y5.3883
G2 X5.4663 Y5.5332 I0.165 J0.2042
G2 X5.4588 Y5.5385 I0.1468 J0.2176
G1 X5.413 Y5.5718
G1 X5.3671 Y5.5385
G2 X5.3597 Y5.5332 I-0.1543 J0.2124
G1 X5.3378 Y5.5789 F10
G2 X5.3146 Y5.5643 I-0.1249 J0.1719 F10
G2 X5.2289 Y5.4206 I-0.2106 J0.0282
G1 X5.1537 Y5.3659
G1 X5.1627 Y5.3383
G1 X5.6633 Y5.3383
G1 X5.6723 Y5.3659
G1 X5.5971 Y5.4206
G2 X5.5114 Y5.5643 I0.1249 J0.1719
G2 X5.4882 Y5.5789 I0.1017 J0.1866
G1 X5.413 Y5.6336
G1 X5.3378 Y5.5789
G1 X5.3084 Y5.6194 F10
G2 X5.2664 Y5.5974 I-0.0955 J0.1315 F10
G2 X5.2665 Y5.5925 I-0.1624 J-0.0049
G2 X5.1995 Y5.461 I-0.1625 J0
G1 X5.0949 Y5.385
G1 X5.1263 Y5.2883
G1 X5.6996 Y5.2883
G1 X5.7311 Y5.385
G1 X5.6265 Y5.461
G2 X5.5595 Y5.5925 I0.0955 J0.1315
G2 X5.5596 Y5.5974 I0.1625 J0
G2 X5.5176 Y5.6194 I0.0535 J0.1534
G1 X5.413 Y5.6954
G1 X5.3084 Y5.6194
G1 X5.279 Y5.6598 F10
G2 X5.2066 Y5.6385 I-0.0661 J0.091 F10
G2 X5.2165 Y5.5925 I-0.1027 J-0.046
G2 X5.1701 Y5.5015 I-0.1125 J0
G1 X5.0361 Y5.4041
G1 X5.0873 Y5.2466
G2 X5.0897 Y5.2383 I-0.107 J-0.0348
G1 X5.7363 Y5.2383
G2 X5.7386 Y5.2466 I0.1093 J-0.0265
G1 X5.7899 Y5.4041
G1 X5.6559 Y5.5015
G2 X5.6095 Y5.5925 I0.0661 J0.091
G2 X5.6194 Y5.6385 I0.1125 J0
G2 X5.547 Y5.6598 I-0.0062 J0.1123
G1 X5.413 Y5.7572
G1 X5.279 Y5.6598
G0 Z0.25
G0 X7.6567 Y10.0883
G1 Z-0.05 F30
G1 X7.4979 Y10.0883 F10
G1 X7.504 Y10.0686
G1 X7.6352 Y10.0686
G2 X7.6567 Y10.0672 I0 J-0.1625
G1 X7.6567 Y10.0883
G1 X7.7067 Y10.1383 F10
G1 X7.4302 Y10.1383 F10
G1 X7.4671 Y10.0186
G1 X7.6352 Y10.0186
G2 X7.7067 Y9.9929 I0 J-0.1125
G1 X7.7067 Y10.1383
G0 Z0.25
G0 X0.7952 Y10.0883
G1 Z-0.05 F30
G1 X0.638 Y10.0883 F10
G1 X0.638 Y10.0672
G2 X0.6595 Y10.0686 I0.0215 J-0.1611
G1 X0.7888 Y10.0686
G1 X0.7952 Y10.0883
G1 X0.8251 Y10.0186 F10
G1 X0.864 Y10.1383 F10
G1 X0.588 Y10.1383
G1 X0.588 Y9.9929
G2 X0.6595 Y10.0186 I0.0715 J-0.0868
G1 X0.8251 Y10.0186
G0 Z0.25
G0 X7.6567 Y5.2909
G1 Z-0.05 F30
G1 X7.6567 Y5.4073 F10
G1 X7.6261 Y5.385
G1 X7.6567 Y5.2909
G1 X7.6186 Y5.2466 F10
G2 X7.6209 Y5.2383 I-0.107 J-0.0348 F10
G1 X7.7067 Y5.2383
G1 X7.7067 Y5.5057
G2 X7.7013 Y5.5015 I-0.0715 J0.0868
G1 X7.5673 Y5.4041
G1 X7.6186 Y5.2466
G0 Z0.25
G0 X0.638 Y5.4073
G1 Z-0.05 F30
G1 X0.638 Y5.2909 F10
G1 X0.6686 Y5.385
G1 X0.638 Y5.4073
G1 X0.7274 Y5.4041 F10
G1 X0.5934 Y5.5015 F10
G2 X0.588 Y5.5057 I0.0661 J0.091
G1 X0.588 Y5.2383
G1 X0.6738 Y5.2383
G2 X0.6761 Y5.2466 I0.1093 J-0.0265
G1 X0.7274 Y5.4041
G0 Z0.25
G0 X4.7515 Y8.2462
G1 Z-0.05 F30
G2 X4.8089 Y8.2462 I0.0287 J-0.2609 F10
G1 X4.7802 Y8.267
G1 X4.7515 Y8.2462
G1 X4.705 Y8.2742 F10
G2 X4.6818 Y8.2595 I-0.1249 J0.1719 F10
G2 X4.5961 Y8.1159 I-0.2106 J0.0282
G1 X4.5209 Y8.0612
G1 X4.5496 Y7.9728
G2 X4.5511 Y7.968 I-0.2021 J-0.0657
G1 X4.5781 Y8.051
G2 X4.9833 Y8.0479 I0.2021 J-0.0657
G1 X5.0086 Y7.9658
G2 X5.0107 Y7.9727 I0.2042 J-0.0587
G1 X5.0395 Y8.0612
G1 X4.9642 Y8.1159
G2 X4.8785 Y8.2596 I0.1249 J0.1719
G2 X4.8554 Y8.2742 I0.1019 J0.1865
G1 X4.7802 Y8.3288
G1 X4.705 Y8.2742
G1 X4.6756 Y8.3146 F10
G2 X4.6336 Y8.2927 I-0.0955 J0.1315 F10
G2 X4.6337 Y8.2878 I-0.1624 J-0.0049
G2 X4.5667 Y8.1563 I-0.1625 J0
G1 X4.4621 Y8.0803
G1 X4.5021 Y7.9573
G2 X4.51 Y7.9124 I-0.1545 J-0.0503
G1 X4.5856 Y7.9124
G1 X4.6257 Y8.0355
G2 X4.9355 Y8.0332 I0.1545 J-0.0502
G1 X4.9728 Y7.9124
G1 X5.0504 Y7.9124
G2 X5.0583 Y7.9573 I0.1624 J-0.0053
G1 X5.0982 Y8.0803
G1 X4.9936 Y8.1563
G2 X4.9266 Y8.2878 I0.0955 J0.1315
G2 X4.9267 Y8.2927 I0.1625 J0
G2 X4.8848 Y8.3146 I0.0537 J0.1534
G1 X4.7802 Y8.3907
G1 X4.6756 Y8.3146
G1 X4.6462 Y8.3551 F10
G2 X4.5738 Y8.3338 I-0.0661 J0.091 F10
G2 X4.5837 Y8.2878 I-0.1027 J-0.046
G2 X4.5373 Y8.1968 I-0.1125 J0
G1 X4.4033 Y8.0994
G1 X4.4546 Y7.9419
G2 X4.4601 Y7.9071 I-0.107 J-0.0348
G2 X4.4507 Y7.8622 I-0.1125 J0
G2 X4.4563 Y7.8624 I0.0056 J-0.1124
G1 X4.622 Y7.8624
G1 X4.6732 Y8.02
G2 X4.8877 Y8.0184 I0.107 J-0.0348
G1 X4.9359 Y7.8624
G1 X5.104 Y7.8624
G2 X5.1097 Y7.8622 I0 J-0.1125
G2 X5.1003 Y7.9071 I0.1032 J0.0449
G2 X5.1058 Y7.9418 I0.1125 J0
G1 X5.157 Y8.0994
G1 X5.023 Y8.1968
G2 X4.9766 Y8.2878 I0.0661 J0.091
G2 X4.9864 Y8.3338 I0.1125 J0
G2 X4.9142 Y8.3551 I-0.0061 J0.1123
G1 X4.7802 Y8.4525
G1 X4.6462 Y8.3551
G0 Z0.25
G0 X2.2203 Y8.2462
G1 Z-0.05 F30
G2 X2.2777 Y8.2462 I0.0287 J-0.2609 F10
G1 X2.249 Y8.267
G1 X2.2203 Y8.2462
G1 X2.1737 Y8.2742 F10
G2 X2.1505 Y8.2595 I-0.1249 J0.1719 F10
G2 X2.0648 Y8.1159 I-0.2106 J0.0282
G1 X1.9896 Y8.0612
G1 X2.0184 Y7.9728
G2 X2.0199 Y7.968 I-0.2021 J-0.0657
G1 X2.0469 Y8.051
G2 X2.452 Y8.0479 I0.2021 J-0.0657
G1 X2.4774 Y7.9658
G2 X2.4795 Y7.9727 I0.2042 J-0.0587
G1 X2.5082 Y8.0612
G1 X2.4329 Y8.1159
G2 X2.3472 Y8.2596 I0.1249 J0.1719
G2 X2.3242 Y8.2742 I0.1019 J0.1865
G1 X2.249 Y8.3288
G1 X2.1737 Y8.2742
G1 X2.1443 Y8.3146 F10
G2 X2.1024 Y8.2927 I-0.0955 J0.1315 F10
G2 X2.1024 Y8.2878 I-0.1624 J-0.0049
G2 X2.0354 Y8.1563 I-0.1625 J0
G1 X1.9309 Y8.0803
G1 X1.9709 Y7.9573
G2 X1.9787 Y7.9124 I-0.1545 J-0.0503
G1 X2.0544 Y7.9124
G1 X2.0944 Y8.0355
G2 X2.4042 Y8.0332 I0.1545 J-0.0502
G1 X2.4415 Y7.9124
G1 X2.5192 Y7.9124
G2 X2.527 Y7.9573 I0.1624 J-0.0053
G1 X2.567 Y8.0803
G1 X2.4623 Y8.1563
G2 X2.3953 Y8.2878 I0.0955 J0.1315
G2 X2.3954 Y8.2927 I0.1625 J0
G2 X2.3536 Y8.3146 I0.0537 J0.1534
G1 X2.249 Y8.3907
G1 X2.1443 Y8.3146
G1 X2.1149 Y8.3551 F10
G2 X2.0426 Y8.3338 I-0.0661 J0.091 F10
G2 X2.0524 Y8.2878 I-0.1027 J-0.046
G2 X2.0061 Y8.1968 I-0.1125 J0
G1 X1.8721 Y8.0994
G1 X1.9233 Y7.9419
G2 X1.9288 Y7.9071 I-0.107 J-0.0348
G2 X1.9195 Y7.8622 I-0.1125 J0
G2 X1.9251 Y7.8624 I0.0056 J-0.1124
G1 X2.0907 Y7.8624
G1 X2.142 Y8.02
G2 X2.3565 Y8.0184 I0.107 J-0.0348
G1 X2.4046 Y7.8624
G1 X2.5727 Y7.8624
G2 X2.5784 Y7.8622 I0 J-0.1125
G2 X2.5691 Y7.9071 I0.1032 J0.0449
G2 X2.5746 Y7.9418 I0.1125 J0
G1 X2.6258 Y8.0994
G1 X2.4917 Y8.1968
G2 X2.4453 Y8.2878 I0.0661 J0.091
G2 X2.4552 Y8.3338 I0.1125 J0
G2 X2.383 Y8.3551 I-0.0061 J0.1123
G1 X2.249 Y8.4525
G1 X2.1149 Y8.3551
G0 Z0.25
G0 X6.0171 Y8.2462
G1 Z-0.05 F30
G2 X6.0745 Y8.2462 I0.0287 J-0.2609 F10
G1 X6.0458 Y8.267
G1 X6.0171 Y8.2462
G1 X5.9705 Y8.2742 F10
G2 X5.9475 Y8.2596 I-0.1249 J0.1719 F10
G2 X5.8618 Y8.1159 I-0.2106 J0.0282
G1 X5.7865 Y8.0612
G1 X5.8152 Y7.9727
G2 X5.8167 Y7.9679 I-0.2021 J-0.0656
G1 X5.8436 Y8.0509
G2 X6.2488 Y8.048 I0.2021 J-0.0656
G1 X6.2742 Y7.9658
G2 X6.2763 Y7.9728 I0.2042 J-0.0588
G1 X6.3051 Y8.0612
G1 X6.2299 Y8.1159
G2 X6.1442 Y8.2595 I0.1249 J0.1719
G2 X6.121 Y8.2742 I0.1017 J0.1866
G1 X6.0458 Y8.3288
G1 X5.9705 Y8.2742
G1 X5.9411 Y8.3146 F10
G2 X5.8993 Y8.2927 I-0.0955 J0.1315 F10
G2 X5.8994 Y8.2878 I-0.1624 J-0.005
G2 X5.8324 Y8.1563 I-0.1625 J0
G1 X5.7277 Y8.0803
G1 X5.7677 Y7.9573
G2 X5.7755 Y7.9124 I-0.1546 J-0.0502
G1 X5.8513 Y7.9124
G1 X5.8912 Y8.0354
G2 X6.201 Y8.0333 I0.1546 J-0.0502
G1 X6.2384 Y7.9124
G1 X6.316 Y7.9124
G2 X6.3239 Y7.9573 I0.1624 J-0.0053
G1 X6.3639 Y8.0803
G1 X6.2593 Y8.1563
G2 X6.1923 Y8.2878 I0.0955 J0.1315
G2 X6.1924 Y8.2927 I0.1625 J0
G2 X6.1504 Y8.3146 I0.0535 J0.1534
G1 X6.0458 Y8.3907
G1 X5.9411 Y8.3146
G1 X5.9118 Y8.3551 F10
G2 X5.8395 Y8.3338 I-0.0661 J0.091 F10
G2 X5.8494 Y8.2878 I-0.1027 J-0.046
G2 X5.803 Y8.1968 I-0.1125 J0
G1 X5.669 Y8.0994
G1 X5.7201 Y7.9418
G2 X5.7256 Y7.9071 I-0.107 J-0.0347
G2 X5.7163 Y7.8622 I-0.1125 J0
G2 X5.722 Y7.8624 I0.0057 J-0.1124
G1 X5.8876 Y7.8624
G1 X5.9388 Y8.02
G2 X6.1532 Y8.0185 I0.107 J-0.0347
G1 X6.2015 Y7.8624
G1 X6.3697 Y7.8624
G2 X6.3752 Y7.8622 I0 J-0.1125
G2 X6.3659 Y7.9071 I0.1032 J0.0449
G2 X6.3714 Y7.9419 I0.1125 J0
G1 X6.4227 Y8.0994
G1 X6.2887 Y8.1968
G2 X6.2423 Y8.2878 I0.0661 J0.091
G2 X6.2521 Y8.3338 I0.1125 J0
G2 X6.1798 Y8.3551 I-0.0062 J0.1123
G1 X6.0458 Y8.4525
G1 X5.9118 Y8.3551
G0 Z0.25
G0 X3.4858 Y8.2462
G1 Z-0.05 F30
G2 X3.5432 Y8.2462 I0.0287 J-0.2609 F10
G1 X3.5145 Y8.267
G1 X3.4858 Y8.2462
G1 X3.4393 Y8.2742 F10
G2 X3.4163 Y8.2596 I-0.1249 J0.1719 F10
G2 X3.3305 Y8.1159 I-0.2106 J0.0282
G1 X3.2553 Y8.0612
G1 X3.284 Y7.9727
G2 X3.2855 Y7.9679 I-0.2021 J-0.0656
G1 X3.3124 Y8.0509
G2 X3.7175 Y8.048 I0.2021 J-0.0656
G1 X3.7429 Y7.9658
G2 X3.7451 Y7.9728 I0.2042 J-0.0588
G1 X3.7738 Y8.0612
G1 X3.6986 Y8.1159
G2 X3.6129 Y8.2595 I0.1249 J0.1719
G2 X3.5897 Y8.2742 I0.1017 J0.1866
G1 X3.5145 Y8.3288
G1 X3.4393 Y8.2742
G1 X3.4099 Y8.3146 F10
G2 X3.368 Y8.2927 I-0.0955 J0.1315 F10
G2 X3.3681 Y8.2878 I-0.1624 J-0.005
G2 X3.3011 Y8.1563 I-0.1625 J0
G1 X3.1965 Y8.0803
G1 X3.2364 Y7.9573
G2 X3.2443 Y7.9124 I-0.1546 J-0.0502
G1 X3.32 Y7.9124
G1 X3.3599 Y8.0354
G2 X3.6698 Y8.0333 I0.1546 J-0.0502
G1 X3.7071 Y7.9124
G1 X3.7847 Y7.9124
G2 X3.7926 Y7.9573 I0.1624 J-0.0053
G1 X3.8326 Y8.0803
G1 X3.728 Y8.1563
G2 X3.661 Y8.2878 I0.0955 J0.1315
G2 X3.6611 Y8.2927 I0.1625 J0
G2 X3.6191 Y8.3146 I0.0535 J0.1534
G1 X3.5145 Y8.3907
G1 X3.4099 Y8.3146
G1 X3.3805 Y8.3551 F10
G2 X3.3083 Y8.3338 I-0.0661 J0.091 F10
G2 X3.3181 Y8.2878 I-0.1027 J-0.046
G2 X3.2718 Y8.1968 I-0.1125 J0
G1 X3.1377 Y8.0994
G1 X3.1889 Y7.9418
G2 X3.1944 Y7.9071 I-0.107 J-0.0347
G2 X3.185 Y7.8622 I-0.1125 J0
G2 X3.1908 Y7.8624 I0.0057 J-0.1124
G1 X3.3564 Y7.8624
G1 X3.4075 Y8.02
G2 X3.622 Y8.0185 I0.107 J-0.0347
G1 X3.6703 Y7.8624
G1 X3.8384 Y7.8624
G2 X3.844 Y7.8622 I0 J-0.1125
G2 X3.8347 Y7.9071 I0.1032 J0.0449
G2 X3.8402 Y7.9419 I0.1125 J0
G1 X3.8914 Y8.0994
G1 X3.7574 Y8.1968
G2 X3.711 Y8.2878 I0.0661 J0.091
G2 X3.7209 Y8.3338 I0.1125 J0
G2 X3.6485 Y8.3551 I-0.0062 J0.1123
G1 X3.5145 Y8.4525
G1 X3.3805 Y8.3551
G0 Z0.25
G0 X4.7495 Y6.0885
G1 Z-0.05 F30
G2 X4.8109 Y6.0885 I0.0307 J-0.2607 F10
G1 X4.7802 Y6.1108
G1 X4.7495 Y6.0885
G1 X4.705 Y6.1179 F10
G2 X4.6818 Y6.1033 I-0.1249 J0.1719 F10
G2 X4.5961 Y5.9596 I-0.2106 J0.0282
G1 X4.5209 Y5.905
G1 X4.5496 Y5.8166
G2 X4.5513 Y5.8111 I-0.2021 J-0.0657
G1 X4.5781 Y5.8935
G2 X4.9833 Y5.8905 I0.2021 J-0.0657
G1 X5.0084 Y5.8089
G2 X5.0107 Y5.8164 I0.2044 J-0.0581
G1 X5.0395 Y5.9049
G1 X4.9642 Y5.9596
G2 X4.8785 Y6.1034 I0.1249 J0.1719
G2 X4.8554 Y6.1179 I0.1019 J0.1865
G1 X4.7802 Y6.1726
G1 X4.705 Y6.1179
G1 X4.6756 Y6.1584 F10
G2 X4.6336 Y6.1364 I-0.0955 J0.1315 F10
G2 X4.6337 Y6.1315 I-0.1624 J-0.0049
G2 X4.5667 Y6.0001 I-0.1625 J0
G1 X4.4621 Y5.9241
G1 X4.5021 Y5.8011
G2 X4.51 Y5.755 I-0.1545 J-0.0503
G1 X4.5857 Y5.755
G1 X4.6257 Y5.878
G2 X4.9355 Y5.8757 I0.1545 J-0.0503
G1 X4.9727 Y5.755
G1 X5.0504 Y5.755
G2 X5.0583 Y5.801 I0.1624 J-0.0042
G1 X5.0982 Y5.924
G1 X4.9936 Y6.0001
G2 X4.9266 Y6.1315 I0.0955 J0.1315
G2 X4.9267 Y6.1365 I0.1625 J0
G2 X4.8848 Y6.1584 I0.0537 J0.1534
G1 X4.7802 Y6.2344
G1 X4.6756 Y6.1584
G1 X4.6462 Y6.1988 F10
G2 X4.5738 Y6.1775 I-0.0661 J0.091 F10
G2 X4.5837 Y6.1315 I-0.1027 J-0.046
G2 X4.5373 Y6.0405 I-0.1125 J0
G1 X4.4033 Y5.9431
G1 X4.4546 Y5.7856
G2 X4.4601 Y5.7508 I-0.107 J-0.0348
G2 X4.4502 Y5.7048 I-0.1125 J0
G2 X4.4563 Y5.705 I0.0061 J-0.1123
G1 X4.622 Y5.705
G1 X4.6732 Y5.8626
G2 X4.8877 Y5.861 I0.107 J-0.0348
G1 X4.9359 Y5.705
G1 X5.104 Y5.705
G2 X5.1102 Y5.7048 I0 J-0.1125
G2 X5.1003 Y5.7508 I0.1027 J0.046
G2 X5.1058 Y5.7856 I0.1125 J0
G1 X5.157 Y5.9431
G1 X5.023 Y6.0405
G2 X4.9766 Y6.1315 I0.0661 J0.091
G2 X4.9864 Y6.1775 I0.1125 J0
G2 X4.9142 Y6.1988 I-0.0061 J0.1123
G1 X4.7802 Y6.2962
G1 X4.6462 Y6.1988
G0 Z0.25
G0 X4.7474 Y7.1663
G1 Z-0.05 F30
G2 X4.813 Y7.1663 I0.0328 J-0.2604 F10
G1 X4.7802 Y7.1901
G1 X4.7474 Y7.1663
G1 X4.705 Y7.1972 F10
G2 X4.682 Y7.1827 I-0.1249 J0.1719 F10
G2 X4.5961 Y7.0378 I-0.2108 J0.027
G1 X4.5209 Y6.9832
G1 X4.5496 Y6.8947
G2 X4.5514 Y6.8892 I-0.2021 J-0.0657
G1 X4.5781 Y6.9716
G2 X4.9833 Y6.9685 I0.2021 J-0.0657
G1 X5.0084 Y6.887
G2 X5.0107 Y6.8946 I0.2044 J-0.058
G1 X5.0395 Y6.9831
G1 X4.9642 Y7.0378
G2 X4.8783 Y7.1828 I0.1249 J0.1719
G2 X4.8554 Y7.1972 I0.102 J0.1864
G1 X4.7802 Y7.2519
G1 X4.705 Y7.1972
G1 X4.6756 Y7.2377 F10
G2 X4.6336 Y7.2157 I-0.0955 J0.1315 F10
G2 X4.6337 Y7.2097 I-0.1624 J-0.006
G2 X4.5667 Y7.0782 I-0.1625 J0
G1 X4.4621 Y7.0023
G1 X4.5021 Y6.8793
G2 X4.51 Y6.833 I-0.1545 J-0.0503
G1 X4.5857 Y6.833
G1 X4.6257 Y6.9561
G2 X4.9355 Y6.9538 I0.1545 J-0.0503
G1 X4.9727 Y6.833
G1 X5.0504 Y6.833
G2 X5.0583 Y6.8792 I0.1625 J-0.004
G1 X5.0982 Y7.0022
G1 X4.9936 Y7.0782
G2 X4.9266 Y7.2097 I0.0955 J0.1315
G2 X4.9267 Y7.2158 I0.1625 J0
G2 X4.8848 Y7.2377 I0.0536 J0.1534
G1 X4.7802 Y7.3137
G1 X4.6756 Y7.2377
G1 X4.6462 Y7.2781 F10
G2 X4.5733 Y7.2569 I-0.0661 J0.091 F10
G2 X4.5837 Y7.2097 I-0.1021 J-0.0471
G2 X4.5373 Y7.1187 I-0.1125 J0
G1 X4.4033 Y7.0213
G1 X4.4546 Y6.8638
G2 X4.4601 Y6.829 I-0.107 J-0.0348
G2 X4.4502 Y6.7829 I-0.1125 J0
G2 X4.4563 Y6.783 I0.0061 J-0.1123
G1 X4.622 Y6.783
G1 X4.6732 Y6.9406
G2 X4.8877 Y6.939 I0.107 J-0.0348
G1 X4.9359 Y6.783
G1 X5.104 Y6.783
G2 X5.1102 Y6.7829 I0 J-0.1125
G2 X5.1003 Y6.829 I0.1026 J0.0461
G2 X5.1058 Y6.8638 I0.1125 J0
G1 X5.157 Y7.0213
G1 X5.023 Y7.1187
G2 X4.9766 Y7.2097 I0.0661 J0.091
G2 X4.9869 Y7.2569 I0.1125 J0
G2 X4.9142 Y7.2781 I-0.0066 J0.1123
G1 X4.7802 Y7.3755
G1 X4.6462 Y7.2781
G0 Z0.25
G0 X2.2162 Y9.3225
G1 Z-0.05 F30
G2 X2.2818 Y9.3225 I0.0328 J-0.2604 F10
G1 X2.249 Y9.3464
G1 X2.2162 Y9.3225
G1 X2.1737 Y9.3535 F10
G2 X2.1507 Y9.3389 I-0.1249 J0.1719 F10
G2 X2.0648 Y9.194 I-0.2108 J0.027
G1 X1.9896 Y9.1394
G1 X2.0184 Y9.051
G2 X2.0201 Y9.0455 I-0.2021 J-0.0657
G1 X2.0469 Y9.1278
G2 X2.452 Y9.1248 I0.2021 J-0.0657
G1 X2.4772 Y9.0433
G2 X2.4795 Y9.0509 I0.2044 J-0.058
G1 X2.5082 Y9.1394
G1 X2.4329 Y9.194
G2 X2.3471 Y9.339 I0.1249 J0.1719
G2 X2.3242 Y9.3535 I0.102 J0.1864
G1 X2.249 Y9.4082
G1 X2.1737 Y9.3535
G1 X2.1443 Y9.3939 F10
G2 X2.1023 Y9.372 I-0.0955 J0.1315 F10
G2 X2.1024 Y9.366 I-0.1624 J-0.006
G2 X2.0354 Y9.2345 I-0.1625 J0
G1 X1.9309 Y9.1585
G1 X1.9709 Y9.0355
G2 X1.9788 Y8.9893 I-0.1545 J-0.0503
G1 X2.0544 Y8.9893
G1 X2.0944 Y9.1123
G2 X2.4042 Y9.11 I0.1545 J-0.0503
G1 X2.4415 Y8.9893
G1 X2.5191 Y8.9893
G2 X2.527 Y9.0354 I0.1625 J-0.004
G1 X2.567 Y9.1585
G1 X2.4623 Y9.2345
G2 X2.3953 Y9.366 I0.0955 J0.1315
G2 X2.3955 Y9.372 I0.1625 J0
G2 X2.3536 Y9.3939 I0.0536 J0.1534
G1 X2.249 Y9.47
G1 X2.1443 Y9.3939
G1 X2.1149 Y9.4344 F10
G2 X2.0421 Y9.4131 I-0.0661 J0.091 F10
G2 X2.0524 Y9.366 I-0.1021 J-0.0471
G2 X2.0061 Y9.2749 I-0.1125 J0
G1 X1.8721 Y9.1776
G1 X1.9233 Y9.0201
G2 X1.9288 Y8.9853 I-0.107 J-0.0348
G2 X1.9189 Y8.9391 I-0.1125 J0
G2 X1.9251 Y8.9393 I0.0061 J-0.1123
G1 X2.0907 Y8.9393
G1 X2.142 Y9.0969
G2 X2.3565 Y9.0953 I0.107 J-0.0348
G1 X2.4046 Y8.9393
G1 X2.5727 Y8.9393
G2 X2.579 Y8.9391 I0 J-0.1125
G2 X2.5691 Y8.9853 I0.1026 J0.0461
G2 X2.5746 Y9.02 I0.1125 J0
G1 X2.6258 Y9.1776
G1 X2.4917 Y9.2749
G2 X2.4453 Y9.366 I0.0661 J0.091
G2 X2.4557 Y9.4131 I0.1125 J0
G2 X2.383 Y9.4344 I-0.0066 J0.1123
G1 X2.249 Y9.5318
G1 X2.1149 Y9.4344
G0 Z0.25
G0 X2.2162 Y7.1663
G1 Z-0.05 F30
G2 X2.2818 Y7.1663 I0.0328 J-0.2604 F10
G1 X2.249 Y7.1901
G1 X2.2162 Y7.1663
G1 X2.1737 Y7.1972 F10
G2 X2.1507 Y7.1827 I-0.1249 J0.1719 F10
G2 X2.0648 Y7.0378 I-0.2108 J0.027
G1 X1.9896 Y6.9832
G1 X2.0184 Y6.8947
G2 X2.0201 Y6.8892 I-0.2021 J-0.0657
G1 X2.0469 Y6.9716
G2 X2.452 Y6.9685 I0.2021 J-0.0657
G1 X2.4772 Y6.887
G2 X2.4795 Y6.8946 I0.2044 J-0.058
G1 X2.5082 Y6.9831
G1 X2.4329 Y7.0378
G2 X2.3471 Y7.1828 I0.1249 J0.1719
G2 X2.3242 Y7.1972 I0.102 J0.1864
G1 X2.249 Y7.2519
G1 X2.1737 Y7.1972
G1 X2.1443 Y7.2377 F10
G2 X2.1023 Y7.2157 I-0.0955 J0.1315 F10
G2 X2.1024 Y7.2097 I-0.1624 J-0.006
G2 X2.0354 Y7.0782 I-0.1625 J0
G1 X1.9309 Y7.0023
G1 X1.9709 Y6.8793
G2 X1.9788 Y6.833 I-0.1545 J-0.0503
G1 X2.0544 Y6.833
G1 X2.0944 Y6.9561
G2 X2.4042 Y6.9538 I0.1545 J-0.0503
G1 X2.4415 Y6.833
G1 X2.5191 Y6.833
G2 X2.527 Y6.8792 I0.1625 J-0.004
G1 X2.567 Y7.0022
G1 X2.4623 Y7.0782
G2 X2.3953 Y7.2097 I0.0955 J0.1315
G2 X2.3955 Y7.2158 I0.1625 J0
G2 X2.3536 Y7.2377 I0.0536 J0.1534
G1 X2.249 Y7.3137
G1 X2.1443 Y7.2377
G1 X2.1149 Y7.2781 F10
G2 X2.0421 Y7.2569 I-0.0661 J0.091 F10
G2 X2.0524 Y7.2097 I-0.1021 J-0.0471
G2 X2.0061 Y7.1187 I-0.1125 J0
G1 X1.8721 Y7.0213
G1 X1.9233 Y6.8638
G2 X1.9288 Y6.829 I-0.107 J-0.0348
G2 X1.9189 Y6.7829 I-0.1125 J0
G2 X1.9251 Y6.783 I0.0061 J-0.1123
G1 X2.0907 Y6.783
G1 X2.142 Y6.9406
G2 X2.3565 Y6.939 I0.107 J-0.0348
G1 X2.4046 Y6.783
G1 X2.5727 Y6.783
G2 X2.579 Y6.7829 I0 J-0.1125
G2 X2.5691 Y6.829 I0.1026 J0.0461
G2 X2.5746 Y6.8638 I0.1125 J0
G1 X2.6258 Y7.0213
G1 X2.4917 Y7.1187
G2 X2.4453 Y7.2097 I0.0661 J0.091
G2 X2.4557 Y7.2569 I0.1125 J0
G2 X2.383 Y7.2781 I-0.0066 J0.1123
G1 X2.249 Y7.3755
G1 X2.1149 Y7.2781
G0 Z0.25
G0 X4.7474 Y9.3225
G1 Z-0.05 F30
G2 X4.813 Y9.3225 I0.0328 J-0.2604 F10
G1 X4.7802 Y9.3464
G1 X4.7474 Y9.3225
G1 X4.705 Y9.3535 F10
G2 X4.682 Y9.3389 I-0.1249 J0.1719 F10
G2 X4.5961 Y9.194 I-0.2108 J0.027
G1 X4.5209 Y9.1394
G1 X4.5496 Y9.051
G2 X4.5514 Y9.0455 I-0.2021 J-0.0657
G1 X4.5781 Y9.1278
G2 X4.9833 Y9.1248 I0.2021 J-0.0657
G1 X5.0084 Y9.0433
G2 X5.0107 Y9.0509 I0.2044 J-0.058
G1 X5.0395 Y9.1394
G1 X4.9642 Y9.194
G2 X4.8783 Y9.339 I0.1249 J0.1719
G2 X4.8554 Y9.3535 I0.102 J0.1864
G1 X4.7802 Y9.4082
G1 X4.705 Y9.3535
G1 X4.6756 Y9.3939 F10
G2 X4.6336 Y9.372 I-0.0955 J0.1315 F10
G2 X4.6337 Y9.366 I-0.1624 J-0.006
G2 X4.5667 Y9.2345 I-0.1625 J0
G1 X4.4621 Y9.1585
G1 X4.5021 Y9.0355
G2 X4.51 Y8.9893 I-0.1545 J-0.0503
G1 X4.5857 Y8.9893
G1 X4.6257 Y9.1123
G2 X4.9355 Y9.11 I0.1545 J-0.0503
G1 X4.9727 Y8.9893
G1 X5.0504 Y8.9893
G2 X5.0583 Y9.0354 I0.1625 J-0.004
G1 X5.0982 Y9.1585
G1 X4.9936 Y9.2345
G2 X4.9266 Y9.366 I0.0955 J0.1315
G2 X4.9267 Y9.372 I0.1625 J0
G2 X4.8848 Y9.3939 I0.0536 J0.1534
G1 X4.7802 Y9.47
G1 X4.6756 Y9.3939
G1 X4.6462 Y9.4344 F10
G2 X4.5733 Y9.4131 I-0.0661 J0.091 F10
G2 X4.5837 Y9.366 I-0.1021 J-0.0471
G2 X4.5373 Y9.2749 I-0.1125 J0
G1 X4.4033 Y9.1776
G1 X4.4546 Y9.0201
G2 X4.4601 Y8.9853 I-0.107 J-0.0348
G2 X4.4502 Y8.9391 I-0.1125 J0
G2 X4.4563 Y8.9393 I0.0061 J-0.1123
G1 X4.622 Y8.9393
G1 X4.6732 Y9.0969
G2 X4.8877 Y9.0953 I0.107 J-0.0348
G1 X4.9359 Y8.9393
G1 X5.104 Y8.9393
G2 X5.1102 Y8.9391 I0 J-0.1125
G2 X5.1003 Y8.9853 I0.1026 J0.0461
G2 X5.1058 Y9.02 I0.1125 J0
G1 X5.157 Y9.1776
G1 X5.023 Y9.2749
G2 X4.9766 Y9.366 I0.0661 J0.091
G2 X4.9869 Y9.4131 I0.1125 J0
G2 X4.9142 Y9.4344 I-0.0066 J0.1123
G1 X4.7802 Y9.5318
G1 X4.6462 Y9.4344
G0 Z0.25
G0 X2.2182 Y6.0885
G1 Z-0.05 F30
G2 X2.2797 Y6.0885 I0.0307 J-0.2607 F10
G1 X2.249 Y6.1108
G1 X2.2182 Y6.0885
G1 X2.1737 Y6.1179 F10
G2 X2.1505 Y6.1033 I-0.1249 J0.1719 F10
G2 X2.0648 Y5.9596 I-0.2106 J0.0282
G1 X1.9896 Y5.905
G1 X2.0184 Y5.8166
G2 X2.0201 Y5.8111 I-0.2021 J-0.0657
G1 X2.0469 Y5.8935
G2 X2.452 Y5.8905 I0.2021 J-0.0657
G1 X2.4772 Y5.8089
G2 X2.4795 Y5.8164 I0.2044 J-0.0581
G1 X2.5082 Y5.9049
G1 X2.4329 Y5.9596
G2 X2.3472 Y6.1034 I0.1249 J0.1719
G2 X2.3242 Y6.1179 I0.1019 J0.1865
G1 X2.249 Y6.1726
G1 X2.1737 Y6.1179
G1 X2.1443 Y6.1584 F10
G2 X2.1024 Y6.1364 I-0.0955 J0.1315 F10
G2 X2.1024 Y6.1315 I-0.1624 J-0.0049
G2 X2.0354 Y6.0001 I-0.1625 J0
G1 X1.9309 Y5.9241
G1 X1.9709 Y5.8011
G2 X1.9788 Y5.755 I-0.1545 J-0.0503
G1 X2.0544 Y5.755
G1 X2.0944 Y5.878
G2 X2.4042 Y5.8757 I0.1545 J-0.0503
G1 X2.4415 Y5.755
G1 X2.5192 Y5.755
G2 X2.527 Y5.801 I0.1624 J-0.0042
G1 X2.567 Y5.924
G1 X2.4623 Y6.0001
G2 X2.3953 Y6.1315 I0.0955 J0.1315
G2 X2.3954 Y6.1365 I0.1625 J0
G2 X2.3536 Y6.1584 I0.0537 J0.1534
G1 X2.249 Y6.2344
G1 X2.1443 Y6.1584
G1 X2.1149 Y6.1988 F10
G2 X2.0426 Y6.1775 I-0.0661 J0.091 F10
G2 X2.0524 Y6.1315 I-0.1027 J-0.046
G2 X2.0061 Y6.0405 I-0.1125 J0
G1 X1.8721 Y5.9431
G1 X1.9233 Y5.7856
G2 X1.9288 Y5.7508 I-0.107 J-0.0348
G2 X1.919 Y5.7048 I-0.1125 J0
G2 X1.9251 Y5.705 I0.0061 J-0.1123
G1 X2.0907 Y5.705
G1 X2.142 Y5.8626
G2 X2.3565 Y5.861 I0.107 J-0.0348
G1 X2.4046 Y5.705
G1 X2.5727 Y5.705
G2 X2.5789 Y5.7048 I0 J-0.1125
G2 X2.5691 Y5.7508 I0.1027 J0.046
G2 X2.5746 Y5.7856 I0.1125 J0
G1 X2.6258 Y5.9431
G1 X2.4917 Y6.0405
G2 X2.4453 Y6.1315 I0.0661 J0.091
G2 X2.4552 Y6.1775 I0.1125 J0
G2 X2.383 Y6.1988 I-0.0061 J0.1123
G1 X2.249 Y6.2962
G1 X2.1149 Y6.1988
G0 Z0.25
G0 X1.585 Y6.6274
G1 Z-0.05 F30
G2 X1.6471 Y6.6275 I0.0311 J-0.2606 F10
G1 X1.6161 Y6.65
G1 X1.585 Y6.6274
G1 X1.5408 Y6.6571 F10
G2 X1.5178 Y6.6425 I-0.1249 J0.1719 F10
G2 X1.4321 Y6.4986 I-0.2106 J0.028
G1 X1.3568 Y6.4439
G1 X1.3855 Y6.3555
G2 X1.3872 Y6.3499 I-0.2021 J-0.0656
G1 X1.4141 Y6.4325
G2 X1.8192 Y6.4295 I0.2021 J-0.0657
G1 X1.8444 Y6.3479
G2 X1.8467 Y6.3555 I0.2044 J-0.0581
G1 X1.8754 Y6.4439
G1 X1.8002 Y6.4986
G2 X1.7144 Y6.6425 I0.1249 J0.1719
G2 X1.6915 Y6.6571 I0.1019 J0.1865
G1 X1.6161 Y6.7118
G1 X1.5408 Y6.6571
G1 X1.5114 Y6.6976 F10
G2 X1.4696 Y6.6756 I-0.0955 J0.1315 F10
G2 X1.4697 Y6.6705 I-0.1624 J-0.0051
G2 X1.4027 Y6.5391 I-0.1625 J0
G1 X1.298 Y6.463
G1 X1.338 Y6.34
G2 X1.3458 Y6.294 I-0.1546 J-0.0502
G1 X1.4216 Y6.294
G1 X1.4616 Y6.4171
G2 X1.7714 Y6.4147 I0.1545 J-0.0503
G1 X1.8087 Y6.294
G1 X1.8864 Y6.294
G2 X1.8943 Y6.34 I0.1624 J-0.0042
G1 X1.9342 Y6.463
G1 X1.8296 Y6.5391
G2 X1.7626 Y6.6705 I0.0955 J0.1315
G2 X1.7626 Y6.6756 I0.1625 J0
G2 X1.7208 Y6.6975 I0.0537 J0.1534
G1 X1.6161 Y6.7736
G1 X1.5114 Y6.6976
G1 X1.482 Y6.738 F10
G2 X1.4098 Y6.7167 I-0.0661 J0.091 F10
G2 X1.4197 Y6.6705 I-0.1026 J-0.0461
G2 X1.3733 Y6.5795 I-0.1125 J0
G1 X1.2392 Y6.4821
G1 X1.2904 Y6.3246
G2 X1.2959 Y6.2899 I-0.107 J-0.0347
G2 X1.2861 Y6.2438 I-0.1125 J0
G2 X1.2923 Y6.244 I0.0062 J-0.1123
G1 X1.4579 Y6.244
G1 X1.5092 Y6.4016
G2 X1.7237 Y6.4 I0.107 J-0.0348
G1 X1.7718 Y6.244
G1 X1.9399 Y6.244
G2 X1.9462 Y6.2438 I0 J-0.1125
G2 X1.9363 Y6.2899 I0.1027 J0.046
G2 X1.9418 Y6.3246 I0.1125 J0
G1 X1.993 Y6.4821
G1 X1.8589 Y6.5795
G2 X1.8126 Y6.6705 I0.0661 J0.091
G2 X1.8225 Y6.7167 I0.1125 J0
G2 X1.7502 Y6.738 I-0.0061 J0.1123
G1 X1.6161 Y6.8354
G1 X1.482 Y6.738
G0 Z0.25
G0 X1.585 Y8.7837
G1 Z-0.05 F30
G2 X1.6471 Y8.7837 I0.0311 J-0.2606 F10
G1 X1.6161 Y8.8063
G1 X1.585 Y8.7837
G1 X1.5408 Y8.8134 F10
G2 X1.5178 Y8.7988 I-0.1249 J0.1719 F10
G2 X1.4321 Y8.6549 I-0.2106 J0.028
G1 X1.3568 Y8.6002
G1 X1.3855 Y8.5117
G2 X1.3872 Y8.5062 I-0.2021 J-0.0656
G1 X1.4141 Y8.5888
G2 X1.8192 Y8.5857 I0.2021 J-0.0657
G1 X1.8444 Y8.5042
G2 X1.8467 Y8.5117 I0.2044 J-0.0581
G1 X1.8754 Y8.6002
G1 X1.8002 Y8.6549
G2 X1.7144 Y8.7988 I0.1249 J0.1719
G2 X1.6915 Y8.8133 I0.1019 J0.1865
G1 X1.6161 Y8.868
G1 X1.5408 Y8.8134
G1 X1.5114 Y8.8538 F10
G2 X1.4696 Y8.8319 I-0.0955 J0.1315 F10
G2 X1.4697 Y8.8268 I-0.1624 J-0.0051
G2 X1.4027 Y8.6953 I-0.1625 J0
G1 X1.298 Y8.6193
G1 X1.338 Y8.4963
G2 X1.3458 Y8.4503 I-0.1546 J-0.0502
G1 X1.4216 Y8.4503
G1 X1.4616 Y8.5733
G2 X1.7714 Y8.571 I0.1545 J-0.0503
G1 X1.8087 Y8.4503
G1 X1.8864 Y8.4503
G2 X1.8943 Y8.4963 I0.1624 J-0.0042
G1 X1.9342 Y8.6193
G1 X1.8296 Y8.6953
G2 X1.7626 Y8.8268 I0.0955 J0.1315
G2 X1.7626 Y8.8319 I0.1625 J0
G2 X1.7208 Y8.8538 I0.0537 J0.1534
G1 X1.6161 Y8.9298
G1 X1.5114 Y8.8538
G1 X1.482 Y8.8943 F10
G2 X1.4098 Y8.8729 I-0.0661 J0.091 F10
G2 X1.4197 Y8.8268 I-0.1026 J-0.0461
G2 X1.3733 Y8.7358 I-0.1125 J0
G1 X1.2392 Y8.6384
G1 X1.2904 Y8.4808
G2 X1.2959 Y8.4461 I-0.107 J-0.0347
G2 X1.2861 Y8.4001 I-0.1125 J0
G2 X1.2923 Y8.4003 I0.0062 J-0.1123
G1 X1.4579 Y8.4003
G1 X1.5092 Y8.5578
G2 X1.7237 Y8.5562 I0.107 J-0.0348
G1 X1.7718 Y8.4003
G1 X1.9399 Y8.4003
G2 X1.9462 Y8.4001 I0 J-0.1125
G2 X1.9363 Y8.4461 I0.1027 J0.046
G2 X1.9418 Y8.4808 I0.1125 J0
G1 X1.993 Y8.6384
G1 X1.8589 Y8.7358
G2 X1.8126 Y8.8268 I0.0661 J0.091
G2 X1.8225 Y8.8729 I0.1125 J0
G2 X1.7502 Y8.8942 I-0.0061 J0.1123
G1 X1.6161 Y8.9916
G1 X1.482 Y8.8943
G0 Z0.25
G0 X5.382 Y8.7837
G1 Z-0.05 F30
G2 X5.444 Y8.7837 I0.031 J-0.2607 F10
G1 X5.413 Y8.8062
G1 X5.382 Y8.7837
G1 X5.3378 Y8.8134 F10
G2 X5.3146 Y8.7987 I-0.1249 J0.1719 F10
G2 X5.2289 Y8.6549 I-0.2106 J0.0281
G1 X5.1537 Y8.6002
G1 X5.1824 Y8.5118
G2 X5.1841 Y8.5063 I-0.2021 J-0.0657
G1 X5.2109 Y8.5887
G2 X5.616 Y8.5858 I0.2021 J-0.0656
G1 X5.6412 Y8.5042
G2 X5.6435 Y8.5118 I0.2044 J-0.0581
G1 X5.6723 Y8.6002
G1 X5.5971 Y8.6549
G2 X5.5114 Y8.7987 I0.1249 J0.1719
G2 X5.4882 Y8.8134 I0.1017 J0.1866
G1 X5.413 Y8.868
G1 X5.3378 Y8.8134
G1 X5.3084 Y8.8538 F10
G2 X5.2664 Y8.8318 I-0.0955 J0.1315 F10
G2 X5.2665 Y8.8268 I-0.1624 J-0.005
G2 X5.1995 Y8.6953 I-0.1625 J0
G1 X5.0949 Y8.6193
G1 X5.1349 Y8.4964
G2 X5.1428 Y8.4503 I-0.1545 J-0.0503
G1 X5.2185 Y8.4503
G1 X5.2584 Y8.5732
G2 X5.5682 Y8.5711 I0.1546 J-0.0502
G1 X5.6056 Y8.4503
G1 X5.6832 Y8.4503
G2 X5.6911 Y8.4964 I0.1624 J-0.0042
G1 X5.7311 Y8.6193
G1 X5.6265 Y8.6953
G2 X5.5595 Y8.8268 I0.0955 J0.1315
G2 X5.5596 Y8.8318 I0.1625 J0
G2 X5.5176 Y8.8538 I0.0535 J0.1534
G1 X5.413 Y8.9298
G1 X5.3084 Y8.8538
G1 X5.279 Y8.8943 F10
G2 X5.2066 Y8.8729 I-0.0661 J0.091 F10
G2 X5.2165 Y8.8268 I-0.1026 J-0.0461
G2 X5.1701 Y8.7358 I-0.1125 J0
G1 X5.0361 Y8.6384
G1 X5.0873 Y8.4809
G2 X5.0928 Y8.4461 I-0.107 J-0.0348
G2 X5.083 Y8.4001 I-0.1125 J0
G2 X5.0891 Y8.4003 I0.0061 J-0.1123
G1 X5.2548 Y8.4003
G1 X5.306 Y8.5578
G2 X5.5205 Y8.5563 I0.107 J-0.0347
G1 X5.5687 Y8.4003
G1 X5.7369 Y8.4003
G2 X5.743 Y8.4001 I0 J-0.1125
G2 X5.7331 Y8.4461 I0.1027 J0.046
G2 X5.7386 Y8.4809 I0.1125 J0
G1 X5.7899 Y8.6384
G1 X5.6559 Y8.7358
G2 X5.6095 Y8.8268 I0.0661 J0.091
G2 X5.6194 Y8.8729 I0.1125 J0
G2 X5.547 Y8.8943 I-0.0063 J0.1123
G1 X5.413 Y8.9916
G1 X5.279 Y8.8943
G0 Z0.25
G0 X6.6476 Y6.6275
G1 Z-0.05 F30
G2 X6.7097 Y6.6274 I0.031 J-0.2607 F10
G1 X6.6786 Y6.65
G1 X6.6476 Y6.6275
G1 X6.6033 Y6.6571 F10
G2 X6.5803 Y6.6425 I-0.1249 J0.1719 F10
G2 X6.4946 Y6.4986 I-0.2106 J0.028
G1 X6.4193 Y6.4439
G1 X6.448 Y6.3555
G2 X6.4497 Y6.3501 I-0.2021 J-0.0656
G1 X6.4764 Y6.4324
G2 X6.8816 Y6.4296 I0.2021 J-0.0656
G1 X6.9069 Y6.3478
G2 X6.9092 Y6.3555 I0.2045 J-0.0579
G1 X6.9379 Y6.4439
G1 X6.8627 Y6.4986
G2 X6.7769 Y6.6425 I0.1249 J0.1719
G2 X6.754 Y6.6571 I0.1019 J0.1865
G1 X6.6786 Y6.7118
G1 X6.6033 Y6.6571
G1 X6.5739 Y6.6976 F10
G2 X6.5321 Y6.6756 I-0.0955 J0.1315 F10
G2 X6.5322 Y6.6705 I-0.1624 J-0.0051
G2 X6.4652 Y6.5391 I-0.1625 J0
G1 X6.3605 Y6.463
G1 X6.4005 Y6.34
G2 X6.4083 Y6.294 I-0.1546 J-0.0502
G1 X6.4841 Y6.294
G1 X6.524 Y6.417
G2 X6.8338 Y6.4148 I0.1546 J-0.0502
G1 X6.8712 Y6.294
G1 X6.9489 Y6.294
G2 X6.9568 Y6.34 I0.1624 J-0.0042
G1 X6.9967 Y6.463
G1 X6.8921 Y6.5391
G2 X6.8251 Y6.6705 I0.0955 J0.1315
G2 X6.8251 Y6.6756 I0.1625 J0
G2 X6.7833 Y6.6975 I0.0537 J0.1534
G1 X6.6786 Y6.7736
G1 X6.5739 Y6.6976
G1 X6.5445 Y6.738 F10
G2 X6.4723 Y6.7167 I-0.0661 J0.091 F10
G2 X6.4822 Y6.6705 I-0.1026 J-0.0461
G2 X6.4358 Y6.5795 I-0.1125 J0
G1 X6.3017 Y6.4821
G1 X6.3529 Y6.3246
G2 X6.3584 Y6.2899 I-0.107 J-0.0347
G2 X6.3486 Y6.2438 I-0.1125 J0
G2 X6.3548 Y6.244 I0.0062 J-0.1123
G1 X6.5204 Y6.244
G1 X6.5715 Y6.4015
G2 X6.786 Y6.4 I0.107 J-0.0347
G1 X6.8343 Y6.244
G1 X7.0024 Y6.244
G2 X7.0087 Y6.2438 I0 J-0.1125
G2 X6.9988 Y6.2899 I0.1027 J0.046
G2 X7.0043 Y6.3246 I0.1125 J0
G1 X7.0555 Y6.4821
G1 X6.9214 Y6.5795
G2 X6.8751 Y6.6705 I0.0661 J0.091
G2 X6.885 Y6.7167 I0.1125 J0
G2 X6.8127 Y6.738 I-0.0061 J0.1123
G1 X6.6786 Y6.8354
G1 X6.5445 Y6.738
G0 Z0.25
G0 X6.6478 Y7.7057
G1 Z-0.05 F30
G2 X6.7094 Y7.7057 I0.0307 J-0.2607 F10
G1 X6.6786 Y7.7281
G1 X6.6478 Y7.7057
G1 X6.6033 Y7.7352 F10
G2 X6.5801 Y7.7205 I-0.1249 J0.1719 F10
G2 X6.4946 Y7.5779 I-0.2105 J0.0294
G1 X6.4193 Y7.5232
G1 X6.448 Y7.4348
G2 X6.4499 Y7.4288 I-0.2021 J-0.0656
G1 X6.4764 Y7.5106
G2 X6.8816 Y7.5078 I0.2021 J-0.0656
G1 X6.9067 Y7.4265
G2 X6.9092 Y7.4348 I0.2046 J-0.0573
G1 X6.9379 Y7.5232
G1 X6.8627 Y7.5779
G2 X6.7771 Y7.7205 I0.1249 J0.1719
G2 X6.754 Y7.7351 I0.1017 J0.1866
G1 X6.6786 Y7.7899
G1 X6.6033 Y7.7352
G1 X6.5739 Y7.7756 F10
G2 X6.5321 Y7.7537 I-0.0955 J0.1315 F10
G2 X6.5322 Y7.7499 I-0.1625 J-0.0039
G2 X6.4652 Y7.6184 I-0.1625 J0
G1 X6.3605 Y7.5424
G1 X6.4005 Y7.4193
G2 X6.4084 Y7.3722 I-0.1546 J-0.0502
G1 X6.4841 Y7.3722
G1 X6.524 Y7.4952
G2 X6.8338 Y7.493 I0.1546 J-0.0502
G1 X6.8712 Y7.3722
G1 X6.9488 Y7.3722
G2 X6.9568 Y7.4193 I0.1625 J-0.0031
G1 X6.9967 Y7.5424
G1 X6.8921 Y7.6184
G2 X6.8251 Y7.7499 I0.0955 J0.1315
G2 X6.8251 Y7.7537 I0.1625 J0
G2 X6.7833 Y7.7756 I0.0537 J0.1534
G1 X6.6786 Y7.8516
G1 X6.5739 Y7.7756
G1 X6.5445 Y7.8161 F10
G2 X6.4728 Y7.7947 I-0.0661 J0.091 F10
G2 X6.4822 Y7.7499 I-0.1032 J-0.0449
G2 X6.4358 Y7.6588 I-0.1125 J0
G1 X6.3017 Y7.5615
G1 X6.3529 Y7.4039
G2 X6.3584 Y7.3692 I-0.107 J-0.0347
G2 X6.348 Y7.322 I-0.1125 J0
G2 X6.3548 Y7.3222 I0.0067 J-0.1123
G1 X6.5204 Y7.3222
G1 X6.5715 Y7.4797
G2 X6.786 Y7.4782 I0.107 J-0.0347
G1 X6.8343 Y7.3222
G1 X7.0024 Y7.3222
G2 X7.0092 Y7.322 I0 J-0.1125
G2 X6.9988 Y7.3692 I0.1021 J0.0471
G2 X7.0043 Y7.4039 I0.1125 J0
G1 X7.0555 Y7.5615
G1 X6.9214 Y7.6588
G2 X6.8751 Y7.7499 I0.0661 J0.091
G2 X6.8844 Y7.7947 I0.1125 J0
G2 X6.8127 Y7.816 I-0.0056 J0.1124
G1 X6.6786 Y7.9134
G1 X6.5445 Y7.8161
G0 Z0.25
G0 X5.382 Y6.6275
G1 Z-0.05 F30
G2 X5.444 Y6.6275 I0.031 J-0.2607 F10
G1 X5.413 Y6.65
G1 X5.382 Y6.6275
G1 X5.3378 Y6.6571 F10
G2 X5.3146 Y6.6425 I-0.1249 J0.1719 F10
G2 X5.2289 Y6.4986 I-0.2106 J0.0281
G1 X5.1537 Y6.444
G1 X5.1824 Y6.3556
G2 X5.1841 Y6.3501 I-0.2021 J-0.0657
G1 X5.2109 Y6.4324
G2 X5.616 Y6.4296 I0.2021 J-0.0656
G1 X5.6412 Y6.348
G2 X5.6435 Y6.3556 I0.2044 J-0.0581
G1 X5.6723 Y6.444
G1 X5.5971 Y6.4986
G2 X5.5114 Y6.6425 I0.1249 J0.1719
G2 X5.4882 Y6.6571 I0.1017 J0.1866
G1 X5.413 Y6.7118
G1 X5.3378 Y6.6571
G1 X5.3084 Y6.6976 F10
G2 X5.2664 Y6.6756 I-0.0955 J0.1315 F10
G2 X5.2665 Y6.6705 I-0.1624 J-0.005
G2 X5.1995 Y6.5391 I-0.1625 J0
G1 X5.0949 Y6.4631
G1 X5.1349 Y6.3401
G2 X5.1428 Y6.294 I-0.1545 J-0.0503
G1 X5.2185 Y6.294
G1 X5.2584 Y6.417
G2 X5.5682 Y6.4148 I0.1546 J-0.0502
G1 X5.6056 Y6.294
G1 X5.6832 Y6.294
G2 X5.6911 Y6.3401 I0.1624 J-0.0042
G1 X5.7311 Y6.4631
G1 X5.6265 Y6.5391
G2 X5.5595 Y6.6705 I0.0955 J0.1315
G2 X5.5596 Y6.6756 I0.1625 J0
G2 X5.5176 Y6.6976 I0.0535 J0.1534
G1 X5.413 Y6.7736
G1 X5.3084 Y6.6976
G1 X5.279 Y6.738 F10
G2 X5.2066 Y6.7167 I-0.0661 J0.091 F10
G2 X5.2165 Y6.6705 I-0.1026 J-0.0461
G2 X5.1701 Y6.5795 I-0.1125 J0
G1 X5.0361 Y6.4822
G1 X5.0873 Y6.3246
G2 X5.0928 Y6.2899 I-0.107 J-0.0348
G2 X5.083 Y6.2439 I-0.1125 J0
G2 X5.0891 Y6.244 I0.0061 J-0.1123
G1 X5.2548 Y6.244
G1 X5.306 Y6.4015
G2 X5.5205 Y6.4 I0.107 J-0.0347
G1 X5.5687 Y6.244
G1 X5.7369 Y6.244
G2 X5.743 Y6.2439 I0 J-0.1125
G2 X5.7331 Y6.2899 I0.1027 J0.046
G2 X5.7386 Y6.3246 I0.1125 J0
G1 X5.7899 Y6.4822
G1 X5.6559 Y6.5795
G2 X5.6095 Y6.6705 I0.0661 J0.091
G2 X5.6194 Y6.7167 I0.1125 J0
G2 X5.547 Y6.738 I-0.0063 J0.1123
G1 X5.413 Y6.8354
G1 X5.279 Y6.738
G0 Z0.25
G0 X4.1163 Y8.7837
G1 Z-0.05 F30
G2 X4.1784 Y8.7837 I0.031 J-0.2607 F10
G1 X4.1473 Y8.8063
G1 X4.1163 Y8.7837
G1 X4.0721 Y8.8134 F10
G2 X4.049 Y8.7988 I-0.1249 J0.1719 F10
G2 X3.9633 Y8.6549 I-0.2106 J0.028
G1 X3.888 Y8.6002
G1 X3.9168 Y8.5117
G2 X3.9184 Y8.5063 I-0.2021 J-0.0656
G1 X3.9452 Y8.5887
G2 X4.3503 Y8.5858 I0.2021 J-0.0656
G1 X4.3756 Y8.504
G2 X4.378 Y8.5117 I0.2045 J-0.0579
G1 X4.4067 Y8.6002
G1 X4.3314 Y8.6549
G2 X4.2457 Y8.7988 I0.1249 J0.1719
G2 X4.2227 Y8.8133 I0.1019 J0.1865
G1 X4.1473 Y8.868
G1 X4.0721 Y8.8134
G1 X4.0427 Y8.8538 F10
G2 X4.0008 Y8.8319 I-0.0955 J0.1315 F10
G2 X4.0009 Y8.8268 I-0.1624 J-0.0051
G2 X3.9339 Y8.6953 I-0.1625 J0
G1 X3.8293 Y8.6193
G1 X3.8692 Y8.4963
G2 X3.8771 Y8.4503 I-0.1546 J-0.0502
G1 X3.9528 Y8.4503
G1 X3.9927 Y8.5732
G2 X4.3025 Y8.5711 I0.1546 J-0.0502
G1 X4.3399 Y8.4503
G1 X4.4176 Y8.4503
G2 X4.4255 Y8.4963 I0.1624 J-0.0042
G1 X4.4655 Y8.6193
G1 X4.3608 Y8.6953
G2 X4.2938 Y8.8268 I0.0955 J0.1315
G2 X4.2939 Y8.8319 I0.1625 J0
G2 X4.2521 Y8.8538 I0.0537 J0.1534
G1 X4.1473 Y8.9298
G1 X4.0427 Y8.8538
G1 X4.0133 Y8.8943 F10
G2 X3.941 Y8.8729 I-0.0661 J0.091 F10
G2 X3.9509 Y8.8268 I-0.1026 J-0.0461
G2 X3.9045 Y8.7358 I-0.1125 J0
G1 X3.7705 Y8.6384
G1 X3.8217 Y8.4808
G2 X3.8272 Y8.4461 I-0.107 J-0.0347
G2 X3.8173 Y8.4001 I-0.1125 J0
G2 X3.8235 Y8.4003 I0.0062 J-0.1123
G1 X3.9891 Y8.4003
G1 X4.0403 Y8.5578
G2 X4.2548 Y8.5563 I0.107 J-0.0347
G1 X4.303 Y8.4003
G1 X4.4712 Y8.4003
G2 X4.4774 Y8.4001 I0 J-0.1125
G2 X4.4676 Y8.4461 I0.1027 J0.046
G2 X4.4731 Y8.4808 I0.1125 J0
G1 X4.5242 Y8.6384
G1 X4.3902 Y8.7358
G2 X4.3438 Y8.8268 I0.0661 J0.091
G2 X4.3537 Y8.8729 I0.1125 J0
G2 X4.2815 Y8.8942 I-0.0061 J0.1123
G1 X4.1473 Y8.9916
G1 X4.0133 Y8.8943
G0 Z0.25
G0 X3.4817 Y9.3225
G1 Z-0.05 F30
G2 X3.5473 Y9.3225 I0.0328 J-0.2604 F10
G1 X3.5145 Y9.3464
G1 X3.4817 Y9.3225
G1 X3.4393 Y9.3535 F10
G2 X3.4164 Y9.339 I-0.1249 J0.1719 F10
G2 X3.3305 Y9.194 I-0.2108 J0.027
G1 X3.2553 Y9.1394
G1 X3.284 Y9.0509
G2 X3.2857 Y9.0454 I-0.2021 J-0.0656
G1 X3.3124 Y9.1277
G2 X3.7175 Y9.1249 I0.2021 J-0.0656
G1 X3.7427 Y9.0433
G2 X3.7451 Y9.051 I0.2044 J-0.0581
G1 X3.7738 Y9.1394
G1 X3.6986 Y9.194
G2 X3.6128 Y9.3389 I0.1249 J0.1719
G2 X3.5897 Y9.3535 I0.1019 J0.1865
G1 X3.5145 Y9.4082
G1 X3.4393 Y9.3535
G1 X3.4099 Y9.3939 F10
G2 X3.368 Y9.372 I-0.0955 J0.1315 F10
G2 X3.3681 Y9.366 I-0.1624 J-0.0061
G2 X3.3011 Y9.2345 I-0.1625 J0
G1 X3.1965 Y9.1585
G1 X3.2364 Y9.0354
G2 X3.2443 Y8.9893 I-0.1546 J-0.0502
G1 X3.32 Y8.9893
G1 X3.36 Y9.1123
G2 X3.6698 Y9.1101 I0.1546 J-0.0502
G1 X3.7071 Y8.9893
G1 X3.7847 Y8.9893
G2 X3.7926 Y9.0355 I0.1625 J-0.004
G1 X3.8326 Y9.1585
G1 X3.728 Y9.2345
G2 X3.661 Y9.366 I0.0955 J0.1315
G2 X3.6612 Y9.372 I0.1625 J0
G2 X3.6191 Y9.3939 I0.0535 J0.1534
G1 X3.5145 Y9.47
G1 X3.4099 Y9.3939
G1 X3.3805 Y9.4344 F10
G2 X3.3078 Y9.4131 I-0.0661 J0.091 F10
G2 X3.3181 Y9.366 I-0.1021 J-0.0471
G2 X3.2718 Y9.2749 I-0.1125 J0
G1 X3.1377 Y9.1776
G1 X3.1889 Y9.02
G2 X3.1944 Y8.9853 I-0.107 J-0.0347
G2 X3.1845 Y8.9391 I-0.1125 J0
G2 X3.1908 Y8.9393 I0.0063 J-0.1123
G1 X3.3564 Y8.9393
G1 X3.4075 Y9.0968
G2 X3.622 Y9.0953 I0.107 J-0.0347
G1 X3.6703 Y8.9393
G1 X3.8384 Y8.9393
G2 X3.8446 Y8.9391 I0 J-0.1125
G2 X3.8347 Y8.9853 I0.1026 J0.0461
G2 X3.8402 Y9.0201 I0.1125 J0
G1 X3.8914 Y9.1776
G1 X3.7574 Y9.2749
G2 X3.711 Y9.366 I0.0661 J0.091
G2 X3.7214 Y9.4131 I0.1125 J0
G2 X3.6485 Y9.4344 I-0.0067 J0.1123
G1 X3.5145 Y9.5318
G1 X3.3805 Y9.4344
G0 Z0.25
G0 X6.013 Y7.1663
G1 Z-0.05 F30
G2 X6.0786 Y7.1663 I0.0328 J-0.2604 F10
G1 X6.0458 Y7.1901
G1 X6.013 Y7.1663
G1 X5.9705 Y7.1972 F10
G2 X5.9477 Y7.1828 I-0.1249 J0.1719 F10
G2 X5.8618 Y7.0378 I-0.2108 J0.027
G1 X5.7865 Y6.9831
G1 X5.8152 Y6.8946
G2 X5.8169 Y6.8892 I-0.2021 J-0.0656
G1 X5.8436 Y6.9714
G2 X6.2488 Y6.9686 I0.2021 J-0.0656
G1 X6.274 Y6.8871
G2 X6.2763 Y6.8947 I0.2044 J-0.0581
G1 X6.3051 Y6.9832
G1 X6.2299 Y7.0378
G2 X6.144 Y7.1827 I0.1249 J0.1719
G2 X6.121 Y7.1972 I0.1019 J0.1865
G1 X6.0458 Y7.2519
G1 X5.9705 Y7.1972
G1 X5.9411 Y7.2377 F10
G2 X5.8993 Y7.2158 I-0.0955 J0.1315 F10
G2 X5.8994 Y7.2097 I-0.1624 J-0.0061
G2 X5.8324 Y7.0782 I-0.1625 J0
G1 X5.7277 Y7.0022
G1 X5.7677 Y6.8792
G2 X5.7756 Y6.833 I-0.1546 J-0.0502
G1 X5.8513 Y6.833
G1 X5.8912 Y6.956
G2 X6.201 Y6.9538 I0.1546 J-0.0502
G1 X6.2384 Y6.833
G1 X6.316 Y6.833
G2 X6.3239 Y6.8793 I0.1625 J-0.004
G1 X6.3639 Y7.0023
G1 X6.2593 Y7.0782
G2 X6.1923 Y7.2097 I0.0955 J0.1315
G2 X6.1924 Y7.2157 I0.1625 J0
G2 X6.1504 Y7.2377 I0.0535 J0.1534
G1 X6.0458 Y7.3137
G1 X5.9411 Y7.2377
G1 X5.9118 Y7.2781 F10
G2 X5.839 Y7.2569 I-0.0661 J0.091 F10
G2 X5.8494 Y7.2097 I-0.1021 J-0.0471
G2 X5.803 Y7.1187 I-0.1125 J0
G1 X5.669 Y7.0213
G1 X5.7201 Y6.8638
G2 X5.7256 Y6.829 I-0.107 J-0.0347
G2 X5.7157 Y6.7829 I-0.1125 J0
G2 X5.722 Y6.783 I0.0063 J-0.1123
G1 X5.8876 Y6.783
G1 X5.9388 Y6.9406
G2 X6.1532 Y6.9391 I0.107 J-0.0347
G1 X6.2015 Y6.783
G1 X6.3697 Y6.783
G2 X6.3758 Y6.7829 I0 J-0.1125
G2 X6.3659 Y6.829 I0.1026 J0.0461
G2 X6.3714 Y6.8638 I0.1125 J0
G1 X6.4227 Y7.0213
G1 X6.2887 Y7.1187
G2 X6.2423 Y7.2097 I0.0661 J0.091
G2 X6.2526 Y7.2569 I0.1125 J0
G2 X6.1798 Y7.2781 I-0.0067 J0.1123
G1 X6.0458 Y7.3755
G1 X5.9118 Y7.2781
G0 Z0.25
G0 X6.015 Y6.0885
G1 Z-0.05 F30
G2 X6.0765 Y6.0885 I0.0307 J-0.2607 F10
G1 X6.0458 Y6.1108
G1 X6.015 Y6.0885
G1 X5.9705 Y6.1179 F10
G2 X5.9475 Y6.1034 I-0.1249 J0.1719 F10
G2 X5.8618 Y5.9596 I-0.2106 J0.0282
G1 X5.7865 Y5.9049
G1 X5.8152 Y5.8164
G2 X5.8169 Y5.811 I-0.2021 J-0.0656
G1 X5.8436 Y5.8934
G2 X6.2488 Y5.8906 I0.2021 J-0.0656
G1 X6.274 Y5.809
G2 X6.2763 Y5.8166 I0.2044 J-0.0581
G1 X6.3051 Y5.905
G1 X6.2299 Y5.9596
G2 X6.1442 Y6.1033 I0.1249 J0.1719
G2 X6.121 Y6.1179 I0.1017 J0.1866
G1 X6.0458 Y6.1726
G1 X5.9705 Y6.1179
G1 X5.9411 Y6.1584 F10
G2 X5.8993 Y6.1365 I-0.0955 J0.1315 F10
G2 X5.8994 Y6.1315 I-0.1624 J-0.005
G2 X5.8324 Y6.0001 I-0.1625 J0
G1 X5.7277 Y5.924
G1 X5.7677 Y5.801
G2 X5.7756 Y5.755 I-0.1546 J-0.0502
G1 X5.8513 Y5.755
G1 X5.8912 Y5.8779
G2 X6.201 Y5.8758 I0.1546 J-0.0502
G1 X6.2384 Y5.755
G1 X6.316 Y5.755
G2 X6.3239 Y5.8011 I0.1624 J-0.0042
G1 X6.3639 Y5.9241
G1 X6.2593 Y6.0001
G2 X6.1923 Y6.1315 I0.0955 J0.1315
G2 X6.1924 Y6.1364 I0.1625 J0
G2 X6.1504 Y6.1584 I0.0535 J0.1534
G1 X6.0458 Y6.2344
G1 X5.9411 Y6.1584
G1 X5.9118 Y6.1988 F10
G2 X5.8395 Y6.1775 I-0.0661 J0.091 F10
G2 X5.8494 Y6.1315 I-0.1027 J-0.046
G2 X5.803 Y6.0405 I-0.1125 J0
G1 X5.669 Y5.9431
G1 X5.7201 Y5.7856
G2 X5.7256 Y5.7508 I-0.107 J-0.0347
G2 X5.7158 Y5.7048 I-0.1125 J0
G2 X5.722 Y5.705 I0.0062 J-0.1123
G1 X5.8876 Y5.705
G1 X5.9388 Y5.8625
G2 X6.1532 Y5.861 I0.107 J-0.0347
G1 X6.2015 Y5.705
G1 X6.3697 Y5.705
G2 X6.3757 Y5.7048 I0 J-0.1125
G2 X6.3659 Y5.7508 I0.1027 J0.046
G2 X6.3714 Y5.7856 I0.1125 J0
G1 X6.4227 Y5.9431
G1 X6.2887 Y6.0405
G2 X6.2423 Y6.1315 I0.0661 J0.091
G2 X6.2521 Y6.1775 I0.1125 J0
G2 X6.1798 Y6.1988 I-0.0062 J0.1123
G1 X6.0458 Y6.2962
G1 X5.9118 Y6.1988
G0 Z0.25
G0 X6.6476 Y8.7837
G1 Z-0.05 F30
G2 X6.7097 Y8.7837 I0.031 J-0.2607 F10
G1 X6.6786 Y8.8063
G1 X6.6476 Y8.7837
G1 X6.6033 Y8.8134 F10
G2 X6.5803 Y8.7988 I-0.1249 J0.1719 F10
G2 X6.4946 Y8.6549 I-0.2106 J0.028
G1 X6.4193 Y8.6002
G1 X6.448 Y8.5117
G2 X6.4497 Y8.5063 I-0.2021 J-0.0656
G1 X6.4764 Y8.5887
G2 X6.8816 Y8.5858 I0.2021 J-0.0656
G1 X6.9069 Y8.504
G2 X6.9092 Y8.5117 I0.2045 J-0.0579
G1 X6.9379 Y8.6002
G1 X6.8627 Y8.6549
G2 X6.7769 Y8.7988 I0.1249 J0.1719
G2 X6.754 Y8.8133 I0.1019 J0.1865
G1 X6.6786 Y8.868
G1 X6.6033 Y8.8134
G1 X6.5739 Y8.8538 F10
G2 X6.5321 Y8.8319 I-0.0955 J0.1315 F10
G2 X6.5322 Y8.8268 I-0.1624 J-0.0051
G2 X6.4652 Y8.6953 I-0.1625 J0
G1 X6.3605 Y8.6193
G1 X6.4005 Y8.4963
G2 X6.4083 Y8.4503 I-0.1546 J-0.0502
G1 X6.4841 Y8.4503
G1 X6.524 Y8.5732
G2 X6.8338 Y8.5711 I0.1546 J-0.0502
G1 X6.8712 Y8.4503
G1 X6.9489 Y8.4503
G2 X6.9568 Y8.4963 I0.1624 J-0.0042
G1 X6.9967 Y8.6193
G1 X6.8921 Y8.6953
G2 X6.8251 Y8.8268 I0.0955 J0.1315
G2 X6.8251 Y8.8319 I0.1625 J0
G2 X6.7833 Y8.8538 I0.0537 J0.1534
G1 X6.6786 Y8.9298
G1 X6.5739 Y8.8538
G1 X6.5445 Y8.8943 F10
G2 X6.4723 Y8.8729 I-0.0661 J0.091 F10
G2 X6.4822 Y8.8268 I-0.1026 J-0.0461
G2 X6.4358 Y8.7358 I-0.1125 J0
G1 X6.3017 Y8.6384
G1 X6.3529 Y8.4808
G2 X6.3584 Y8.4461 I-0.107 J-0.0347
G2 X6.3486 Y8.4001 I-0.1125 J0
G2 X6.3548 Y8.4003 I0.0062 J-0.1123
G1 X6.5204 Y8.4003
G1 X6.5715 Y8.5578
G2 X6.786 Y8.5563 I0.107 J-0.0347
G1 X6.8343 Y8.4003
G1 X7.0024 Y8.4003
G2 X7.0087 Y8.4001 I0 J-0.1125
G2 X6.9988 Y8.4461 I0.1027 J0.046
G2 X7.0043 Y8.4808 I0.1125 J0
G1 X7.0555 Y8.6384
G1 X6.9214 Y8.7358
G2 X6.8751 Y8.8268 I0.0661 J0.091
G2 X6.885 Y8.8729 I0.1125 J0
G2 X6.8127 Y8.8942 I-0.0061 J0.1123
G1 X6.6786 Y8.9916
G1 X6.5445 Y8.8943
G0 Z0.25
G0 X4.1163 Y6.6275
G1 Z-0.05 F30
G2 X4.1784 Y6.6274 I0.031 J-0.2607 F10
G1 X4.1473 Y6.65
G1 X4.1163 Y6.6275
G1 X4.0721 Y6.6571 F10
G2 X4.049 Y6.6425 I-0.1249 J0.1719 F10
G2 X3.9633 Y6.4986 I-0.2106 J0.028
G1 X3.888 Y6.4439
G1 X3.9168 Y6.3555
G2 X3.9184 Y6.3501 I-0.2021 J-0.0656
G1 X3.9452 Y6.4324
G2 X4.3503 Y6.4296 I0.2021 J-0.0656
G1 X4.3756 Y6.3478
G2 X4.378 Y6.3555 I0.2045 J-0.0579
G1 X4.4067 Y6.4439
G1 X4.3314 Y6.4986
G2 X4.2457 Y6.6425 I0.1249 J0.1719
G2 X4.2227 Y6.6571 I0.1019 J0.1865
G1 X4.1473 Y6.7118
G1 X4.0721 Y6.6571
G1 X4.0427 Y6.6976 F10
G2 X4.0008 Y6.6756 I-0.0955 J0.1315 F10
G2 X4.0009 Y6.6705 I-0.1624 J-0.0051
G2 X3.9339 Y6.5391 I-0.1625 J0
G1 X3.8293 Y6.463
G1 X3.8692 Y6.34
G2 X3.8771 Y6.294 I-0.1546 J-0.0502
G1 X3.9528 Y6.294
G1 X3.9927 Y6.417
G2 X4.3025 Y6.4148 I0.1546 J-0.0502
G1 X4.3399 Y6.294
G1 X4.4176 Y6.294
G2 X4.4255 Y6.34 I0.1624 J-0.0042
G1 X4.4655 Y6.463
G1 X4.3608 Y6.5391
G2 X4.2938 Y6.6705 I0.0955 J0.1315
G2 X4.2939 Y6.6756 I0.1625 J0
G2 X4.2521 Y6.6975 I0.0537 J0.1534
G1 X4.1473 Y6.7736
G1 X4.0427 Y6.6976
G1 X4.0133 Y6.738 F10
G2 X3.941 Y6.7167 I-0.0661 J0.091 F10
G2 X3.9509 Y6.6705 I-0.1026 J-0.0461
G2 X3.9045 Y6.5795 I-0.1125 J0
G1 X3.7705 Y6.4821
G1 X3.8217 Y6.3246
G2 X3.8272 Y6.2899 I-0.107 J-0.0347
G2 X3.8173 Y6.2438 I-0.1125 J0
G2 X3.8235 Y6.244 I0.0062 J-0.1123
G1 X3.9891 Y6.244
G1 X4.0403 Y6.4015
G2 X4.2548 Y6.4 I0.107 J-0.0347
G1 X4.303 Y6.244
G1 X4.4712 Y6.244
G2 X4.4774 Y6.2438 I0 J-0.1125
G2 X4.4676 Y6.2899 I0.1027 J0.046
G2 X4.4731 Y6.3246 I0.1125 J0
G1 X4.5242 Y6.4821
G1 X4.3902 Y6.5795
G2 X4.3438 Y6.6705 I0.0661 J0.091
G2 X4.3537 Y6.7167 I0.1125 J0
G2 X4.2815 Y6.738 I-0.0061 J0.1123
G1 X4.1473 Y6.8354
G1 X4.0133 Y6.738
G0 Z0.25
G0 X3.4838 Y6.0885
G1 Z-0.05 F30
G2 X3.5453 Y6.0885 I0.0307 J-0.2607 F10
G1 X3.5145 Y6.1108
G1 X3.4838 Y6.0885
G1 X3.4393 Y6.1179 F10
G2 X3.4163 Y6.1034 I-0.1249 J0.1719 F10
G2 X3.3305 Y5.9596 I-0.2106 J0.0282
G1 X3.2553 Y5.9049
G1 X3.284 Y5.8164
G2 X3.2857 Y5.811 I-0.2021 J-0.0656
G1 X3.3124 Y5.8934
G2 X3.7175 Y5.8906 I0.2021 J-0.0656
G1 X3.7428 Y5.809
G2 X3.7451 Y5.8166 I0.2044 J-0.0581
G1 X3.7738 Y5.905
G1 X3.6986 Y5.9596
G2 X3.6129 Y6.1033 I0.1249 J0.1719
G2 X3.5897 Y6.1179 I0.1017 J0.1866
G1 X3.5145 Y6.1726
G1 X3.4393 Y6.1179
G1 X3.4099 Y6.1584 F10
G2 X3.368 Y6.1365 I-0.0955 J0.1315 F10
G2 X3.3681 Y6.1315 I-0.1624 J-0.005
G2 X3.3011 Y6.0001 I-0.1625 J0
G1 X3.1965 Y5.924
G1 X3.2364 Y5.801
G2 X3.2443 Y5.755 I-0.1546 J-0.0502
G1 X3.32 Y5.755
G1 X3.36 Y5.8779
G2 X3.6698 Y5.8758 I0.1546 J-0.0502
G1 X3.7071 Y5.755
G1 X3.7847 Y5.755
G2 X3.7926 Y5.8011 I0.1624 J-0.0042
G1 X3.8326 Y5.9241
G1 X3.728 Y6.0001
G2 X3.661 Y6.1315 I0.0955 J0.1315
G2 X3.6611 Y6.1364 I0.1625 J0
G2 X3.6191 Y6.1584 I0.0535 J0.1534
G1 X3.5145 Y6.2344
G1 X3.4099 Y6.1584
G1 X3.3805 Y6.1988 F10
G2 X3.3083 Y6.1775 I-0.0661 J0.091 F10
G2 X3.3181 Y6.1315 I-0.1027 J-0.046
G2 X3.2718 Y6.0405 I-0.1125 J0
G1 X3.1377 Y5.9431
G1 X3.1889 Y5.7856
G2 X3.1944 Y5.7508 I-0.107 J-0.0347
G2 X3.1845 Y5.7048 I-0.1125 J0
G2 X3.1908 Y5.705 I0.0062 J-0.1123
G1 X3.3564 Y5.705
G1 X3.4075 Y5.8625
G2 X3.622 Y5.861 I0.107 J-0.0347
G1 X3.6703 Y5.705
G1 X3.8384 Y5.705
G2 X3.8445 Y5.7048 I0 J-0.1125
G2 X3.8347 Y5.7508 I0.1027 J0.046
G2 X3.8402 Y5.7856 I0.1125 J0
G1 X3.8914 Y5.9431
G1 X3.7574 Y6.0405
G2 X3.711 Y6.1315 I0.0661 J0.091
G2 X3.7209 Y6.1775 I0.1125 J0
G2 X3.6485 Y6.1988 I-0.0062 J0.1123
G1 X3.5145 Y6.2962
G1 X3.3805 Y6.1988
G0 Z0.25
G0 X3.4817 Y7.1663
G1 Z-0.05 F30
G2 X3.5473 Y7.1663 I0.0328 J-0.2604 F10
G1 X3.5145 Y7.1901
G1 X3.4817 Y7.1663
G1 X3.4393 Y7.1972 F10
G2 X3.4164 Y7.1828 I-0.1249 J0.1719 F10
G2 X3.3305 Y7.0378 I-0.2108 J0.027
G1 X3.2553 Y6.9831
G1 X3.284 Y6.8946
G2 X3.2857 Y6.8892 I-0.2021 J-0.0656
G1 X3.3124 Y6.9714
G2 X3.7175 Y6.9686 I0.2021 J-0.0656
G1 X3.7427 Y6.8871
G2 X3.7451 Y6.8947 I0.2044 J-0.0581
G1 X3.7738 Y6.9832
G1 X3.6986 Y7.0378
G2 X3.6128 Y7.1827 I0.1249 J0.1719
G2 X3.5897 Y7.1972 I0.1019 J0.1865
G1 X3.5145 Y7.2519
G1 X3.4393 Y7.1972
G1 X3.4099 Y7.2377 F10
G2 X3.368 Y7.2158 I-0.0955 J0.1315 F10
G2 X3.3681 Y7.2097 I-0.1624 J-0.0061
G2 X3.3011 Y7.0782 I-0.1625 J0
G1 X3.1965 Y7.0022
G1 X3.2364 Y6.8792
G2 X3.2443 Y6.833 I-0.1546 J-0.0502
G1 X3.32 Y6.833
G1 X3.36 Y6.956
G2 X3.6698 Y6.9538 I0.1546 J-0.0502
G1 X3.7071 Y6.833
G1 X3.7847 Y6.833
G2 X3.7926 Y6.8793 I0.1625 J-0.004
G1 X3.8326 Y7.0023
G1 X3.728 Y7.0782
G2 X3.661 Y7.2097 I0.0955 J0.1315
G2 X3.6612 Y7.2157 I0.1625 J0
G2 X3.6191 Y7.2377 I0.0535 J0.1534
G1 X3.5145 Y7.3137
G1 X3.4099 Y7.2377
G1 X3.3805 Y7.2781 F10
G2 X3.3078 Y7.2569 I-0.0661 J0.091 F10
G2 X3.3181 Y7.2097 I-0.1021 J-0.0471
G2 X3.2718 Y7.1187 I-0.1125 J0
G1 X3.1377 Y7.0213
G1 X3.1889 Y6.8638
G2 X3.1944 Y6.829 I-0.107 J-0.0347
G2 X3.1845 Y6.7829 I-0.1125 J0
G2 X3.1908 Y6.783 I0.0063 J-0.1123
G1 X3.3564 Y6.783
G1 X3.4075 Y6.9406
G2 X3.622 Y6.9391 I0.107 J-0.0347
G1 X3.6703 Y6.783
G1 X3.8384 Y6.783
G2 X3.8446 Y6.7829 I0 J-0.1125
G2 X3.8347 Y6.829 I0.1026 J0.0461
G2 X3.8402 Y6.8638 I0.1125 J0
G1 X3.8914 Y7.0213
G1 X3.7574 Y7.1187
G2 X3.711 Y7.2097 I0.0661 J0.091
G2 X3.7214 Y7.2569 I0.1125 J0
G2 X3.6485 Y7.2781 I-0.0067 J0.1123
G1 X3.5145 Y7.3755
G1 X3.3805 Y7.2781
G0 Z0.25
G0 X2.851 Y7.7057
G1 Z-0.05 F30
G2 X2.9125 Y7.7057 I0.0307 J-0.2607 F10
G1 X2.8817 Y7.728
G1 X2.851 Y7.7057
G1 X2.8065 Y7.7352 F10
G2 X2.7832 Y7.7204 I-0.1249 J0.1719 F10
G2 X2.6976 Y7.5779 I-0.2105 J0.0294
G1 X2.6224 Y7.5233
G1 X2.6512 Y7.4349
G2 X2.6531 Y7.4288 I-0.2021 J-0.0657
G1 X2.6796 Y7.5106
G2 X3.0847 Y7.5078 I0.2021 J-0.0656
G1 X3.1098 Y7.4267
G2 X3.1123 Y7.4349 I0.2046 J-0.0576
G1 X3.1411 Y7.5233
G1 X3.0659 Y7.5779
G2 X2.9803 Y7.7204 I0.1249 J0.1719
G2 X2.957 Y7.7352 I0.1016 J0.1867
G1 X2.8817 Y7.7898
G1 X2.8065 Y7.7352
G1 X2.7771 Y7.7756 F10
G2 X2.7352 Y7.7537 I-0.0955 J0.1315 F10
G2 X2.7352 Y7.7499 I-0.1625 J-0.0038
G2 X2.6682 Y7.6184 I-0.1625 J0
G1 X2.5636 Y7.5424
G1 X2.6036 Y7.4194
G2 X2.6116 Y7.3722 I-0.1545 J-0.0503
G1 X2.6873 Y7.3722
G1 X2.7272 Y7.4952
G2 X3.037 Y7.493 I0.1546 J-0.0502
G1 X3.0743 Y7.3722
G1 X3.1519 Y7.3722
G2 X3.1598 Y7.4194 I0.1625 J-0.0031
G1 X3.1998 Y7.5424
G1 X3.0952 Y7.6184
G2 X3.0283 Y7.7499 I0.0955 J0.1315
G2 X3.0283 Y7.7537 I0.1625 J0
G2 X2.9864 Y7.7756 I0.0536 J0.1534
G1 X2.8817 Y7.8516
G1 X2.7771 Y7.7756
G1 X2.7477 Y7.8161 F10
G2 X2.6759 Y7.7947 I-0.0661 J0.091 F10
G2 X2.6852 Y7.7499 I-0.1032 J-0.0449
G2 X2.6388 Y7.6588 I-0.1125 J0
G1 X2.5048 Y7.5615
G1 X2.5561 Y7.404
G2 X2.5616 Y7.3692 I-0.107 J-0.0348
G2 X2.5512 Y7.322 I-0.1125 J0
G2 X2.5578 Y7.3222 I0.0066 J-0.1123
G1 X2.7236 Y7.3222
G1 X2.7747 Y7.4797
G2 X2.9892 Y7.4782 I0.107 J-0.0347
G1 X3.0375 Y7.3222
G1 X3.2056 Y7.3222
G2 X3.2122 Y7.322 I0 J-0.1125
G2 X3.2019 Y7.3692 I0.1021 J0.0471
G2 X3.2074 Y7.404 I0.1125 J0
G1 X3.2586 Y7.5615
G1 X3.1246 Y7.6588
G2 X3.0783 Y7.7499 I0.0661 J0.091
G2 X3.0876 Y7.7947 I0.1125 J0
G2 X3.0157 Y7.8161 I-0.0057 J0.1124
G1 X2.8817 Y7.9134
G1 X2.7477 Y7.8161
G0 Z0.25
G0 X1.5853 Y7.7057
G1 Z-0.05 F30
G2 X1.6469 Y7.7057 I0.0307 J-0.2607 F10
G1 X1.6161 Y7.7281
G1 X1.5853 Y7.7057
G1 X1.5408 Y7.7351 F10
G2 X1.5176 Y7.7205 I-0.1249 J0.172 F10
G2 X1.4321 Y7.5779 I-0.2105 J0.0294
G1 X1.3568 Y7.5232
G1 X1.3855 Y7.4348
G2 X1.3874 Y7.4288 I-0.2021 J-0.0656
G1 X1.4139 Y7.5106
G2 X1.8191 Y7.5078 I0.2021 J-0.0656
G1 X1.8442 Y7.4265
G2 X1.8467 Y7.4348 I0.2046 J-0.0573
G1 X1.8754 Y7.5232
G1 X1.8002 Y7.5779
G2 X1.7146 Y7.7205 I0.1249 J0.1719
G2 X1.6914 Y7.7352 I0.1017 J0.1866
G1 X1.6161 Y7.7899
G1 X1.5408 Y7.7351
G1 X1.5114 Y7.7756 F10
G2 X1.4696 Y7.7537 I-0.0955 J0.1315 F10
G2 X1.4697 Y7.7499 I-0.1625 J-0.0039
G2 X1.4027 Y7.6184 I-0.1625 J0
G1 X1.298 Y7.5424
G1 X1.338 Y7.4193
G2 X1.3459 Y7.3722 I-0.1546 J-0.0502
G1 X1.4216 Y7.3722
G1 X1.4615 Y7.4952
G2 X1.7713 Y7.493 I0.1546 J-0.0502
G1 X1.8087 Y7.3722
G1 X1.8863 Y7.3722
G2 X1.8943 Y7.4193 I0.1625 J-0.0031
G1 X1.9342 Y7.5424
G1 X1.8296 Y7.6184
G2 X1.7626 Y7.7499 I0.0955 J0.1315
G2 X1.7626 Y7.7537 I0.1625 J0
G2 X1.7208 Y7.7756 I0.0537 J0.1534
G1 X1.6161 Y7.8516
G1 X1.5114 Y7.7756
G1 X1.482 Y7.816 F10
G2 X1.4103 Y7.7947 I-0.0661 J0.091 F10
G2 X1.4197 Y7.7499 I-0.1032 J-0.0449
G2 X1.3733 Y7.6588 I-0.1125 J0
G1 X1.2392 Y7.5615
G1 X1.2904 Y7.4039
G2 X1.2959 Y7.3692 I-0.107 J-0.0347
G2 X1.2855 Y7.322 I-0.1125 J0
G2 X1.2923 Y7.3222 I0.0067 J-0.1123
G1 X1.4579 Y7.3222
G1 X1.509 Y7.4797
G2 X1.7235 Y7.4782 I0.107 J-0.0347
G1 X1.7718 Y7.3222
G1 X1.9399 Y7.3222
G2 X1.9467 Y7.322 I0 J-0.1125
G2 X1.9363 Y7.3692 I0.1021 J0.0471
G2 X1.9418 Y7.4039 I0.1125 J0
G1 X1.993 Y7.5615
G1 X1.8589 Y7.6588
G2 X1.8126 Y7.7499 I0.0661 J0.091
G2 X1.8219 Y7.7947 I0.1125 J0
G2 X1.7502 Y7.8161 I-0.0056 J0.1124
G1 X1.6162 Y7.9134
G1 X1.482 Y7.816
G0 Z0.25
G0 X2.8508 Y8.7837
G1 Z-0.05 F30
G2 X2.9127 Y8.7837 I0.031 J-0.2607 F10
G1 X2.8817 Y8.8062
G1 X2.8508 Y8.7837
G1 X2.8065 Y8.8134 F10
G2 X2.7833 Y8.7987 I-0.1249 J0.1719 F10
G2 X2.6976 Y8.6549 I-0.2106 J0.0281
G1 X2.6224 Y8.6002
G1 X2.6512 Y8.5118
G2 X2.6529 Y8.5063 I-0.2021 J-0.0657
G1 X2.6796 Y8.5887
G2 X3.0847 Y8.5858 I0.2021 J-0.0656
G1 X3.11 Y8.5042
G2 X3.1123 Y8.5118 I0.2044 J-0.0581
G1 X3.1411 Y8.6002
G1 X3.0659 Y8.6549
G2 X2.9801 Y8.7987 I0.1249 J0.1719
G2 X2.957 Y8.8134 I0.1017 J0.1866
G1 X2.8817 Y8.868
G1 X2.8065 Y8.8134
G1 X2.7771 Y8.8538 F10
G2 X2.7351 Y8.8318 I-0.0955 J0.1315 F10
G2 X2.7352 Y8.8268 I-0.1624 J-0.005
G2 X2.6682 Y8.6953 I-0.1625 J0
G1 X2.5636 Y8.6193
G1 X2.6036 Y8.4964
G2 X2.6115 Y8.4503 I-0.1545 J-0.0503
G1 X2.6873 Y8.4503
G1 X2.7272 Y8.5732
G2 X3.037 Y8.5711 I0.1546 J-0.0502
G1 X3.0743 Y8.4503
G1 X3.1519 Y8.4503
G2 X3.1598 Y8.4964 I0.1624 J-0.0042
G1 X3.1998 Y8.6193
G1 X3.0952 Y8.6953
G2 X3.0283 Y8.8268 I0.0955 J0.1315
G2 X3.0283 Y8.8318 I0.1625 J0
G2 X2.9864 Y8.8538 I0.0535 J0.1534
G1 X2.8817 Y8.9298
G1 X2.7771 Y8.8538
G1 X2.7477 Y8.8943 F10
G2 X2.6753 Y8.8729 I-0.0661 J0.091 F10
G2 X2.6852 Y8.8268 I-0.1026 J-0.0461
G2 X2.6388 Y8.7358 I-0.1125 J0
G1 X2.5048 Y8.6384
G1 X2.5561 Y8.4809
G2 X2.5616 Y8.4461 I-0.107 J-0.0348
G2 X2.5518 Y8.4001 I-0.1125 J0
G2 X2.5578 Y8.4003 I0.0061 J-0.1123
G1 X2.7236 Y8.4003
G1 X2.7747 Y8.5578
G2 X2.9892 Y8.5563 I0.107 J-0.0347
G1 X3.0375 Y8.4003
G1 X3.2056 Y8.4003
G2 X3.2117 Y8.4001 I0 J-0.1125
G2 X3.2019 Y8.4461 I0.1027 J0.046
G2 X3.2074 Y8.4809 I0.1125 J0
G1 X3.2586 Y8.6384
G1 X3.1246 Y8.7358
G2 X3.0783 Y8.8268 I0.0661 J0.091
G2 X3.0882 Y8.8729 I0.1125 J0
G2 X3.0157 Y8.8943 I-0.0063 J0.1123
G1 X2.8817 Y8.9916
G1 X2.7477 Y8.8943
G0 Z0.25
G0 X4.1166 Y7.7057
G1 Z-0.05 F30
G2 X4.1782 Y7.7057 I0.0307 J-0.2607 F10
G1 X4.1473 Y7.7281
G1 X4.1166 Y7.7057
G1 X4.0721 Y7.7352 F10
G2 X4.0489 Y7.7205 I-0.1249 J0.1719 F10
G2 X3.9633 Y7.5779 I-0.2105 J0.0294
G1 X3.888 Y7.5232
G1 X3.9168 Y7.4348
G2 X3.9186 Y7.4288 I-0.2021 J-0.0656
G1 X3.9452 Y7.5106
G2 X4.3503 Y7.5078 I0.2021 J-0.0656
G1 X4.3754 Y7.4265
G2 X4.378 Y7.4348 I0.2046 J-0.0573
G1 X4.4067 Y7.5232
G1 X4.3314 Y7.5779
G2 X4.2459 Y7.7205 I0.1249 J0.1719
G2 X4.2227 Y7.7351 I0.1017 J0.1866
G1 X4.1473 Y7.7899
G1 X4.0721 Y7.7352
G1 X4.0427 Y7.7756 F10
G2 X4.0009 Y7.7537 I-0.0955 J0.1315 F10
G2 X4.0009 Y7.7499 I-0.1625 J-0.0039
G2 X3.9339 Y7.6184 I-0.1625 J0
G1 X3.8293 Y7.5424
G1 X3.8692 Y7.4193
G2 X3.8771 Y7.3722 I-0.1546 J-0.0502
G1 X3.9528 Y7.3722
G1 X3.9927 Y7.4952
G2 X4.3025 Y7.493 I0.1546 J-0.0502
G1 X4.3399 Y7.3722
G1 X4.4176 Y7.3722
G2 X4.4255 Y7.4193 I0.1625 J-0.0031
G1 X4.4655 Y7.5424
G1 X4.3608 Y7.6184
G2 X4.2938 Y7.7499 I0.0955 J0.1315
G2 X4.2939 Y7.7537 I0.1625 J0
G2 X4.2521 Y7.7756 I0.0537 J0.1534
G1 X4.1473 Y7.8516
G1 X4.0427 Y7.7756
G1 X4.0133 Y7.8161 F10
G2 X3.9416 Y7.7947 I-0.0661 J0.091 F10
G2 X3.9509 Y7.7499 I-0.1032 J-0.0449
G2 X3.9045 Y7.6588 I-0.1125 J0
G1 X3.7705 Y7.5615
G1 X3.8217 Y7.4039
G2 X3.8272 Y7.3692 I-0.107 J-0.0347
G2 X3.8168 Y7.322 I-0.1125 J0
G2 X3.8235 Y7.3222 I0.0067 J-0.1123
G1 X3.9891 Y7.3222
G1 X4.0403 Y7.4797
G2 X4.2548 Y7.4782 I0.107 J-0.0347
G1 X4.303 Y7.3222
G1 X4.4712 Y7.3222
G2 X4.4779 Y7.322 I0 J-0.1125
G2 X4.4676 Y7.3692 I0.1021 J0.0471
G2 X4.4731 Y7.4039 I0.1125 J0
G1 X4.5242 Y7.5615
G1 X4.3902 Y7.6588
G2 X4.3438 Y7.7499 I0.0661 J0.091
G2 X4.3532 Y7.7947 I0.1125 J0
G2 X4.2815 Y7.816 I-0.0056 J0.1124
G1 X4.1473 Y7.9134
G1 X4.0133 Y7.8161
G0 Z0.25
G0 X6.013 Y9.3225
G1 Z-0.05 F30
G2 X6.0786 Y9.3225 I0.0328 J-0.2604 F10
G1 X6.0458 Y9.3464
G1 X6.013 Y9.3225
