(Generated by PartKam Version 0.05)

G20 G90 G40

(profile 1)
G0 Z0.5
T0 M6
G17
M3
G0 X4.675 Y0.7188
G1 Z-0.75 F30
G1 X9.675 Y0.7188 F60
G3 X9.8 Y0.8438 I0 J0.125
G1 X9.8 Y5.8438
G3 X9.675 Y5.9688 I-0.125 J0
G1 X4.675 Y5.9688
G3 X4.55 Y5.8438 I0 J-0.125
G1 X4.55 Y0.8438
G3 X4.675 Y0.7188 I0.125 J0
G0 Z0.5
M5
M30
